P3
128 128
255
255 255 255  255 255 255  255 255 255  255 255 255  255 255 255  183 183 183  88 88 88  31 31 31  0 0 0  0 0 0  0 0 0  0 0 0  0 0 0  0 0 0  0 0 0  0 0 0  0 0 0  0 0 0  0 0 0  0 0 0  0 0 0  0 0 0  0 0 0  0 0 0  0 0 0  0 0 0  0 0 0  0 0 0  0 0 0  0 0 0  0 0 0  0 0 0  0 0 0  0 0 0  1 1 1  3 3 3  4 4 4  5 5 5  6 6 6  7 7 7  8 8 8  8 8 8  9 9 9  9 9 9  9 9 9  9 9 9  9 9 9  9 9 9  8 8 8  8 8 8  7 7 7  7 7 7  6 6 6  6 6 6  5 5 5  4 4 4  4 4 4  3 3 3  3 3 3  2 2 2  1 1 1  1 1 1  1 1 1  0 0 0  0 0 0  0 0 0  0 0 0  0 0 0  0 0 0  0 0 0  0 0 0  0 0 0  0 0 0  0 0 0  0 0 0  0 0 0  0 0 0  0 0 0  0 0 0  0 0 0  0 0 0  1 1 1  1 1 1  1 1 1  1 1 1  1 1 1  1 1 1  0 0 0  0 0 0  0 0 0  0 0 0  0 0 0  0 0 0  0 0 0  0 0 0  0 0 0  0 0 0  0 0 0  0 0 0  0 0 0  0 0 0  0 0 0  0 0 0  0 0 0  0 0 0  0 0 0  0 0 0  0 0 0  0 0 0  0 0 0  0 0 0  0 0 0  0 0 0  0 0 0  0 0 0  0 0 0  0 0 0  0 0 0  0 0 0  0 0 0  0 0 0  0 0 0  0 0 0  0 0 0  0 0 0  0 0 0  0 0 0  0 0 0  
255 255 255  255 255 255  255 255 255  255 255 255  255 255 255  255 255 255  170 170 170  110 110 110  71 71 71  45 45 45  28 28 28  17 17 17  9 9 9  4 4 4  0 0 0  0 0 0  0 0 0  0 0 0  0 0 0  0 0 0  0 0 0  0 0 0  0 0 0  0 0 0  0 0 0  0 0 0  0 0 0  0 0 0  0 0 0  0 0 0  0 0 0  0 0 0  0 0 0  0 0 0  0 0 0  0 0 0  0 0 0  0 0 0  1 1 1  2 2 2  2 2 2  3 3 3  3 3 3  3 3 3  3 3 3  3 3 3  3 3 3  3 3 3  3 3 3  3 3 3  3 3 3  2 2 2  2 2 2  2 2 2  1 1 1  1 1 1  1 1 1  0 0 0  0 0 0  0 0 0  0 0 0  0 0 0  0 0 0  0 0 0  0 0 0  0 0 0  0 0 0  0 0 0  0 0 0  0 0 0  0 0 0  0 0 0  0 0 0  0 0 0  0 0 0  0 0 0  0 0 0  0 0 0  0 0 0  0 0 0  1 1 1  1 1 1  1 1 1  1 1 1  1 1 1  1 1 1  1 1 1  1 1 1  1 1 1  1 1 1  1 1 1  1 1 1  0 0 0  0 0 0  0 0 0  0 0 0  0 0 0  0 0 0  0 0 0  0 0 0  0 0 0  0 0 0  0 0 0  0 0 0  0 0 0  0 0 0  0 0 0  0 0 0  0 0 0  0 0 0  0 0 0  0 0 0  0 0 0  0 0 0  0 0 0  0 0 0  0 0 0  0 0 0  0 0 0  1 1 1  1 1 1  1 1 1  1 1 1  0 0 0  0 0 0  0 0 0  0 0 0  0 0 0  
255 255 255  255 255 255  255 255 255  255 255 255  255 255 255  255 255 255  239 239 239  177 177 177  133 133 133  102 102 102  79 79 79  62 62 62  49 49 49  38 38 38  30 30 30  23 23 23  18 18 18  13 13 13  9 9 9  6 6 6  3 3 3  1 1 1  0 0 0  0 0 0  0 0 0  0 0 0  0 0 0  0 0 0  0 0 0  0 0 0  0 0 0  0 0 0  0 0 0  0 0 0  0 0 0  0 0 0  0 0 0  0 0 0  0 0 0  0 0 0  0 0 0  0 0 0  0 0 0  0 0 0  0 0 0  0 0 0  0 0 0  0 0 0  0 0 0  0 0 0  0 0 0  0 0 0  0 0 0  0 0 0  0 0 0  0 0 0  0 0 0  0 0 0  0 0 0  0 0 0  0 0 0  0 0 0  0 0 0  0 0 0  0 0 0  0 0 0  0 0 0  0 0 0  0 0 0  0 0 0  0 0 0  0 0 0  0 0 0  0 0 0  0 0 0  0 0 0  0 0 0  0 0 0  0 0 0  1 1 1  1 1 1  1 1 1  1 1 1  1 1 1  1 1 1  1 1 1  1 1 1  1 1 1  1 1 1  1 1 1  1 1 1  1 1 1  1 1 1  1 1 1  1 1 1  1 1 1  0 0 0  0 0 0  0 0 0  0 0 0  0 0 0  0 0 0  0 0 0  0 0 0  0 0 0  0 0 0  0 0 0  0 0 0  0 0 0  0 0 0  0 0 0  0 0 0  0 0 0  0 0 0  0 0 0  1 1 1  1 1 1  1 1 1  2 2 2  2 2 2  2 2 2  2 2 2  2 2 2  2 2 2  1 1 1  0 0 0  0 0 0  0 0 0  
255 255 255  255 255 255  255 255 255  255 255 255  255 255 255  255 255 255  255 255 255  233 233 233  186 186 186  150 150 150  122 122 122  101 101 101  83 83 83  69 69 69  57 57 57  47 47 47  38 38 38  31 31 31  25 25 25  20 20 20  15 15 15  11 11 11  8 8 8  5 5 5  3 3 3  1 1 1  0 0 0  0 0 0  0 0 0  0 0 0  0 0 0  0 0 0  0 0 0  0 0 0  0 0 0  0 0 0  0 0 0  0 0 0  0 0 0  0 0 0  0 0 0  0 0 0  0 0 0  0 0 0  0 0 0  0 0 0  0 0 0  0 0 0  0 0 0  0 0 0  0 0 0  0 0 0  0 0 0  0 0 0  0 0 0  0 0 0  0 0 0  0 0 0  0 0 0  0 0 0  0 0 0  0 0 0  0 0 0  0 0 0  0 0 0  0 0 0  0 0 0  0 0 0  0 0 0  0 0 0  0 0 0  0 0 0  0 0 0  0 0 0  0 0 0  0 0 0  0 0 0  0 0 0  0 0 0  0 0 0  1 1 1  1 1 1  1 1 1  1 1 1  1 1 1  1 1 1  2 2 2  2 2 2  2 2 2  2 2 2  2 2 2  2 2 2  2 2 2  2 2 2  2 2 2  1 1 1  1 1 1  1 1 1  1 1 1  1 1 1  1 1 1  1 1 1  1 1 1  1 1 1  1 1 1  1 1 1  1 1 1  1 1 1  1 1 1  1 1 1  1 1 1  1 1 1  1 1 1  1 1 1  2 2 2  2 2 2  2 2 2  3 3 3  3 3 3  3 3 3  3 3 3  3 3 3  3 3 3  3 3 3  2 2 2  2 2 2  1 1 1  0 0 0  
255 255 255  255 255 255  255 255 255  255 255 255  255 255 255  255 255 255  255 255 255  255 255 255  229 229 229  190 190 190  159 159 159  134 134 134  113 113 113  96 96 96  81 81 81  68 68 68  57 57 57  48 48 48  40 40 40  33 33 33  27 27 27  22 22 22  18 18 18  14 14 14  10 10 10  8 8 8  5 5 5  3 3 3  2 2 2  0 0 0  0 0 0  0 0 0  0 0 0  0 0 0  0 0 0  0 0 0  0 0 0  0 0 0  0 0 0  0 0 0  0 0 0  0 0 0  0 0 0  0 0 0  0 0 0  0 0 0  0 0 0  0 0 0  0 0 0  0 0 0  0 0 0  0 0 0  0 0 0  0 0 0  0 0 0  0 0 0  0 0 0  0 0 0  0 0 0  0 0 0  0 0 0  0 0 0  0 0 0  0 0 0  0 0 0  0 0 0  0 0 0  0 0 0  0 0 0  0 0 0  0 0 0  0 0 0  0 0 0  0 0 0  0 0 0  0 0 0  0 0 0  0 0 0  0 0 0  0 0 0  0 0 0  1 1 1  1 1 1  1 1 1  1 1 1  1 1 1  2 2 2  2 2 2  2 2 2  2 2 2  2 2 2  2 2 2  2 2 2  2 2 2  2 2 2  2 2 2  2 2 2  2 2 2  2 2 2  2 2 2  2 2 2  2 2 2  2 2 2  2 2 2  2 2 2  2 2 2  2 2 2  2 2 2  2 2 2  2 2 2  2 2 2  2 2 2  2 2 2  2 2 2  3 3 3  3 3 3  3 3 3  3 3 3  3 3 3  3 3 3  4 4 4  4 4 4  4 4 4  3 3 3  3 3 3  3 3 3  2 2 2  1 1 1  
255 255 255  255 255 255  255 255 255  255 255 255  255 255 255  255 255 255  255 255 255  255 255 255  255 255 255  224 224 224  190 190 190  162 162 162  139 139 139  119 119 119  102 102 102  87 87 87  74 74 74  64 64 64  54 54 54  46 46 46  39 39 39  32 32 32  27 27 27  22 22 22  18 18 18  14 14 14  11 11 11  9 9 9  6 6 6  4 4 4  3 3 3  1 1 1  0 0 0  0 0 0  0 0 0  0 0 0  0 0 0  0 0 0  0 0 0  0 0 0  0 0 0  0 0 0  0 0 0  0 0 0  0 0 0  0 0 0  0 0 0  0 0 0  0 0 0  0 0 0  0 0 0  0 0 0  0 0 0  0 0 0  0 0 0  0 0 0  0 0 0  0 0 0  0 0 0  0 0 0  0 0 0  0 0 0  0 0 0  0 0 0  0 0 0  0 0 0  0 0 0  0 0 0  0 0 0  0 0 0  0 0 0  0 0 0  0 0 0  0 0 0  0 0 0  0 0 0  0 0 0  0 0 0  0 0 0  0 0 0  0 0 0  0 0 0  1 1 1  1 1 1  1 1 1  1 1 1  1 1 1  1 1 1  2 2 2  2 2 2  2 2 2  2 2 2  2 2 2  2 2 2  2 2 2  2 2 2  2 2 2  2 2 2  2 2 2  2 2 2  2 2 2  2 2 2  2 2 2  2 2 2  2 2 2  2 2 2  2 2 2  2 2 2  2 2 2  3 3 3  3 3 3  3 3 3  3 3 3  3 3 3  3 3 3  3 3 3  3 3 3  3 3 3  4 4 4  4 4 4  4 4 4  4 4 4  4 4 4  4 4 4  3 3 3  3 3 3  3 3 3  2 2 2  
255 255 255  255 255 255  255 255 255  255 255 255  255 255 255  255 255 255  255 255 255  255 255 255  255 255 255  251 251 251  216 216 216  186 186 186  160 160 160  139 139 139  120 120 120  104 104 104  90 90 90  78 78 78  67 67 67  58 58 58  49 49 49  42 42 42  36 36 36  30 30 30  26 26 26  21 21 21  18 18 18  14 14 14  11 11 11  9 9 9  7 7 7  5 5 5  3 3 3  2 2 2  1 1 1  0 0 0  0 0 0  0 0 0  0 0 0  0 0 0  0 0 0  0 0 0  0 0 0  0 0 0  0 0 0  0 0 0  0 0 0  0 0 0  0 0 0  0 0 0  0 0 0  0 0 0  0 0 0  0 0 0  0 0 0  0 0 0  0 0 0  0 0 0  0 0 0  0 0 0  0 0 0  0 0 0  0 0 0  0 0 0  0 0 0  0 0 0  0 0 0  0 0 0  0 0 0  0 0 0  0 0 0  0 0 0  0 0 0  0 0 0  0 0 0  0 0 0  0 0 0  0 0 0  0 0 0  0 0 0  0 0 0  0 0 0  0 0 0  1 1 1  1 1 1  1 1 1  1 1 1  1 1 1  1 1 1  1 1 1  2 2 2  2 2 2  2 2 2  2 2 2  2 2 2  2 2 2  2 2 2  2 2 2  2 2 2  2 2 2  2 2 2  2 2 2  2 2 2  3 3 3  3 3 3  3 3 3  3 3 3  3 3 3  3 3 3  3 3 3  3 3 3  3 3 3  3 3 3  3 3 3  3 3 3  3 3 3  3 3 3  3 3 3  3 3 3  4 4 4  4 4 4  4 4 4  4 4 4  4 4 4  4 4 4  3 3 3  3 3 3  3 3 3  
255 255 255  255 255 255  255 255 255  255 255 255  255 255 255  255 255 255  255 255 255  255 255 255  255 255 255  255 255 255  237 237 237  206 206 206  179 179 179  156 156 156  136 136 136  119 119 119  104 104 104  90 90 90  79 79 79  69 69 69  60 60 60  52 52 52  45 45 45  39 39 39  33 33 33  29 29 29  24 24 24  20 20 20  17 17 17  14 14 14  12 12 12  9 9 9  7 7 7  5 5 5  4 4 4  2 2 2  1 1 1  0 0 0  0 0 0  0 0 0  0 0 0  0 0 0  0 0 0  0 0 0  0 0 0  0 0 0  0 0 0  0 0 0  0 0 0  0 0 0  0 0 0  0 0 0  0 0 0  0 0 0  0 0 0  0 0 0  0 0 0  0 0 0  0 0 0  0 0 0  0 0 0  0 0 0  0 0 0  0 0 0  0 0 0  0 0 0  0 0 0  0 0 0  0 0 0  0 0 0  0 0 0  0 0 0  0 0 0  0 0 0  0 0 0  0 0 0  0 0 0  0 0 0  0 0 0  0 0 0  0 0 0  0 0 0  0 0 0  0 0 0  0 0 0  1 1 1  1 1 1  1 1 1  1 1 1  1 1 1  1 1 1  1 1 1  1 1 1  2 2 2  2 2 2  2 2 2  2 2 2  2 2 2  2 2 2  2 2 2  2 2 2  2 2 2  2 2 2  2 2 2  3 3 3  3 3 3  3 3 3  3 3 3  3 3 3  3 3 3  3 3 3  3 3 3  3 3 3  3 3 3  3 3 3  3 3 3  3 3 3  3 3 3  3 3 3  3 3 3  3 3 3  3 3 3  3 3 3  3 3 3  3 3 3  3 3 3  3 3 3  3 3 3  
255 255 255  255 255 255  255 255 255  255 255 255  255 255 255  255 255 255  255 255 255  255 255 255  255 255 255  255 255 255  253 253 253  222 222 222  194 194 194  170 170 170  150 150 150  132 132 132  116 116 116  102 102 102  90 90 90  79 79 79  70 70 70  61 61 61  54 54 54  47 47 47  41 41 41  36 36 36  31 31 31  27 27 27  23 23 23  20 20 20  17 17 17  14 14 14  12 12 12  10 10 10  8 8 8  6 6 6  5 5 5  3 3 3  2 2 2  1 1 1  0 0 0  0 0 0  0 0 0  0 0 0  0 0 0  0 0 0  0 0 0  0 0 0  0 0 0  0 0 0  0 0 0  0 0 0  0 0 0  0 0 0  0 0 0  0 0 0  0 0 0  0 0 0  0 0 0  0 0 0  0 0 0  0 0 0  0 0 0  0 0 0  0 0 0  0 0 0  0 0 0  0 0 0  0 0 0  0 0 0  0 0 0  0 0 0  0 0 0  0 0 0  0 0 0  0 0 0  0 0 0  0 0 0  0 0 0  0 0 0  0 0 0  0 0 0  0 0 0  0 0 0  0 0 0  0 0 0  0 0 0  0 0 0  1 1 1  1 1 1  1 1 1  1 1 1  1 1 1  1 1 1  1 1 1  1 1 1  2 2 2  2 2 2  2 2 2  2 2 2  2 2 2  2 2 2  2 2 2  2 2 2  2 2 2  2 2 2  2 2 2  2 2 2  3 3 3  3 3 3  3 3 3  3 3 3  3 3 3  3 3 3  3 3 3  3 3 3  3 3 3  3 3 3  3 3 3  3 3 3  3 3 3  3 3 3  3 3 3  3 3 3  3 3 3  3 3 3  3 3 3  3 3 3  
255 255 255  255 255 255  255 255 255  255 255 255  255 255 255  255 255 255  255 255 255  255 255 255  255 255 255  255 255 255  255 255 255  235 235 235  207 207 207  183 183 183  162 162 162  143 143 143  127 127 127  113 113 113  100 100 100  89 89 89  79 79 79  70 70 70  62 62 62  55 55 55  49 49 49  43 43 43  38 38 38  33 33 33  29 29 29  26 26 26  22 22 22  19 19 19  17 17 17  14 14 14  12 12 12  10 10 10  8 8 8  7 7 7  5 5 5  4 4 4  3 3 3  2 2 2  1 1 1  1 1 1  0 0 0  0 0 0  0 0 0  0 0 0  0 0 0  0 0 0  0 0 0  0 0 0  0 0 0  0 0 0  0 0 0  0 0 0  0 0 0  0 0 0  0 0 0  0 0 0  0 0 0  0 0 0  0 0 0  0 0 0  0 0 0  0 0 0  0 0 0  0 0 0  0 0 0  0 0 0  0 0 0  0 0 0  0 0 0  0 0 0  0 0 0  0 0 0  0 0 0  0 0 0  0 0 0  0 0 0  0 0 0  0 0 0  0 0 0  0 0 0  0 0 0  0 0 0  0 0 0  0 0 0  0 0 0  0 0 0  0 0 0  0 0 0  1 1 1  1 1 1  1 1 1  1 1 1  1 1 1  1 1 1  1 1 1  1 1 1  1 1 1  2 2 2  2 2 2  2 2 2  2 2 2  2 2 2  2 2 2  2 2 2  2 2 2  2 2 2  2 2 2  2 2 2  2 2 2  2 2 2  2 2 2  2 2 2  2 2 2  2 2 2  2 2 2  2 2 2  2 2 2  2 2 2  2 2 2  2 2 2  2 2 2  2 2 2  3 3 3  3 3 3  
255 255 255  255 255 255  255 255 255  255 255 255  255 255 255  255 255 255  255 255 255  255 255 255  255 255 255  255 255 255  255 255 255  245 245 245  217 217 217  193 193 193  172 172 172  153 153 153  137 137 137  122 122 122  109 109 109  98 98 98  87 87 87  78 78 78  70 70 70  63 63 63  56 56 56  50 50 50  45 45 45  40 40 40  36 36 36  32 32 32  28 28 28  25 25 25  22 22 22  19 19 19  17 17 17  15 15 15  13 13 13  11 11 11  9 9 9  8 8 8  7 7 7  5 5 5  4 4 4  4 4 4  3 3 3  2 2 2  1 1 1  1 1 1  0 0 0  0 0 0  0 0 0  0 0 0  0 0 0  0 0 0  0 0 0  0 0 0  0 0 0  0 0 0  0 0 0  0 0 0  0 0 0  0 0 0  0 0 0  0 0 0  0 0 0  0 0 0  0 0 0  0 0 0  0 0 0  0 0 0  0 0 0  0 0 0  0 0 0  0 0 0  0 0 0  0 0 0  0 0 0  0 0 0  0 0 0  0 0 0  0 0 0  0 0 0  0 0 0  0 0 0  0 0 0  0 0 0  0 0 0  0 0 0  0 0 0  0 0 0  0 0 0  0 0 0  0 0 0  0 0 0  0 0 0  0 0 0  0 0 0  1 1 1  1 1 1  1 1 1  1 1 1  1 1 1  1 1 1  1 1 1  1 1 1  1 1 1  1 1 1  1 1 1  1 1 1  2 2 2  2 2 2  1 1 1  1 1 1  1 1 1  1 1 1  1 1 1  1 1 1  1 1 1  1 1 1  1 1 1  1 1 1  1 1 1  1 1 1  1 1 1  1 1 1  2 2 2  2 2 2  2 2 2  
255 255 255  255 255 255  255 255 255  255 255 255  255 255 255  255 255 255  255 255 255  255 255 255  255 255 255  255 255 255  255 255 255  253 253 253  225 225 225  202 202 202  180 180 180  162 162 162  145 145 145  131 131 131  118 118 118  106 106 106  96 96 96  86 86 86  78 78 78  70 70 70  63 63 63  57 57 57  52 52 52  47 47 47  42 42 42  38 38 38  34 34 34  30 30 30  27 27 27  24 24 24  22 22 22  19 19 19  17 17 17  15 15 15  13 13 13  12 12 12  10 10 10  9 9 9  8 8 8  7 7 7  6 6 6  5 5 5  4 4 4  3 3 3  3 3 3  2 2 2  2 2 2  2 2 2  1 1 1  1 1 1  1 1 1  0 0 0  0 0 0  0 0 0  0 0 0  0 0 0  0 0 0  0 0 0  0 0 0  0 0 0  0 0 0  0 0 0  0 0 0  0 0 0  0 0 0  0 0 0  0 0 0  0 0 0  0 0 0  0 0 0  0 0 0  0 0 0  0 0 0  0 0 0  0 0 0  0 0 0  0 0 0  0 0 0  0 0 0  0 0 0  0 0 0  0 0 0  0 0 0  0 0 0  0 0 0  0 0 0  0 0 0  0 0 0  0 0 0  0 0 0  0 0 0  0 0 0  0 0 0  0 0 0  0 0 0  0 0 0  0 0 0  0 0 0  0 0 0  1 1 1  1 1 1  1 1 1  1 1 1  1 1 1  1 1 1  1 1 1  1 1 1  1 1 1  1 1 1  1 1 1  1 1 1  1 1 1  0 0 0  0 0 0  0 0 0  0 0 0  0 0 0  0 0 0  0 0 0  0 0 0  1 1 1  1 1 1  1 1 1  2 2 2  
255 255 255  255 255 255  255 255 255  255 255 255  255 255 255  255 255 255  255 255 255  255 255 255  255 255 255  255 255 255  255 255 255  255 255 255  232 232 232  208 208 208  188 188 188  169 169 169  153 153 153  138 138 138  125 125 125  114 114 114  103 103 103  94 94 94  85 85 85  77 77 77  70 70 70  64 64 64  58 58 58  53 53 53  48 48 48  44 44 44  40 40 40  36 36 36  33 33 33  30 30 30  27 27 27  24 24 24  22 22 22  20 20 20  18 18 18  16 16 16  14 14 14  13 13 13  11 11 11  10 10 10  9 9 9  8 8 8  7 7 7  6 6 6  6 6 6  5 5 5  4 4 4  4 4 4  3 3 3  3 3 3  3 3 3  2 2 2  2 2 2  2 2 2  1 1 1  1 1 1  1 1 1  1 1 1  1 1 1  0 0 0  0 0 0  0 0 0  0 0 0  0 0 0  0 0 0  0 0 0  0 0 0  0 0 0  0 0 0  0 0 0  0 0 0  0 0 0  0 0 0  0 0 0  0 0 0  0 0 0  0 0 0  0 0 0  0 0 0  0 0 0  0 0 0  0 0 0  0 0 0  0 0 0  0 0 0  0 0 0  0 0 0  0 0 0  0 0 0  0 0 0  0 0 0  0 0 0  0 0 0  0 0 0  0 0 0  0 0 0  0 0 0  0 0 0  0 0 0  0 0 0  0 0 0  0 0 0  0 0 0  0 0 0  0 0 0  0 0 0  0 0 0  0 0 0  0 0 0  0 0 0  0 0 0  0 0 0  0 0 0  0 0 0  0 0 0  0 0 0  0 0 0  0 0 0  0 0 0  0 0 0  0 0 0  0 0 0  0 0 0  1 1 1  
255 255 255  255 255 255  255 255 255  255 255 255  255 255 255  255 255 255  255 255 255  255 255 255  255 255 255  255 255 255  255 255 255  255 255 255  237 237 237  214 214 214  194 194 194  175 175 175  159 159 159  145 145 145  132 132 132  121 121 121  110 110 110  101 101 101  92 92 92  84 84 84  77 77 77  71 71 71  65 65 65  59 59 59  54 54 54  50 50 50  46 46 46  42 42 42  38 38 38  35 35 35  32 32 32  29 29 29  27 27 27  24 24 24  22 22 22  20 20 20  18 18 18  17 17 17  15 15 15  14 14 14  12 12 12  11 11 11  10 10 10  9 9 9  8 8 8  8 8 8  7 7 7  6 6 6  6 6 6  5 5 5  5 5 5  4 4 4  4 4 4  3 3 3  3 3 3  3 3 3  2 2 2  2 2 2  2 2 2  2 2 2  1 1 1  1 1 1  1 1 1  1 1 1  1 1 1  0 0 0  0 0 0  0 0 0  0 0 0  0 0 0  0 0 0  0 0 0  0 0 0  0 0 0  0 0 0  0 0 0  0 0 0  0 0 0  0 0 0  0 0 0  0 0 0  0 0 0  0 0 0  0 0 0  0 0 0  0 0 0  0 0 0  0 0 0  0 0 0  0 0 0  0 0 0  0 0 0  0 0 0  0 0 0  0 0 0  0 0 0  0 0 0  0 0 0  0 0 0  0 0 0  0 0 0  0 0 0  0 0 0  0 0 0  0 0 0  0 0 0  0 0 0  0 0 0  0 0 0  0 0 0  0 0 0  0 0 0  0 0 0  0 0 0  0 0 0  0 0 0  0 0 0  0 0 0  0 0 0  0 0 0  0 0 0  0 0 0  0 0 0  0 0 0  
255 255 255  255 255 255  255 255 255  255 255 255  255 255 255  255 255 255  255 255 255  255 255 255  255 255 255  255 255 255  255 255 255  255 255 255  240 240 240  218 218 218  198 198 198  181 181 181  165 165 165  151 151 151  138 138 138  127 127 127  117 117 117  107 107 107  99 99 99  91 91 91  84 84 84  77 77 77  71 71 71  66 66 66  60 60 60  56 56 56  51 51 51  47 47 47  44 44 44  40 40 40  37 37 37  34 34 34  31 31 31  29 29 29  27 27 27  24 24 24  22 22 22  21 21 21  19 19 19  17 17 17  16 16 16  15 15 15  13 13 13  12 12 12  11 11 11  10 10 10  10 10 10  9 9 9  8 8 8  7 7 7  7 7 7  6 6 6  6 6 6  5 5 5  5 5 5  4 4 4  4 4 4  4 4 4  3 3 3  3 3 3  3 3 3  2 2 2  2 2 2  2 2 2  1 1 1  1 1 1  1 1 1  1 1 1  0 0 0  0 0 0  0 0 0  0 0 0  0 0 0  0 0 0  0 0 0  0 0 0  0 0 0  0 0 0  0 0 0  0 0 0  0 0 0  0 0 0  0 0 0  0 0 0  0 0 0  0 0 0  0 0 0  0 0 0  0 0 0  0 0 0  0 0 0  0 0 0  0 0 0  0 0 0  0 0 0  0 0 0  0 0 0  0 0 0  0 0 0  0 0 0  0 0 0  0 0 0  0 0 0  0 0 0  0 0 0  0 0 0  0 0 0  0 0 0  0 0 0  0 0 0  0 0 0  0 0 0  0 0 0  0 0 0  0 0 0  0 0 0  0 0 0  0 0 0  0 0 0  0 0 0  0 0 0  0 0 0  0 0 0  0 0 0  
255 255 255  255 255 255  255 255 255  255 255 255  255 255 255  255 255 255  255 255 255  255 255 255  255 255 255  255 255 255  255 255 255  255 255 255  242 242 242  221 221 221  202 202 202  185 185 185  170 170 170  156 156 156  144 144 144  133 133 133  123 123 123  113 113 113  105 105 105  97 97 97  90 90 90  83 83 83  77 77 77  71 71 71  66 66 66  61 61 61  57 57 57  53 53 53  49 49 49  45 45 45  42 42 42  39 39 39  36 36 36  34 34 34  31 31 31  29 29 29  27 27 27  25 25 25  23 23 23  21 21 21  20 20 20  18 18 18  17 17 17  16 16 16  14 14 14  13 13 13  12 12 12  11 11 11  11 11 11  10 10 10  9 9 9  8 8 8  8 8 8  7 7 7  7 7 7  6 6 6  5 5 5  5 5 5  5 5 5  4 4 4  4 4 4  3 3 3  3 3 3  3 3 3  2 2 2  2 2 2  2 2 2  1 1 1  1 1 1  1 1 1  0 0 0  0 0 0  0 0 0  0 0 0  0 0 0  0 0 0  0 0 0  0 0 0  0 0 0  0 0 0  0 0 0  0 0 0  0 0 0  0 0 0  0 0 0  0 0 0  0 0 0  0 0 0  0 0 0  0 0 0  0 0 0  0 0 0  0 0 0  0 0 0  0 0 0  0 0 0  0 0 0  0 0 0  0 0 0  0 0 0  0 0 0  0 0 0  0 0 0  0 0 0  0 0 0  0 0 0  0 0 0  0 0 0  0 0 0  0 0 0  0 0 0  0 0 0  0 0 0  0 0 0  0 0 0  0 0 0  0 0 0  0 0 0  0 0 0  0 0 0  0 0 0  0 0 0  0 0 0  0 0 0  
255 255 255  255 255 255  255 255 255  255 255 255  255 255 255  255 255 255  255 255 255  255 255 255  255 255 255  255 255 255  255 255 255  255 255 255  243 243 243  223 223 223  205 205 205  189 189 189  174 174 174  161 161 161  149 149 149  138 138 138  128 128 128  119 119 119  110 110 110  103 103 103  95 95 95  89 89 89  83 83 83  77 77 77  72 72 72  67 67 67  62 62 62  58 58 58  54 54 54  51 51 51  47 47 47  44 44 44  41 41 41  38 38 38  36 36 36  33 33 33  31 31 31  29 29 29  27 27 27  25 25 25  23 23 23  22 22 22  20 20 20  19 19 19  18 18 18  16 16 16  15 15 15  14 14 14  13 13 13  12 12 12  11 11 11  11 11 11  10 10 10  9 9 9  8 8 8  8 8 8  7 7 7  7 7 7  6 6 6  5 5 5  5 5 5  4 4 4  4 4 4  4 4 4  3 3 3  3 3 3  2 2 2  2 2 2  2 2 2  1 1 1  1 1 1  1 1 1  0 0 0  0 0 0  0 0 0  0 0 0  0 0 0  0 0 0  0 0 0  0 0 0  0 0 0  0 0 0  0 0 0  0 0 0  0 0 0  0 0 0  0 0 0  0 0 0  0 0 0  0 0 0  0 0 0  0 0 0  0 0 0  0 0 0  0 0 0  0 0 0  0 0 0  0 0 0  0 0 0  0 0 0  0 0 0  0 0 0  0 0 0  0 0 0  0 0 0  0 0 0  0 0 0  0 0 0  0 0 0  0 0 0  0 0 0  0 0 0  0 0 0  0 0 0  0 0 0  0 0 0  0 0 0  0 0 0  0 0 0  0 0 0  0 0 0  0 0 0  0 0 0  0 0 0  
255 255 255  255 255 255  255 255 255  255 255 255  255 255 255  255 255 255  255 255 255  255 255 255  255 255 255  255 255 255  255 255 255  255 255 255  244 244 244  225 225 225  207 207 207  192 192 192  178 178 178  165 165 165  153 153 153  143 143 143  133 133 133  124 124 124  116 116 116  108 108 108  101 101 101  94 94 94  88 88 88  83 83 83  77 77 77  72 72 72  68 68 68  63 63 63  59 59 59  56 56 56  52 52 52  49 49 49  46 46 46  43 43 43  40 40 40  37 37 37  35 35 35  33 33 33  31 31 31  29 29 29  27 27 27  25 25 25  24 24 24  22 22 22  21 21 21  19 19 19  18 18 18  17 17 17  16 16 16  15 15 15  14 14 14  13 13 13  12 12 12  11 11 11  10 10 10  10 10 10  9 9 9  8 8 8  7 7 7  7 7 7  6 6 6  6 6 6  5 5 5  5 5 5  4 4 4  4 4 4  3 3 3  3 3 3  2 2 2  2 2 2  1 1 1  1 1 1  1 1 1  0 0 0  0 0 0  0 0 0  0 0 0  0 0 0  0 0 0  0 0 0  0 0 0  0 0 0  0 0 0  0 0 0  0 0 0  0 0 0  0 0 0  0 0 0  0 0 0  0 0 0  0 0 0  0 0 0  0 0 0  0 0 0  0 0 0  0 0 0  0 0 0  0 0 0  0 0 0  0 0 0  0 0 0  0 0 0  0 0 0  0 0 0  0 0 0  0 0 0  0 0 0  0 0 0  0 0 0  0 0 0  0 0 0  0 0 0  0 0 0  0 0 0  0 0 0  0 0 0  0 0 0  0 0 0  0 0 0  0 0 0  0 0 0  0 0 0  0 0 0  0 0 0  
255 255 255  255 255 255  255 255 255  255 255 255  255 255 255  255 255 255  255 255 255  255 255 255  255 255 255  255 255 255  255 255 255  255 255 255  243 243 243  225 225 225  209 209 209  194 194 194  181 181 181  168 168 168  157 157 157  147 147 147  137 137 137  128 128 128  120 120 120  113 113 113  106 106 106  99 99 99  93 93 93  88 88 88  82 82 82  77 77 77  73 73 73  68 68 68  64 64 64  60 60 60  57 57 57  53 53 53  50 50 50  47 47 47  44 44 44  42 42 42  39 39 39  37 37 37  34 34 34  32 32 32  30 30 30  29 29 29  27 27 27  25 25 25  24 24 24  22 22 22  21 21 21  20 20 20  18 18 18  17 17 17  16 16 16  15 15 15  14 14 14  13 13 13  12 12 12  11 11 11  11 11 11  10 10 10  9 9 9  8 8 8  8 8 8  7 7 7  6 6 6  6 6 6  5 5 5  5 5 5  4 4 4  4 4 4  3 3 3  3 3 3  2 2 2  2 2 2  1 1 1  1 1 1  0 0 0  0 0 0  0 0 0  0 0 0  0 0 0  0 0 0  0 0 0  0 0 0  0 0 0  0 0 0  0 0 0  0 0 0  0 0 0  0 0 0  0 0 0  0 0 0  0 0 0  0 0 0  0 0 0  0 0 0  0 0 0  0 0 0  0 0 0  0 0 0  0 0 0  0 0 0  0 0 0  0 0 0  0 0 0  0 0 0  0 0 0  0 0 0  0 0 0  0 0 0  0 0 0  0 0 0  0 0 0  0 0 0  0 0 0  0 0 0  0 0 0  0 0 0  0 0 0  0 0 0  0 0 0  0 0 0  0 0 0  0 0 0  0 0 0  0 0 0  
255 255 255  255 255 255  255 255 255  255 255 255  255 255 255  255 255 255  255 255 255  255 255 255  255 255 255  255 255 255  255 255 255  255 255 255  242 242 242  225 225 225  210 210 210  196 196 196  183 183 183  171 171 171  160 160 160  151 151 151  141 141 141  133 133 133  125 125 125  117 117 117  110 110 110  104 104 104  98 98 98  92 92 92  87 87 87  82 82 82  77 77 77  73 73 73  69 69 69  65 65 65  61 61 61  58 58 58  54 54 54  51 51 51  48 48 48  46 46 46  43 43 43  41 41 41  38 38 38  36 36 36  34 34 34  32 32 32  30 30 30  28 28 28  27 27 27  25 25 25  24 24 24  22 22 22  21 21 21  20 20 20  18 18 18  17 17 17  16 16 16  15 15 15  14 14 14  13 13 13  12 12 12  11 11 11  11 11 11  10 10 10  9 9 9  8 8 8  8 8 8  7 7 7  6 6 6  6 6 6  5 5 5  4 4 4  4 4 4  3 3 3  3 3 3  2 2 2  2 2 2  1 1 1  1 1 1  1 1 1  0 0 0  0 0 0  0 0 0  0 0 0  0 0 0  0 0 0  0 0 0  0 0 0  0 0 0  0 0 0  0 0 0  0 0 0  0 0 0  0 0 0  0 0 0  0 0 0  0 0 0  0 0 0  0 0 0  0 0 0  0 0 0  0 0 0  0 0 0  0 0 0  0 0 0  0 0 0  0 0 0  0 0 0  0 0 0  0 0 0  0 0 0  0 0 0  0 0 0  0 0 0  0 0 0  0 0 0  0 0 0  0 0 0  0 0 0  0 0 0  0 0 0  0 0 0  0 0 0  0 0 0  0 0 0  0 0 0  0 0 0  0 0 0  
255 255 255  255 255 255  255 255 255  255 255 255  255 255 255  255 255 255  255 255 255  255 255 255  255 255 255  255 255 255  255 255 255  255 255 255  241 241 241  225 225 225  211 211 211  197 197 197  185 185 185  174 174 174  163 163 163  154 154 154  145 145 145  136 136 136  129 129 129  121 121 121  115 115 115  108 108 108  102 102 102  97 97 97  91 91 91  86 86 86  82 82 82  77 77 77  73 73 73  69 69 69  65 65 65  62 62 62  58 58 58  55 55 55  52 52 52  49 49 49  47 47 47  44 44 44  42 42 42  39 39 39  37 37 37  35 35 35  33 33 33  31 31 31  30 30 30  28 28 28  26 26 26  25 25 25  23 23 23  22 22 22  21 21 21  19 19 19  18 18 18  17 17 17  16 16 16  15 15 15  14 14 14  13 13 13  12 12 12  11 11 11  10 10 10  10 10 10  9 9 9  8 8 8  7 7 7  7 7 7  6 6 6  5 5 5  5 5 5  4 4 4  4 4 4  3 3 3  3 3 3  2 2 2  2 2 2  1 1 1  1 1 1  0 0 0  0 0 0  0 0 0  0 0 0  0 0 0  0 0 0  0 0 0  0 0 0  0 0 0  0 0 0  0 0 0  0 0 0  0 0 0  0 0 0  0 0 0  0 0 0  0 0 0  0 0 0  0 0 0  0 0 0  0 0 0  0 0 0  0 0 0  0 0 0  0 0 0  0 0 0  0 0 0  0 0 0  0 0 0  0 0 0  0 0 0  0 0 0  0 0 0  0 0 0  0 0 0  0 0 0  0 0 0  0 0 0  0 0 0  0 0 0  0 0 0  0 0 0  0 0 0  0 0 0  0 0 0  0 0 0  0 0 0  
255 255 255  255 255 255  255 255 255  255 255 255  255 255 255  255 255 255  255 255 255  255 255 255  255 255 255  255 255 255  255 255 255  255 255 255  239 239 239  224 224 224  211 211 211  198 198 198  187 187 187  176 176 176  166 166 166  157 157 157  148 148 148  140 140 140  132 132 132  125 125 125  118 118 118  112 112 112  106 106 106  101 101 101  95 95 95  90 90 90  86 86 86  81 81 81  77 77 77  73 73 73  69 69 69  66 66 66  62 62 62  59 59 59  56 56 56  53 53 53  50 50 50  48 48 48  45 45 45  43 43 43  41 41 41  38 38 38  36 36 36  34 34 34  32 32 32  31 31 31  29 29 29  27 27 27  26 26 26  24 24 24  23 23 23  22 22 22  20 20 20  19 19 19  18 18 18  17 17 17  16 16 16  15 15 15  14 14 14  13 13 13  12 12 12  11 11 11  10 10 10  9 9 9  9 9 9  8 8 8  7 7 7  6 6 6  6 6 6  5 5 5  4 4 4  4 4 4  3 3 3  3 3 3  2 2 2  2 2 2  1 1 1  1 1 1  0 0 0  0 0 0  0 0 0  0 0 0  0 0 0  0 0 0  0 0 0  0 0 0  0 0 0  0 0 0  0 0 0  0 0 0  0 0 0  0 0 0  0 0 0  0 0 0  0 0 0  0 0 0  0 0 0  0 0 0  0 0 0  0 0 0  0 0 0  0 0 0  0 0 0  0 0 0  0 0 0  0 0 0  0 0 0  0 0 0  0 0 0  0 0 0  0 0 0  0 0 0  0 0 0  0 0 0  0 0 0  0 0 0  0 0 0  0 0 0  0 0 0  0 0 0  0 0 0  0 0 0  0 0 0  0 0 0  
255 255 255  255 255 255  255 255 255  255 255 255  255 255 255  255 255 255  255 255 255  255 255 255  255 255 255  255 255 255  255 255 255  252 252 252  237 237 237  223 223 223  210 210 210  199 199 199  188 188 188  177 177 177  168 168 168  159 159 159  151 151 151  143 143 143  135 135 135  128 128 128  122 122 122  116 116 116  110 110 110  104 104 104  99 99 99  94 94 94  90 90 90  85 85 85  81 81 81  77 77 77  73 73 73  69 69 69  66 66 66  63 63 63  60 60 60  57 57 57  54 54 54  51 51 51  48 48 48  46 46 46  44 44 44  41 41 41  39 39 39  37 37 37  35 35 35  33 33 33  32 32 32  30 30 30  28 28 28  27 27 27  25 25 25  24 24 24  22 22 22  21 21 21  20 20 20  19 19 19  17 17 17  16 16 16  15 15 15  14 14 14  13 13 13  12 12 12  11 11 11  11 11 11  10 10 10  9 9 9  8 8 8  7 7 7  7 7 7  6 6 6  5 5 5  5 5 5  4 4 4  4 4 4  3 3 3  2 2 2  2 2 2  1 1 1  1 1 1  0 0 0  0 0 0  0 0 0  0 0 0  0 0 0  0 0 0  0 0 0  0 0 0  0 0 0  0 0 0  0 0 0  0 0 0  0 0 0  0 0 0  0 0 0  0 0 0  0 0 0  0 0 0  0 0 0  0 0 0  0 0 0  0 0 0  0 0 0  0 0 0  0 0 0  0 0 0  0 0 0  0 0 0  0 0 0  0 0 0  0 0 0  0 0 0  0 0 0  0 0 0  0 0 0  0 0 0  0 0 0  0 0 0  0 0 0  0 0 0  0 0 0  0 0 0  0 0 0  0 0 0  0 0 0  
255 255 255  255 255 255  255 255 255  255 255 255  255 255 255  255 255 255  255 255 255  255 255 255  255 255 255  255 255 255  255 255 255  248 248 248  235 235 235  222 222 222  210 210 210  199 199 199  188 188 188  179 179 179  170 170 170  161 161 161  153 153 153  145 145 145  138 138 138  131 131 131  125 125 125  119 119 119  113 113 113  108 108 108  103 103 103  98 98 98  93 93 93  89 89 89  84 84 84  80 80 80  76 76 76  73 73 73  69 69 69  66 66 66  63 63 63  60 60 60  57 57 57  54 54 54  51 51 51  49 49 49  47 47 47  44 44 44  42 42 42  40 40 40  38 38 38  36 36 36  34 34 34  32 32 32  31 31 31  29 29 29  27 27 27  26 26 26  24 24 24  23 23 23  22 22 22  20 20 20  19 19 19  18 18 18  17 17 17  16 16 16  15 15 15  14 14 14  13 13 13  12 12 12  11 11 11  10 10 10  9 9 9  8 8 8  8 8 8  7 7 7  6 6 6  6 6 6  5 5 5  4 4 4  4 4 4  3 3 3  3 3 3  2 2 2  2 2 2  1 1 1  1 1 1  0 0 0  0 0 0  0 0 0  0 0 0  0 0 0  0 0 0  0 0 0  0 0 0  0 0 0  0 0 0  0 0 0  0 0 0  0 0 0  0 0 0  0 0 0  0 0 0  0 0 0  0 0 0  0 0 0  0 0 0  0 0 0  0 0 0  0 0 0  0 0 0  0 0 0  0 0 0  0 0 0  0 0 0  0 0 0  0 0 0  0 0 0  0 0 0  0 0 0  0 0 0  0 0 0  0 0 0  0 0 0  0 0 0  0 0 0  0 0 0  0 0 0  0 0 0  0 0 0  
255 255 255  255 255 255  255 255 255  255 255 255  255 255 255  255 255 255  255 255 255  255 255 255  255 255 255  255 255 255  255 255 255  245 245 245  232 232 232  220 220 220  209 209 209  199 199 199  189 189 189  180 180 180  171 171 171  163 163 163  155 155 155  148 148 148  141 141 141  134 134 134  128 128 128  122 122 122  116 116 116  111 111 111  106 106 106  101 101 101  96 96 96  92 92 92  87 87 87  83 83 83  80 80 80  76 76 76  72 72 72  69 69 69  66 66 66  63 63 63  60 60 60  57 57 57  54 54 54  52 52 52  49 49 49  47 47 47  45 45 45  42 42 42  40 40 40  38 38 38  36 36 36  35 35 35  33 33 33  31 31 31  29 29 29  28 28 28  26 26 26  25 25 25  23 23 23  22 22 22  21 21 21  20 20 20  18 18 18  17 17 17  16 16 16  15 15 15  14 14 14  13 13 13  12 12 12  11 11 11  10 10 10  10 10 10  9 9 9  8 8 8  7 7 7  7 7 7  6 6 6  5 5 5  5 5 5  4 4 4  3 3 3  3 3 3  2 2 2  2 2 2  1 1 1  1 1 1  0 0 0  0 0 0  0 0 0  0 0 0  0 0 0  0 0 0  0 0 0  0 0 0  0 0 0  0 0 0  0 0 0  0 0 0  0 0 0  0 0 0  0 0 0  0 0 0  0 0 0  0 0 0  0 0 0  0 0 0  0 0 0  0 0 0  0 0 0  0 0 0  0 0 0  0 0 0  0 0 0  0 0 0  0 0 0  0 0 0  0 0 0  0 0 0  0 0 0  0 0 0  0 0 0  0 0 0  0 0 0  0 0 0  0 0 0  0 0 0  0 0 0  0 0 0  
255 255 255  255 255 255  255 255 255  255 255 255  255 255 255  255 255 255  255 255 255  255 255 255  255 255 255  255 255 255  254 254 254  242 242 242  230 230 230  219 219 219  208 208 208  198 198 198  189 189 189  180 180 180  172 172 172  164 164 164  157 157 157  149 149 149  143 143 143  136 136 136  130 130 130  124 124 124  119 119 119  113 113 113  108 108 108  104 104 104  99 99 99  95 95 95  90 90 90  86 86 86  82 82 82  79 79 79  75 75 75  72 72 72  69 69 69  66 66 66  63 63 63  60 60 60  57 57 57  54 54 54  52 52 52  49 49 49  47 47 47  45 45 45  43 43 43  41 41 41  39 39 39  37 37 37  35 35 35  33 33 33  31 31 31  30 30 30  28 28 28  27 27 27  25 25 25  24 24 24  23 23 23  21 21 21  20 20 20  19 19 19  18 18 18  17 17 17  15 15 15  14 14 14  13 13 13  13 13 13  12 12 12  11 11 11  10 10 10  9 9 9  8 8 8  8 8 8  7 7 7  6 6 6  6 6 6  5 5 5  4 4 4  4 4 4  3 3 3  3 3 3  2 2 2  2 2 2  1 1 1  1 1 1  0 0 0  0 0 0  0 0 0  0 0 0  0 0 0  0 0 0  0 0 0  0 0 0  0 0 0  0 0 0  0 0 0  0 0 0  0 0 0  0 0 0  0 0 0  0 0 0  0 0 0  0 0 0  0 0 0  0 0 0  0 0 0  0 0 0  0 0 0  0 0 0  0 0 0  0 0 0  0 0 0  0 0 0  0 0 0  0 0 0  0 0 0  0 0 0  0 0 0  0 0 0  0 0 0  0 0 0  0 0 0  0 0 0  0 0 0  0 0 0  
255 255 255  255 255 255  255 255 255  255 255 255  255 255 255  255 255 255  255 255 255  255 255 255  255 255 255  255 255 255  250 250 250  238 238 238  227 227 227  217 217 217  207 207 207  198 198 198  189 189 189  181 181 181  173 173 173  165 165 165  158 158 158  151 151 151  144 144 144  138 138 138  132 132 132  126 126 126  121 121 121  116 116 116  111 111 111  106 106 106  101 101 101  97 97 97  93 93 93  89 89 89  85 85 85  81 81 81  78 78 78  74 74 74  71 71 71  68 68 68  65 65 65  62 62 62  59 59 59  57 57 57  54 54 54  52 52 52  49 49 49  47 47 47  45 45 45  43 43 43  41 41 41  39 39 39  37 37 37  35 35 35  33 33 33  32 32 32  30 30 30  28 28 28  27 27 27  26 26 26  24 24 24  23 23 23  22 22 22  20 20 20  19 19 19  18 18 18  17 17 17  16 16 16  15 15 15  14 14 14  13 13 13  12 12 12  11 11 11  10 10 10  9 9 9  9 9 9  8 8 8  7 7 7  7 7 7  6 6 6  5 5 5  5 5 5  4 4 4  3 3 3  3 3 3  2 2 2  2 2 2  1 1 1  1 1 1  0 0 0  0 0 0  0 0 0  0 0 0  0 0 0  0 0 0  0 0 0  0 0 0  0 0 0  0 0 0  0 0 0  0 0 0  0 0 0  0 0 0  0 0 0  0 0 0  0 0 0  0 0 0  0 0 0  0 0 0  0 0 0  0 0 0  0 0 0  0 0 0  0 0 0  0 0 0  0 0 0  0 0 0  0 0 0  0 0 0  0 0 0  0 0 0  0 0 0  0 0 0  0 0 0  0 0 0  0 0 0  0 0 0  0 0 0  
255 255 255  255 255 255  255 255 255  255 255 255  255 255 255  255 255 255  255 255 255  255 255 255  255 255 255  255 255 255  245 245 245  235 235 235  225 225 225  215 215 215  206 206 206  197 197 197  189 189 189  181 181 181  173 173 173  166 166 166  159 159 159  152 152 152  146 146 146  140 140 140  134 134 134  128 128 128  123 123 123  118 118 118  113 113 113  108 108 108  104 104 104  99 99 99  95 95 95  91 91 91  87 87 87  84 84 84  80 80 80  77 77 77  74 74 74  70 70 70  67 67 67  65 65 65  62 62 62  59 59 59  56 56 56  54 54 54  52 52 52  49 49 49  47 47 47  45 45 45  43 43 43  41 41 41  39 39 39  37 37 37  35 35 35  33 33 33  32 32 32  30 30 30  29 29 29  27 27 27  26 26 26  24 24 24  23 23 23  22 22 22  21 21 21  19 19 19  18 18 18  17 17 17  16 16 16  15 15 15  14 14 14  13 13 13  12 12 12  11 11 11  11 11 11  10 10 10  9 9 9  8 8 8  8 8 8  7 7 7  6 6 6  6 6 6  5 5 5  4 4 4  4 4 4  3 3 3  3 3 3  2 2 2  2 2 2  1 1 1  1 1 1  0 0 0  0 0 0  0 0 0  0 0 0  0 0 0  0 0 0  0 0 0  0 0 0  0 0 0  0 0 0  0 0 0  0 0 0  0 0 0  0 0 0  0 0 0  0 0 0  0 0 0  0 0 0  0 0 0  0 0 0  0 0 0  0 0 0  0 0 0  0 0 0  0 0 0  0 0 0  0 0 0  0 0 0  0 0 0  0 0 0  0 0 0  0 0 0  0 0 0  0 0 0  0 0 0  0 0 0  0 0 0  
255 255 255  255 255 255  255 255 255  255 255 255  255 255 255  255 255 255  255 255 255  255 255 255  255 255 255  252 252 252  241 241 241  232 232 232  222 222 222  213 213 213  205 205 205  196 196 196  188 188 188  181 181 181  174 174 174  166 166 166  160 160 160  153 153 153  147 147 147  141 141 141  135 135 135  130 130 130  125 125 125  120 120 120  115 115 115  110 110 110  106 106 106  101 101 101  97 97 97  93 93 93  89 89 89  86 86 86  82 82 82  79 79 79  76 76 76  73 73 73  70 70 70  67 67 67  64 64 64  61 61 61  58 58 58  56 56 56  54 54 54  51 51 51  49 49 49  47 47 47  45 45 45  43 43 43  41 41 41  39 39 39  37 37 37  35 35 35  33 33 33  32 32 32  30 30 30  29 29 29  27 27 27  26 26 26  24 24 24  23 23 23  22 22 22  21 21 21  20 20 20  18 18 18  17 17 17  16 16 16  15 15 15  14 14 14  13 13 13  13 13 13  12 12 12  11 11 11  10 10 10  9 9 9  9 9 9  8 8 8  7 7 7  7 7 7  6 6 6  5 5 5  5 5 5  4 4 4  4 4 4  3 3 3  3 3 3  2 2 2  2 2 2  1 1 1  1 1 1  0 0 0  0 0 0  0 0 0  0 0 0  0 0 0  0 0 0  0 0 0  0 0 0  0 0 0  0 0 0  0 0 0  0 0 0  0 0 0  0 0 0  0 0 0  0 0 0  0 0 0  0 0 0  0 0 0  0 0 0  0 0 0  0 0 0  0 0 0  0 0 0  0 0 0  0 0 0  0 0 0  0 0 0  0 0 0  0 0 0  0 0 0  0 0 0  0 0 0  0 0 0  0 0 0  
255 255 255  255 255 255  255 255 255  255 255 255  255 255 255  255 255 255  255 255 255  255 255 255  255 255 255  247 247 247  238 238 238  229 229 229  220 220 220  211 211 211  203 203 203  196 196 196  188 188 188  181 181 181  174 174 174  167 167 167  160 160 160  154 154 154  148 148 148  142 142 142  137 137 137  131 131 131  126 126 126  121 121 121  116 116 116  112 112 112  107 107 107  103 103 103  99 99 99  95 95 95  91 91 91  88 88 88  84 84 84  81 81 81  78 78 78  74 74 74  71 71 71  69 69 69  66 66 66  63 63 63  60 60 60  58 58 58  55 55 55  53 53 53  51 51 51  49 49 49  46 46 46  44 44 44  42 42 42  40 40 40  39 39 39  37 37 37  35 35 35  33 33 33  32 32 32  30 30 30  29 29 29  27 27 27  26 26 26  25 25 25  23 23 23  22 22 22  21 21 21  20 20 20  19 19 19  18 18 18  17 17 17  16 16 16  15 15 15  14 14 14  13 13 13  12 12 12  11 11 11  10 10 10  10 10 10  9 9 9  8 8 8  8 8 8  7 7 7  6 6 6  6 6 6  5 5 5  5 5 5  4 4 4  4 4 4  3 3 3  3 3 3  2 2 2  2 2 2  1 1 1  1 1 1  0 0 0  0 0 0  0 0 0  0 0 0  0 0 0  0 0 0  0 0 0  0 0 0  0 0 0  0 0 0  0 0 0  0 0 0  0 0 0  0 0 0  0 0 0  0 0 0  0 0 0  0 0 0  0 0 0  0 0 0  0 0 0  0 0 0  0 0 0  0 0 0  0 0 0  0 0 0  0 0 0  0 0 0  0 0 0  0 0 0  0 0 0  0 0 0  0 0 0  
255 255 255  255 255 255  255 255 255  255 255 255  255 255 255  255 255 255  255 255 255  255 255 255  252 252 252  243 243 243  234 234 234  226 226 226  218 218 218  210 210 210  202 202 202  195 195 195  187 187 187  180 180 180  173 173 173  167 167 167  161 161 161  154 154 154  149 149 149  143 143 143  137 137 137  132 132 132  127 127 127  122 122 122  118 118 118  113 113 113  109 109 109  105 105 105  101 101 101  97 97 97  93 93 93  89 89 89  86 86 86  82 82 82  79 79 79  76 76 76  73 73 73  70 70 70  67 67 67  65 65 65  62 62 62  60 60 60  57 57 57  55 55 55  52 52 52  50 50 50  48 48 48  46 46 46  44 44 44  42 42 42  40 40 40  38 38 38  37 37 37  35 35 35  33 33 33  32 32 32  30 30 30  29 29 29  27 27 27  26 26 26  25 25 25  23 23 23  22 22 22  21 21 21  20 20 20  19 19 19  18 18 18  17 17 17  16 16 16  15 15 15  14 14 14  13 13 13  12 12 12  12 12 12  11 11 11  10 10 10  9 9 9  9 9 9  8 8 8  7 7 7  7 7 7  6 6 6  6 6 6  5 5 5  4 4 4  4 4 4  3 3 3  3 3 3  2 2 2  2 2 2  2 2 2  1 1 1  1 1 1  0 0 0  0 0 0  0 0 0  0 0 0  0 0 0  0 0 0  0 0 0  0 0 0  0 0 0  0 0 0  0 0 0  0 0 0  0 0 0  0 0 0  0 0 0  0 0 0  0 0 0  0 0 0  0 0 0  0 0 0  0 0 0  0 0 0  0 0 0  0 0 0  0 0 0  0 0 0  0 0 0  0 0 0  0 0 0  0 0 0  0 0 0  
255 255 255  255 255 255  255 255 255  255 255 255  255 255 255  255 255 255  255 255 255  255 255 255  247 247 247  239 239 239  231 231 231  223 223 223  215 215 215  208 208 208  201 201 201  193 193 193  186 186 186  180 180 180  173 173 173  167 167 167  161 161 161  155 155 155  149 149 149  143 143 143  138 138 138  133 133 133  128 128 128  123 123 123  119 119 119  114 114 114  110 110 110  106 106 106  102 102 102  98 98 98  94 94 94  91 91 91  87 87 87  84 84 84  81 81 81  78 78 78  75 75 75  72 72 72  69 69 69  66 66 66  64 64 64  61 61 61  59 59 59  56 56 56  54 54 54  52 52 52  50 50 50  47 47 47  45 45 45  44 44 44  42 42 42  40 40 40  38 38 38  36 36 36  35 35 35  33 33 33  32 32 32  30 30 30  29 29 29  27 27 27  26 26 26  25 25 25  24 24 24  22 22 22  21 21 21  20 20 20  19 19 19  18 18 18  17 17 17  16 16 16  15 15 15  14 14 14  14 14 14  13 13 13  12 12 12  11 11 11  11 11 11  10 10 10  9 9 9  9 9 9  8 8 8  7 7 7  7 7 7  6 6 6  6 6 6  5 5 5  4 4 4  4 4 4  3 3 3  3 3 3  2 2 2  2 2 2  2 2 2  1 1 1  1 1 1  0 0 0  0 0 0  0 0 0  0 0 0  0 0 0  0 0 0  0 0 0  0 0 0  0 0 0  0 0 0  0 0 0  0 0 0  0 0 0  0 0 0  0 0 0  0 0 0  0 0 0  0 0 0  0 0 0  0 0 0  0 0 0  0 0 0  0 0 0  0 0 0  0 0 0  0 0 0  0 0 0  0 0 0  0 0 0  
255 255 255  255 255 255  255 255 255  255 255 255  255 255 255  255 255 255  255 255 255  252 252 252  243 243 243  235 235 235  228 228 228  221 221 221  213 213 213  206 206 206  199 199 199  192 192 192  186 186 186  179 179 179  173 173 173  167 167 167  161 161 161  155 155 155  149 149 149  144 144 144  139 139 139  133 133 133  129 129 129  124 124 124  119 119 119  115 115 115  111 111 111  107 107 107  103 103 103  99 99 99  95 95 95  92 92 92  88 88 88  85 85 85  82 82 82  79 79 79  76 76 76  73 73 73  70 70 70  68 68 68  65 65 65  62 62 62  60 60 60  58 58 58  55 55 55  53 53 53  51 51 51  49 49 49  47 47 47  45 45 45  43 43 43  41 41 41  39 39 39  38 38 38  36 36 36  35 35 35  33 33 33  32 32 32  30 30 30  29 29 29  27 27 27  26 26 26  25 25 25  24 24 24  23 23 23  21 21 21  20 20 20  19 19 19  18 18 18  17 17 17  17 17 17  16 16 16  15 15 15  14 14 14  13 13 13  12 12 12  12 12 12  11 11 11  10 10 10  10 10 10  9 9 9  8 8 8  8 8 8  7 7 7  7 7 7  6 6 6  5 5 5  5 5 5  4 4 4  4 4 4  3 3 3  3 3 3  3 3 3  2 2 2  2 2 2  1 1 1  1 1 1  0 0 0  0 0 0  0 0 0  0 0 0  0 0 0  0 0 0  0 0 0  0 0 0  0 0 0  0 0 0  0 0 0  0 0 0  0 0 0  0 0 0  0 0 0  0 0 0  0 0 0  0 0 0  0 0 0  0 0 0  0 0 0  0 0 0  0 0 0  0 0 0  0 0 0  0 0 0  0 0 0  
255 255 255  255 255 255  255 255 255  255 255 255  255 255 255  255 255 255  255 255 255  247 247 247  240 240 240  232 232 232  225 225 225  218 218 218  211 211 211  204 204 204  198 198 198  191 191 191  185 185 185  178 178 178  172 172 172  166 166 166  160 160 160  155 155 155  149 149 149  144 144 144  139 139 139  134 134 134  129 129 129  124 124 124  120 120 120  116 116 116  112 112 112  108 108 108  104 104 104  100 100 100  96 96 96  93 93 93  90 90 90  86 86 86  83 83 83  80 80 80  77 77 77  74 74 74  71 71 71  69 69 69  66 66 66  64 64 64  61 61 61  59 59 59  57 57 57  54 54 54  52 52 52  50 50 50  48 48 48  46 46 46  44 44 44  43 43 43  41 41 41  39 39 39  37 37 37  36 36 36  34 34 34  33 33 33  31 31 31  30 30 30  29 29 29  27 27 27  26 26 26  25 25 25  24 24 24  23 23 23  22 22 22  21 21 21  20 20 20  19 19 19  18 18 18  17 17 17  16 16 16  15 15 15  14 14 14  14 14 14  13 13 13  12 12 12  11 11 11  11 11 11  10 10 10  9 9 9  9 9 9  8 8 8  8 8 8  7 7 7  7 7 7  6 6 6  5 5 5  5 5 5  4 4 4  4 4 4  4 4 4  3 3 3  3 3 3  2 2 2  2 2 2  1 1 1  1 1 1  1 1 1  0 0 0  0 0 0  0 0 0  0 0 0  0 0 0  0 0 0  0 0 0  0 0 0  0 0 0  0 0 0  0 0 0  0 0 0  0 0 0  0 0 0  0 0 0  0 0 0  0 0 0  0 0 0  0 0 0  0 0 0  0 0 0  0 0 0  0 0 0  0 0 0  
255 255 255  255 255 255  255 255 255  255 255 255  255 255 255  255 255 255  252 252 252  244 244 244  237 237 237  230 230 230  223 223 223  216 216 216  209 209 209  203 203 203  196 196 196  190 190 190  184 184 184  178 178 178  172 172 172  166 166 166  160 160 160  154 154 154  149 149 149  144 144 144  139 139 139  134 134 134  129 129 129  125 125 125  120 120 120  116 116 116  112 112 112  108 108 108  104 104 104  101 101 101  97 97 97  94 94 94  90 90 90  87 87 87  84 84 84  81 81 81  78 78 78  75 75 75  73 73 73  70 70 70  67 67 67  65 65 65  62 62 62  60 60 60  58 58 58  56 56 56  53 53 53  51 51 51  49 49 49  47 47 47  46 46 46  44 44 44  42 42 42  40 40 40  39 39 39  37 37 37  36 36 36  34 34 34  33 33 33  31 31 31  30 30 30  29 29 29  27 27 27  26 26 26  25 25 25  24 24 24  23 23 23  22 22 22  21 21 21  20 20 20  19 19 19  18 18 18  17 17 17  16 16 16  16 16 16  15 15 15  14 14 14  13 13 13  13 13 13  12 12 12  11 11 11  11 11 11  10 10 10  9 9 9  9 9 9  8 8 8  8 8 8  7 7 7  7 7 7  6 6 6  6 6 6  5 5 5  5 5 5  4 4 4  4 4 4  3 3 3  3 3 3  2 2 2  2 2 2  2 2 2  1 1 1  1 1 1  1 1 1  0 0 0  0 0 0  0 0 0  0 0 0  0 0 0  0 0 0  0 0 0  0 0 0  0 0 0  0 0 0  0 0 0  0 0 0  0 0 0  0 0 0  0 0 0  0 0 0  0 0 0  0 0 0  0 0 0  0 0 0  0 0 0  
255 255 255  255 255 255  255 255 255  255 255 255  255 255 255  255 255 255  248 248 248  241 241 241  234 234 234  227 227 227  221 221 221  214 214 214  208 208 208  201 201 201  195 195 195  189 189 189  183 183 183  177 177 177  171 171 171  165 165 165  159 159 159  154 154 154  149 149 149  144 144 144  139 139 139  134 134 134  129 129 129  125 125 125  121 121 121  117 117 117  113 113 113  109 109 109  105 105 105  101 101 101  98 98 98  94 94 94  91 91 91  88 88 88  85 85 85  82 82 82  79 79 79  76 76 76  73 73 73  71 71 71  68 68 68  66 66 66  63 63 63  61 61 61  59 59 59  57 57 57  55 55 55  53 53 53  51 51 51  49 49 49  47 47 47  45 45 45  43 43 43  42 42 42  40 40 40  38 38 38  37 37 37  35 35 35  34 34 34  33 33 33  31 31 31  30 30 30  29 29 29  28 28 28  26 26 26  25 25 25  24 24 24  23 23 23  22 22 22  21 21 21  20 20 20  19 19 19  19 19 19  18 18 18  17 17 17  16 16 16  15 15 15  15 15 15  14 14 14  13 13 13  12 12 12  12 12 12  11 11 11  11 11 11  10 10 10  9 9 9  9 9 9  8 8 8  8 8 8  7 7 7  7 7 7  6 6 6  6 6 6  5 5 5  5 5 5  4 4 4  4 4 4  3 3 3  3 3 3  3 3 3  2 2 2  2 2 2  2 2 2  1 1 1  1 1 1  1 1 1  0 0 0  0 0 0  0 0 0  0 0 0  0 0 0  0 0 0  0 0 0  0 0 0  0 0 0  0 0 0  0 0 0  0 0 0  0 0 0  0 0 0  0 0 0  0 0 0  0 0 0  0 0 0  
255 255 255  255 255 255  255 255 255  255 255 255  255 255 255  254 254 254  245 245 245  238 238 238  231 231 231  225 225 225  219 219 219  212 212 212  206 206 206  200 200 200  194 194 194  188 188 188  182 182 182  176 176 176  170 170 170  164 164 164  159 159 159  154 154 154  148 148 148  143 143 143  139 139 139  134 134 134  129 129 129  125 125 125  121 121 121  117 117 117  113 113 113  109 109 109  105 105 105  102 102 102  98 98 98  95 95 95  92 92 92  89 89 89  86 86 86  83 83 83  80 80 80  77 77 77  74 74 74  72 72 72  69 69 69  67 67 67  64 64 64  62 62 62  60 60 60  58 58 58  56 56 56  54 54 54  52 52 52  50 50 50  48 48 48  46 46 46  44 44 44  43 43 43  41 41 41  40 40 40  38 38 38  37 37 37  35 35 35  34 34 34  32 32 32  31 31 31  30 30 30  29 29 29  28 28 28  27 27 27  25 25 25  24 24 24  23 23 23  22 22 22  22 22 22  21 21 21  20 20 20  19 19 19  18 18 18  17 17 17  17 17 17  16 16 16  15 15 15  14 14 14  14 14 14  13 13 13  12 12 12  12 12 12  11 11 11  11 11 11  10 10 10  9 9 9  9 9 9  8 8 8  8 8 8  7 7 7  7 7 7  6 6 6  6 6 6  5 5 5  5 5 5  5 5 5  4 4 4  4 4 4  3 3 3  3 3 3  3 3 3  2 2 2  2 2 2  2 2 2  1 1 1  1 1 1  1 1 1  1 1 1  1 1 1  0 0 0  0 0 0  0 0 0  0 0 0  0 0 0  0 0 0  0 0 0  0 0 0  0 0 0  0 0 0  0 0 0  0 0 0  0 0 0  
255 255 255  255 255 255  255 255 255  255 255 255  255 255 255  251 251 251  243 243 243  236 236 236  229 229 229  223 223 223  217 217 217  211 211 211  204 204 204  198 198 198  192 192 192  186 186 186  180 180 180  175 175 175  169 169 169  164 164 164  158 158 158  153 153 153  148 148 148  143 143 143  138 138 138  134 134 134  129 129 129  125 125 125  121 121 121  117 117 117  113 113 113  109 109 109  105 105 105  102 102 102  99 99 99  95 95 95  92 92 92  89 89 89  86 86 86  83 83 83  80 80 80  78 78 78  75 75 75  72 72 72  70 70 70  68 68 68  65 65 65  63 63 63  61 61 61  59 59 59  57 57 57  55 55 55  53 53 53  51 51 51  49 49 49  47 47 47  45 45 45  44 44 44  42 42 42  41 41 41  39 39 39  38 38 38  36 36 36  35 35 35  34 34 34  32 32 32  31 31 31  30 30 30  29 29 29  28 28 28  27 27 27  26 26 26  25 25 25  24 24 24  23 23 23  22 22 22  21 21 21  20 20 20  19 19 19  19 19 19  18 18 18  17 17 17  16 16 16  16 16 16  15 15 15  14 14 14  14 14 14  13 13 13  12 12 12  12 12 12  11 11 11  11 11 11  10 10 10  9 9 9  9 9 9  8 8 8  8 8 8  7 7 7  7 7 7  6 6 6  6 6 6  6 6 6  5 5 5  5 5 5  4 4 4  4 4 4  4 4 4  3 3 3  3 3 3  3 3 3  2 2 2  2 2 2  2 2 2  2 2 2  1 1 1  1 1 1  1 1 1  1 1 1  1 1 1  0 0 0  0 0 0  0 0 0  0 0 0  0 0 0  0 0 0  0 0 0  0 0 0  0 0 0  
255 255 255  255 255 255  255 255 255  255 255 255  255 255 255  249 249 249  241 241 241  234 234 234  228 228 228  221 221 221  215 215 215  209 209 209  203 203 203  197 197 197  191 191 191  185 185 185  179 179 179  174 174 174  168 168 168  163 163 163  157 157 157  152 152 152  147 147 147  143 143 143  138 138 138  133 133 133  129 129 129  125 125 125  121 121 121  117 117 117  113 113 113  109 109 109  106 106 106  102 102 102  99 99 99  96 96 96  92 92 92  89 89 89  87 87 87  84 84 84  81 81 81  78 78 78  76 76 76  73 73 73  71 71 71  68 68 68  66 66 66  64 64 64  62 62 62  60 60 60  57 57 57  56 56 56  54 54 54  52 52 52  50 50 50  48 48 48  47 47 47  45 45 45  43 43 43  42 42 42  40 40 40  39 39 39  37 37 37  36 36 36  35 35 35  34 34 34  32 32 32  31 31 31  30 30 30  29 29 29  28 28 28  27 27 27  26 26 26  25 25 25  24 24 24  23 23 23  22 22 22  21 21 21  21 21 21  20 20 20  19 19 19  18 18 18  17 17 17  17 17 17  16 16 16  15 15 15  15 15 15  14 14 14  13 13 13  13 13 13  12 12 12  12 12 12  11 11 11  11 11 11  10 10 10  10 10 10  9 9 9  9 9 9  8 8 8  8 8 8  7 7 7  7 7 7  6 6 6  6 6 6  5 5 5  5 5 5  5 5 5  4 4 4  4 4 4  4 4 4  3 3 3  3 3 3  3 3 3  3 3 3  2 2 2  2 2 2  2 2 2  2 2 2  2 2 2  1 1 1  1 1 1  1 1 1  1 1 1  0 0 0  0 0 0  0 0 0  0 0 0  0 0 0  
255 255 255  255 255 255  255 255 255  255 255 255  255 255 255  247 247 247  239 239 239  232 232 232  226 226 226  220 220 220  214 214 214  208 208 208  202 202 202  196 196 196  190 190 190  184 184 184  178 178 178  173 173 173  167 167 167  162 162 162  157 157 157  152 152 152  147 147 147  142 142 142  137 137 137  133 133 133  129 129 129  124 124 124  120 120 120  117 117 117  113 113 113  109 109 109  106 106 106  102 102 102  99 99 99  96 96 96  93 93 93  90 90 90  87 87 87  84 84 84  81 81 81  79 79 79  76 76 76  74 74 74  71 71 71  69 69 69  67 67 67  65 65 65  62 62 62  60 60 60  58 58 58  56 56 56  54 54 54  53 53 53  51 51 51  49 49 49  48 48 48  46 46 46  44 44 44  43 43 43  41 41 41  40 40 40  39 39 39  37 37 37  36 36 36  35 35 35  34 34 34  32 32 32  31 31 31  30 30 30  29 29 29  28 28 28  27 27 27  26 26 26  25 25 25  24 24 24  23 23 23  23 23 23  22 22 22  21 21 21  20 20 20  19 19 19  19 19 19  18 18 18  17 17 17  17 17 17  16 16 16  15 15 15  15 15 15  14 14 14  13 13 13  13 13 13  12 12 12  12 12 12  11 11 11  11 11 11  10 10 10  10 10 10  9 9 9  9 9 9  8 8 8  8 8 8  7 7 7  7 7 7  7 7 7  6 6 6  6 6 6  5 5 5  5 5 5  5 5 5  4 4 4  4 4 4  4 4 4  4 4 4  3 3 3  3 3 3  3 3 3  3 3 3  2 2 2  2 2 2  2 2 2  2 2 2  2 2 2  1 1 1  1 1 1  1 1 1  0 0 0  0 0 0  
255 255 255  255 255 255  255 255 255  255 255 255  254 254 254  245 245 245  238 238 238  231 231 231  225 225 225  218 218 218  212 212 212  206 206 206  200 200 200  194 194 194  188 188 188  183 183 183  177 177 177  171 171 171  166 166 166  161 161 161  156 156 156  151 151 151  146 146 146  141 141 141  137 137 137  132 132 132  128 128 128  124 124 124  120 120 120  116 116 116  113 113 113  109 109 109  106 106 106  102 102 102  99 99 99  96 96 96  93 93 93  90 90 90  87 87 87  84 84 84  82 82 82  79 79 79  77 77 77  74 74 74  72 72 72  70 70 70  67 67 67  65 65 65  63 63 63  61 61 61  59 59 59  57 57 57  55 55 55  54 54 54  52 52 52  50 50 50  48 48 48  47 47 47  45 45 45  44 44 44  42 42 42  41 41 41  40 40 40  38 38 38  37 37 37  36 36 36  35 35 35  33 33 33  32 32 32  31 31 31  30 30 30  29 29 29  28 28 28  27 27 27  26 26 26  25 25 25  25 25 25  24 24 24  23 23 23  22 22 22  21 21 21  21 21 21  20 20 20  19 19 19  18 18 18  18 18 18  17 17 17  16 16 16  16 16 16  15 15 15  15 15 15  14 14 14  13 13 13  13 13 13  12 12 12  12 12 12  11 11 11  11 11 11  10 10 10  10 10 10  9 9 9  9 9 9  8 8 8  8 8 8  8 8 8  7 7 7  7 7 7  7 7 7  6 6 6  6 6 6  6 6 6  5 5 5  5 5 5  5 5 5  4 4 4  4 4 4  4 4 4  4 4 4  3 3 3  3 3 3  3 3 3  3 3 3  2 2 2  2 2 2  2 2 2  2 2 2  1 1 1  1 1 1  
255 255 255  255 255 255  255 255 255  255 255 255  252 252 252  244 244 244  237 237 237  230 230 230  224 224 224  217 217 217  211 211 211  205 205 205  199 199 199  193 193 193  187 187 187  181 181 181  176 176 176  170 170 170  165 165 165  160 160 160  155 155 155  150 150 150  145 145 145  141 141 141  136 136 136  132 132 132  128 128 128  124 124 124  120 120 120  116 116 116  112 112 112  109 109 109  106 106 106  102 102 102  99 99 99  96 96 96  93 93 93  90 90 90  87 87 87  85 85 85  82 82 82  80 80 80  77 77 77  75 75 75  72 72 72  70 70 70  68 68 68  66 66 66  64 64 64  62 62 62  60 60 60  58 58 58  56 56 56  54 54 54  53 53 53  51 51 51  49 49 49  48 48 48  46 46 46  45 45 45  43 43 43  42 42 42  41 41 41  39 39 39  38 38 38  37 37 37  36 36 36  35 35 35  33 33 33  32 32 32  31 31 31  30 30 30  29 29 29  28 28 28  27 27 27  27 27 27  26 26 26  25 25 25  24 24 24  23 23 23  22 22 22  22 22 22  21 21 21  20 20 20  20 20 20  19 19 19  18 18 18  18 18 18  17 17 17  16 16 16  16 16 16  15 15 15  15 15 15  14 14 14  13 13 13  13 13 13  12 12 12  12 12 12  11 11 11  11 11 11  10 10 10  10 10 10  10 10 10  9 9 9  9 9 9  8 8 8  8 8 8  8 8 8  7 7 7  7 7 7  7 7 7  6 6 6  6 6 6  6 6 6  5 5 5  5 5 5  5 5 5  5 5 5  4 4 4  4 4 4  4 4 4  4 4 4  3 3 3  3 3 3  3 3 3  2 2 2  2 2 2  2 2 2  
255 255 255  255 255 255  255 255 255  255 255 255  251 251 251  243 243 243  236 236 236  229 229 229  222 222 222  216 216 216  210 210 210  204 204 204  198 198 198  192 192 192  186 186 186  180 180 180  175 175 175  169 169 169  164 164 164  159 159 159  154 154 154  149 149 149  144 144 144  140 140 140  135 135 135  131 131 131  127 127 127  123 123 123  119 119 119  116 116 116  112 112 112  109 109 109  105 105 105  102 102 102  99 99 99  96 96 96  93 93 93  90 90 90  88 88 88  85 85 85  82 82 82  80 80 80  77 77 77  75 75 75  73 73 73  71 71 71  68 68 68  66 66 66  64 64 64  62 62 62  60 60 60  59 59 59  57 57 57  55 55 55  53 53 53  52 52 52  50 50 50  49 49 49  47 47 47  46 46 46  44 44 44  43 43 43  42 42 42  40 40 40  39 39 39  38 38 38  37 37 37  36 36 36  35 35 35  33 33 33  32 32 32  31 31 31  30 30 30  30 30 30  29 29 29  28 28 28  27 27 27  26 26 26  25 25 25  24 24 24  24 24 24  23 23 23  22 22 22  21 21 21  21 21 21  20 20 20  19 19 19  19 19 19  18 18 18  17 17 17  17 17 17  16 16 16  16 16 16  15 15 15  15 15 15  14 14 14  14 14 14  13 13 13  13 13 13  12 12 12  12 12 12  11 11 11  11 11 11  10 10 10  10 10 10  9 9 9  9 9 9  9 9 9  8 8 8  8 8 8  8 8 8  7 7 7  7 7 7  7 7 7  6 6 6  6 6 6  6 6 6  5 5 5  5 5 5  5 5 5  5 5 5  4 4 4  4 4 4  4 4 4  4 4 4  3 3 3  3 3 3  3 3 3  
255 255 255  255 255 255  255 255 255  255 255 255  249 249 249  242 242 242  235 235 235  228 228 228  221 221 221  215 215 215  209 209 209  203 203 203  197 197 197  191 191 191  185 185 185  179 179 179  174 174 174  168 168 168  163 163 163  158 158 158  153 153 153  148 148 148  144 144 144  139 139 139  135 135 135  131 131 131  127 127 127  123 123 123  119 119 119  115 115 115  112 112 112  108 108 108  105 105 105  102 102 102  99 99 99  96 96 96  93 93 93  90 90 90  88 88 88  85 85 85  83 83 83  80 80 80  78 78 78  75 75 75  73 73 73  71 71 71  69 69 69  67 67 67  65 65 65  63 63 63  61 61 61  59 59 59  58 58 58  56 56 56  54 54 54  53 53 53  51 51 51  50 50 50  48 48 48  47 47 47  45 45 45  44 44 44  43 43 43  41 41 41  40 40 40  39 39 39  38 38 38  37 37 37  36 36 36  35 35 35  34 34 34  33 33 33  32 32 32  31 31 31  30 30 30  29 29 29  28 28 28  27 27 27  26 26 26  26 26 26  25 25 25  24 24 24  23 23 23  23 23 23  22 22 22  21 21 21  20 20 20  20 20 20  19 19 19  19 19 19  18 18 18  17 17 17  17 17 17  16 16 16  16 16 16  15 15 15  15 15 15  14 14 14  14 14 14  13 13 13  13 13 13  12 12 12  12 12 12  11 11 11  11 11 11  10 10 10  10 10 10  10 10 10  9 9 9  9 9 9  9 9 9  8 8 8  8 8 8  8 8 8  7 7 7  7 7 7  7 7 7  6 6 6  6 6 6  6 6 6  6 6 6  5 5 5  5 5 5  5 5 5  4 4 4  4 4 4  4 4 4  3 3 3  
255 255 255  255 255 255  255 255 255  255 255 255  248 248 248  241 241 241  234 234 234  227 227 227  221 221 221  214 214 214  208 208 208  201 201 201  195 195 195  189 189 189  184 184 184  178 178 178  172 172 172  167 167 167  162 162 162  157 157 157  152 152 152  147 147 147  143 143 143  138 138 138  134 134 134  130 130 130  126 126 126  122 122 122  119 119 119  115 115 115  112 112 112  108 108 108  105 105 105  102 102 102  99 99 99  96 96 96  93 93 93  90 90 90  88 88 88  85 85 85  83 83 83  80 80 80  78 78 78  76 76 76  74 74 74  71 71 71  69 69 69  67 67 67  65 65 65  64 64 64  62 62 62  60 60 60  58 58 58  57 57 57  55 55 55  53 53 53  52 52 52  50 50 50  49 49 49  48 48 48  46 46 46  45 45 45  44 44 44  42 42 42  41 41 41  40 40 40  39 39 39  38 38 38  37 37 37  36 36 36  35 35 35  34 34 34  33 33 33  32 32 32  31 31 31  30 30 30  29 29 29  28 28 28  27 27 27  27 27 27  26 26 26  25 25 25  24 24 24  24 24 24  23 23 23  22 22 22  22 22 22  21 21 21  20 20 20  20 20 20  19 19 19  18 18 18  18 18 18  17 17 17  17 17 17  16 16 16  16 16 16  15 15 15  15 15 15  14 14 14  14 14 14  13 13 13  13 13 13  12 12 12  12 12 12  11 11 11  11 11 11  11 11 11  10 10 10  10 10 10  10 10 10  9 9 9  9 9 9  9 9 9  8 8 8  8 8 8  8 8 8  7 7 7  7 7 7  7 7 7  6 6 6  6 6 6  6 6 6  6 6 6  5 5 5  5 5 5  5 5 5  4 4 4  
255 255 255  255 255 255  255 255 255  255 255 255  247 247 247  240 240 240  233 233 233  226 226 226  220 220 220  213 213 213  207 207 207  200 200 200  194 194 194  188 188 188  182 182 182  177 177 177  171 171 171  166 166 166  161 161 161  156 156 156  151 151 151  146 146 146  142 142 142  138 138 138  133 133 133  129 129 129  126 126 126  122 122 122  118 118 118  115 115 115  111 111 111  108 108 108  105 105 105  102 102 102  99 99 99  96 96 96  93 93 93  91 91 91  88 88 88  85 85 85  83 83 83  81 81 81  78 78 78  76 76 76  74 74 74  72 72 72  70 70 70  68 68 68  66 66 66  64 64 64  62 62 62  61 61 61  59 59 59  57 57 57  56 56 56  54 54 54  53 53 53  51 51 51  50 50 50  48 48 48  47 47 47  46 46 46  45 45 45  43 43 43  42 42 42  41 41 41  40 40 40  39 39 39  38 38 38  37 37 37  36 36 36  35 35 35  34 34 34  33 33 33  32 32 32  31 31 31  30 30 30  29 29 29  28 28 28  28 28 28  27 27 27  26 26 26  25 25 25  25 25 25  24 24 24  23 23 23  23 23 23  22 22 22  21 21 21  21 21 21  20 20 20  20 20 20  19 19 19  18 18 18  18 18 18  17 17 17  17 17 17  16 16 16  16 16 16  15 15 15  15 15 15  14 14 14  14 14 14  13 13 13  13 13 13  12 12 12  12 12 12  12 12 12  11 11 11  11 11 11  10 10 10  10 10 10  10 10 10  9 9 9  9 9 9  9 9 9  8 8 8  8 8 8  8 8 8  7 7 7  7 7 7  7 7 7  7 7 7  6 6 6  6 6 6  6 6 6  5 5 5  5 5 5  
255 255 255  255 255 255  255 255 255  253 253 253  246 246 246  239 239 239  232 232 232  225 225 225  219 219 219  212 212 212  206 206 206  199 199 199  193 193 193  187 187 187  181 181 181  176 176 176  170 170 170  165 165 165  160 160 160  155 155 155  150 150 150  146 146 146  141 141 141  137 137 137  133 133 133  129 129 129  125 125 125  121 121 121  118 118 118  114 114 114  111 111 111  108 108 108  105 105 105  102 102 102  99 99 99  96 96 96  93 93 93  91 91 91  88 88 88  86 86 86  83 83 83  81 81 81  79 79 79  76 76 76  74 74 74  72 72 72  70 70 70  68 68 68  67 67 67  65 65 65  63 63 63  61 61 61  60 60 60  58 58 58  56 56 56  55 55 55  53 53 53  52 52 52  51 51 51  49 49 49  48 48 48  47 47 47  45 45 45  44 44 44  43 43 43  42 42 42  41 41 41  40 40 40  39 39 39  38 38 38  37 37 37  36 36 36  35 35 35  34 34 34  33 33 33  32 32 32  31 31 31  30 30 30  29 29 29  29 29 29  28 28 28  27 27 27  26 26 26  26 26 26  25 25 25  24 24 24  24 24 24  23 23 23  22 22 22  22 22 22  21 21 21  21 21 21  20 20 20  19 19 19  19 19 19  18 18 18  18 18 18  17 17 17  17 17 17  16 16 16  16 16 16  15 15 15  15 15 15  14 14 14  14 14 14  13 13 13  13 13 13  13 13 13  12 12 12  12 12 12  11 11 11  11 11 11  11 11 11  10 10 10  10 10 10  10 10 10  9 9 9  9 9 9  9 9 9  8 8 8  8 8 8  8 8 8  7 7 7  7 7 7  7 7 7  6 6 6  6 6 6  6 6 6  
255 255 255  255 255 255  255 255 255  251 251 251  245 245 245  238 238 238  231 231 231  224 224 224  218 218 218  211 211 211  204 204 204  198 198 198  192 192 192  186 186 186  180 180 180  175 175 175  169 169 169  164 164 164  159 159 159  154 154 154  149 149 149  145 145 145  140 140 140  136 136 136  132 132 132  128 128 128  124 124 124  121 121 121  117 117 117  114 114 114  111 111 111  108 108 108  104 104 104  102 102 102  99 99 99  96 96 96  93 93 93  91 91 91  88 88 88  86 86 86  83 83 83  81 81 81  79 79 79  77 77 77  75 75 75  73 73 73  71 71 71  69 69 69  67 67 67  65 65 65  64 64 64  62 62 62  60 60 60  59 59 59  57 57 57  56 56 56  54 54 54  53 53 53  51 51 51  50 50 50  49 49 49  48 48 48  46 46 46  45 45 45  44 44 44  43 43 43  42 42 42  41 41 41  40 40 40  39 39 39  38 38 38  37 37 37  36 36 36  35 35 35  34 34 34  33 33 33  32 32 32  31 31 31  30 30 30  30 30 30  29 29 29  28 28 28  27 27 27  27 27 27  26 26 26  25 25 25  25 25 25  24 24 24  23 23 23  23 23 23  22 22 22  22 22 22  21 21 21  20 20 20  20 20 20  19 19 19  19 19 19  18 18 18  18 18 18  17 17 17  17 17 17  16 16 16  16 16 16  15 15 15  15 15 15  14 14 14  14 14 14  14 14 14  13 13 13  13 13 13  12 12 12  12 12 12  12 12 12  11 11 11  11 11 11  10 10 10  10 10 10  10 10 10  9 9 9  9 9 9  9 9 9  8 8 8  8 8 8  8 8 8  8 8 8  7 7 7  7 7 7  7 7 7  
252 252 252  255 255 255  254 254 254  249 249 249  244 244 244  237 237 237  230 230 230  223 223 223  217 217 217  210 210 210  203 203 203  197 197 197  191 191 191  185 185 185  179 179 179  173 173 173  168 168 168  163 163 163  158 158 158  153 153 153  148 148 148  144 144 144  140 140 140  136 136 136  132 132 132  128 128 128  124 124 124  120 120 120  117 117 117  114 114 114  110 110 110  107 107 107  104 104 104  101 101 101  99 99 99  96 96 96  93 93 93  91 91 91  88 88 88  86 86 86  84 84 84  81 81 81  79 79 79  77 77 77  75 75 75  73 73 73  71 71 71  69 69 69  68 68 68  66 66 66  64 64 64  62 62 62  61 61 61  59 59 59  58 58 58  56 56 56  55 55 55  54 54 54  52 52 52  51 51 51  50 50 50  48 48 48  47 47 47  46 46 46  45 45 45  44 44 44  43 43 43  42 42 42  41 41 41  39 39 39  39 39 39  38 38 38  37 37 37  36 36 36  35 35 35  34 34 34  33 33 33  32 32 32  31 31 31  31 31 31  30 30 30  29 29 29  28 28 28  28 28 28  27 27 27  26 26 26  26 26 26  25 25 25  24 24 24  24 24 24  23 23 23  22 22 22  22 22 22  21 21 21  21 21 21  20 20 20  20 20 20  19 19 19  19 19 19  18 18 18  18 18 18  17 17 17  17 17 17  16 16 16  16 16 16  15 15 15  15 15 15  14 14 14  14 14 14  14 14 14  13 13 13  13 13 13  12 12 12  12 12 12  12 12 12  11 11 11  11 11 11  11 11 11  10 10 10  10 10 10  10 10 10  9 9 9  9 9 9  9 9 9  8 8 8  8 8 8  8 8 8  7 7 7  
241 241 241  251 251 251  251 251 251  248 248 248  242 242 242  236 236 236  229 229 229  222 222 222  215 215 215  209 209 209  202 202 202  196 196 196  190 190 190  184 184 184  178 178 178  172 172 172  167 167 167  162 162 162  157 157 157  152 152 152  148 148 148  143 143 143  139 139 139  135 135 135  131 131 131  127 127 127  124 124 124  120 120 120  117 117 117  113 113 113  110 110 110  107 107 107  104 104 104  101 101 101  99 99 99  96 96 96  93 93 93  91 91 91  88 88 88  86 86 86  84 84 84  82 82 82  80 80 80  77 77 77  75 75 75  74 74 74  72 72 72  70 70 70  68 68 68  66 66 66  65 65 65  63 63 63  61 61 61  60 60 60  58 58 58  57 57 57  56 56 56  54 54 54  53 53 53  52 52 52  50 50 50  49 49 49  48 48 48  47 47 47  46 46 46  45 45 45  43 43 43  42 42 42  41 41 41  40 40 40  39 39 39  38 38 38  38 38 38  37 37 37  36 36 36  35 35 35  34 34 34  33 33 33  32 32 32  32 32 32  31 31 31  30 30 30  29 29 29  29 29 29  28 28 28  27 27 27  27 27 27  26 26 26  25 25 25  25 25 25  24 24 24  23 23 23  23 23 23  22 22 22  22 22 22  21 21 21  21 21 21  20 20 20  20 20 20  19 19 19  19 19 19  18 18 18  18 18 18  17 17 17  17 17 17  16 16 16  16 16 16  15 15 15  15 15 15  14 14 14  14 14 14  14 14 14  13 13 13  13 13 13  12 12 12  12 12 12  12 12 12  11 11 11  11 11 11  11 11 11  10 10 10  10 10 10  10 10 10  9 9 9  9 9 9  9 9 9  8 8 8  8 8 8  
232 232 232  246 246 246  248 248 248  246 246 246  241 241 241  234 234 234  228 228 228  221 221 221  214 214 214  207 207 207  201 201 201  194 194 194  188 188 188  182 182 182  177 177 177  171 171 171  166 166 166  161 161 161  156 156 156  151 151 151  147 147 147  142 142 142  138 138 138  134 134 134  130 130 130  127 127 127  123 123 123  120 120 120  116 116 116  113 113 113  110 110 110  107 107 107  104 104 104  101 101 101  99 99 99  96 96 96  93 93 93  91 91 91  89 89 89  86 86 86  84 84 84  82 82 82  80 80 80  78 78 78  76 76 76  74 74 74  72 72 72  70 70 70  69 69 69  67 67 67  65 65 65  64 64 64  62 62 62  61 61 61  59 59 59  58 58 58  56 56 56  55 55 55  54 54 54  52 52 52  51 51 51  50 50 50  49 49 49  48 48 48  46 46 46  45 45 45  44 44 44  43 43 43  42 42 42  41 41 41  40 40 40  39 39 39  38 38 38  38 38 38  37 37 37  36 36 36  35 35 35  34 34 34  33 33 33  32 32 32  32 32 32  31 31 31  30 30 30  30 30 30  29 29 29  28 28 28  27 27 27  27 27 27  26 26 26  25 25 25  25 25 25  24 24 24  24 24 24  23 23 23  23 23 23  22 22 22  21 21 21  21 21 21  20 20 20  20 20 20  19 19 19  19 19 19  18 18 18  18 18 18  17 17 17  17 17 17  17 17 17  16 16 16  16 16 16  15 15 15  15 15 15  14 14 14  14 14 14  14 14 14  13 13 13  13 13 13  12 12 12  12 12 12  12 12 12  11 11 11  11 11 11  11 11 11  10 10 10  10 10 10  10 10 10  9 9 9  9 9 9  9 9 9  
224 224 224  242 242 242  245 245 245  243 243 243  239 239 239  233 233 233  226 226 226  219 219 219  213 213 213  206 206 206  199 199 199  193 193 193  187 187 187  181 181 181  175 175 175  170 170 170  165 165 165  160 160 160  155 155 155  150 150 150  146 146 146  142 142 142  138 138 138  134 134 134  130 130 130  126 126 126  123 123 123  119 119 119  116 116 116  113 113 113  110 110 110  107 107 107  104 104 104  101 101 101  99 99 99  96 96 96  94 94 94  91 91 91  89 89 89  87 87 87  84 84 84  82 82 82  80 80 80  78 78 78  76 76 76  74 74 74  73 73 73  71 71 71  69 69 69  67 67 67  66 66 66  64 64 64  63 63 63  61 61 61  60 60 60  58 58 58  57 57 57  56 56 56  54 54 54  53 53 53  52 52 52  51 51 51  50 50 50  48 48 48  47 47 47  46 46 46  45 45 45  44 44 44  43 43 43  42 42 42  41 41 41  40 40 40  39 39 39  38 38 38  37 37 37  37 37 37  36 36 36  35 35 35  34 34 34  33 33 33  33 33 33  32 32 32  31 31 31  30 30 30  30 30 30  29 29 29  28 28 28  28 28 28  27 27 27  26 26 26  26 26 26  25 25 25  25 25 25  24 24 24  23 23 23  23 23 23  22 22 22  22 22 22  21 21 21  21 21 21  20 20 20  20 20 20  19 19 19  19 19 19  18 18 18  18 18 18  17 17 17  17 17 17  16 16 16  16 16 16  16 16 16  15 15 15  15 15 15  14 14 14  14 14 14  13 13 13  13 13 13  13 13 13  12 12 12  12 12 12  12 12 12  11 11 11  11 11 11  11 11 11  10 10 10  10 10 10  10 10 10  9 9 9  
217 217 217  238 238 238  243 243 243  241 241 241  237 237 237  231 231 231  225 225 225  218 218 218  211 211 211  204 204 204  198 198 198  192 192 192  186 186 186  180 180 180  174 174 174  169 169 169  164 164 164  159 159 159  154 154 154  150 150 150  145 145 145  141 141 141  137 137 137  133 133 133  129 129 129  126 126 126  122 122 122  119 119 119  116 116 116  113 113 113  110 110 110  107 107 107  104 104 104  101 101 101  99 99 99  96 96 96  94 94 94  91 91 91  89 89 89  87 87 87  85 85 85  83 83 83  81 81 81  79 79 79  77 77 77  75 75 75  73 73 73  71 71 71  70 70 70  68 68 68  66 66 66  65 65 65  63 63 63  62 62 62  60 60 60  59 59 59  58 58 58  56 56 56  55 55 55  54 54 54  53 53 53  51 51 51  50 50 50  49 49 49  48 48 48  47 47 47  46 46 46  45 45 45  44 44 44  43 43 43  42 42 42  41 41 41  40 40 40  39 39 39  38 38 38  37 37 37  37 37 37  36 36 36  35 35 35  34 34 34  33 33 33  33 33 33  32 32 32  31 31 31  30 30 30  30 30 30  29 29 29  28 28 28  28 28 28  27 27 27  27 27 27  26 26 26  25 25 25  25 25 25  24 24 24  24 24 24  23 23 23  22 22 22  22 22 22  21 21 21  21 21 21  20 20 20  20 20 20  19 19 19  19 19 19  18 18 18  18 18 18  18 18 18  17 17 17  17 17 17  16 16 16  16 16 16  15 15 15  15 15 15  15 15 15  14 14 14  14 14 14  13 13 13  13 13 13  13 13 13  12 12 12  12 12 12  11 11 11  11 11 11  11 11 11  10 10 10  10 10 10  10 10 10  
211 211 211  234 234 234  240 240 240  239 239 239  234 234 234  229 229 229  223 223 223  216 216 216  209 209 209  203 203 203  196 196 196  190 190 190  184 184 184  179 179 179  173 173 173  168 168 168  163 163 163  158 158 158  153 153 153  149 149 149  145 145 145  140 140 140  136 136 136  133 133 133  129 129 129  125 125 125  122 122 122  119 119 119  116 116 116  113 113 113  110 110 110  107 107 107  104 104 104  101 101 101  99 99 99  96 96 96  94 94 94  92 92 92  89 89 89  87 87 87  85 85 85  83 83 83  81 81 81  79 79 79  77 77 77  75 75 75  74 74 74  72 72 72  70 70 70  69 69 69  67 67 67  65 65 65  64 64 64  63 63 63  61 61 61  60 60 60  58 58 58  57 57 57  56 56 56  55 55 55  53 53 53  52 52 52  51 51 51  50 50 50  49 49 49  48 48 48  47 47 47  46 46 46  45 45 45  44 44 44  43 43 43  42 42 42  41 41 41  40 40 40  39 39 39  38 38 38  37 37 37  37 37 37  36 36 36  35 35 35  34 34 34  33 33 33  33 33 33  32 32 32  31 31 31  31 31 31  30 30 30  29 29 29  29 29 29  28 28 28  27 27 27  27 27 27  26 26 26  25 25 25  25 25 25  24 24 24  24 24 24  23 23 23  23 23 23  22 22 22  22 22 22  21 21 21  21 21 21  20 20 20  20 20 20  19 19 19  19 19 19  18 18 18  18 18 18  17 17 17  17 17 17  16 16 16  16 16 16  16 16 16  15 15 15  15 15 15  14 14 14  14 14 14  14 14 14  13 13 13  13 13 13  12 12 12  12 12 12  12 12 12  11 11 11  11 11 11  11 11 11  10 10 10  
207 207 207  231 231 231  237 237 237  236 236 236  232 232 232  227 227 227  220 220 220  214 214 214  207 207 207  201 201 201  195 195 195  189 189 189  183 183 183  177 177 177  172 172 172  167 167 167  162 162 162  157 157 157  152 152 152  148 148 148  144 144 144  140 140 140  136 136 136  132 132 132  129 129 129  125 125 125  122 122 122  119 119 119  116 116 116  113 113 113  110 110 110  107 107 107  104 104 104  101 101 101  99 99 99  96 96 96  94 94 94  92 92 92  90 90 90  87 87 87  85 85 85  83 83 83  81 81 81  79 79 79  78 78 78  76 76 76  74 74 74  72 72 72  71 71 71  69 69 69  68 68 68  66 66 66  65 65 65  63 63 63  62 62 62  60 60 60  59 59 59  58 58 58  57 57 57  55 55 55  54 54 54  53 53 53  52 52 52  51 51 51  50 50 50  48 48 48  47 47 47  46 46 46  45 45 45  44 44 44  43 43 43  43 43 43  42 42 42  41 41 41  40 40 40  39 39 39  38 38 38  37 37 37  37 37 37  36 36 36  35 35 35  34 34 34  33 33 33  33 33 33  32 32 32  31 31 31  31 31 31  30 30 30  29 29 29  29 29 29  28 28 28  27 27 27  27 27 27  26 26 26  26 26 26  25 25 25  24 24 24  24 24 24  23 23 23  23 23 23  22 22 22  22 22 22  21 21 21  21 21 21  20 20 20  20 20 20  19 19 19  19 19 19  18 18 18  18 18 18  17 17 17  17 17 17  17 17 17  16 16 16  16 16 16  15 15 15  15 15 15  14 14 14  14 14 14  14 14 14  13 13 13  13 13 13  13 13 13  12 12 12  12 12 12  11 11 11  11 11 11  11 11 11  
204 204 204  228 228 228  234 234 234  233 233 233  229 229 229  224 224 224  218 218 218  212 212 212  205 205 205  199 199 199  193 193 193  187 187 187  181 181 181  176 176 176  171 171 171  166 166 166  161 161 161  156 156 156  152 152 152  147 147 147  143 143 143  139 139 139  136 136 136  132 132 132  128 128 128  125 125 125  122 122 122  118 118 118  115 115 115  112 112 112  110 110 110  107 107 107  104 104 104  102 102 102  99 99 99  97 97 97  94 94 94  92 92 92  90 90 90  88 88 88  86 86 86  84 84 84  82 82 82  80 80 80  78 78 78  76 76 76  75 75 75  73 73 73  71 71 71  70 70 70  68 68 68  67 67 67  65 65 65  64 64 64  62 62 62  61 61 61  60 60 60  58 58 58  57 57 57  56 56 56  55 55 55  54 54 54  52 52 52  51 51 51  50 50 50  49 49 49  48 48 48  47 47 47  46 46 46  45 45 45  44 44 44  43 43 43  42 42 42  41 41 41  41 41 41  40 40 40  39 39 39  38 38 38  37 37 37  36 36 36  36 36 36  35 35 35  34 34 34  33 33 33  33 33 33  32 32 32  31 31 31  31 31 31  30 30 30  29 29 29  29 29 29  28 28 28  27 27 27  27 27 27  26 26 26  26 26 26  25 25 25  25 25 25  24 24 24  23 23 23  23 23 23  22 22 22  22 22 22  21 21 21  21 21 21  20 20 20  20 20 20  19 19 19  19 19 19  19 19 19  18 18 18  18 18 18  17 17 17  17 17 17  16 16 16  16 16 16  15 15 15  15 15 15  15 15 15  14 14 14  14 14 14  13 13 13  13 13 13  13 13 13  12 12 12  12 12 12  12 12 12  11 11 11  
202 202 202  225 225 225  231 231 231  230 230 230  226 226 226  221 221 221  215 215 215  209 209 209  203 203 203  197 197 197  191 191 191  185 185 185  180 180 180  175 175 175  169 169 169  164 164 164  160 160 160  155 155 155  151 151 151  147 147 147  143 143 143  139 139 139  135 135 135  132 132 132  128 128 128  125 125 125  122 122 122  118 118 118  115 115 115  113 113 113  110 110 110  107 107 107  104 104 104  102 102 102  99 99 99  97 97 97  95 95 95  92 92 92  90 90 90  88 88 88  86 86 86  84 84 84  82 82 82  80 80 80  79 79 79  77 77 77  75 75 75  73 73 73  72 72 72  70 70 70  69 69 69  67 67 67  66 66 66  64 64 64  63 63 63  62 62 62  60 60 60  59 59 59  58 58 58  57 57 57  55 55 55  54 54 54  53 53 53  52 52 52  51 51 51  50 50 50  49 49 49  48 48 48  47 47 47  46 46 46  45 45 45  44 44 44  43 43 43  42 42 42  41 41 41  40 40 40  40 40 40  39 39 39  38 38 38  37 37 37  36 36 36  36 36 36  35 35 35  34 34 34  33 33 33  33 33 33  32 32 32  31 31 31  31 31 31  30 30 30  29 29 29  29 29 29  28 28 28  27 27 27  27 27 27  26 26 26  26 26 26  25 25 25  25 25 25  24 24 24  24 24 24  23 23 23  22 22 22  22 22 22  21 21 21  21 21 21  20 20 20  20 20 20  20 20 20  19 19 19  19 19 19  18 18 18  18 18 18  17 17 17  17 17 17  16 16 16  16 16 16  15 15 15  15 15 15  15 15 15  14 14 14  14 14 14  13 13 13  13 13 13  13 13 13  12 12 12  12 12 12  12 12 12  
201 201 201  222 222 222  227 227 227  227 227 227  223 223 223  218 218 218  213 213 213  207 207 207  201 201 201  195 195 195  189 189 189  184 184 184  178 178 178  173 173 173  168 168 168  163 163 163  159 159 159  154 154 154  150 150 150  146 146 146  142 142 142  138 138 138  135 135 135  131 131 131  128 128 128  125 125 125  121 121 121  118 118 118  115 115 115  113 113 113  110 110 110  107 107 107  105 105 105  102 102 102  100 100 100  97 97 97  95 95 95  93 93 93  91 91 91  89 89 89  87 87 87  85 85 85  83 83 83  81 81 81  79 79 79  77 77 77  76 76 76  74 74 74  72 72 72  71 71 71  69 69 69  68 68 68  66 66 66  65 65 65  64 64 64  62 62 62  61 61 61  60 60 60  59 59 59  57 57 57  56 56 56  55 55 55  54 54 54  53 53 53  52 52 52  51 51 51  50 50 50  49 49 49  48 48 48  47 47 47  46 46 46  45 45 45  44 44 44  43 43 43  42 42 42  41 41 41  40 40 40  39 39 39  39 39 39  38 38 38  37 37 37  36 36 36  35 35 35  35 35 35  34 34 34  33 33 33  33 33 33  32 32 32  31 31 31  31 31 31  30 30 30  29 29 29  29 29 29  28 28 28  27 27 27  27 27 27  26 26 26  26 26 26  25 25 25  25 25 25  24 24 24  24 24 24  23 23 23  23 23 23  22 22 22  21 21 21  21 21 21  21 21 21  20 20 20  20 20 20  19 19 19  19 19 19  18 18 18  18 18 18  17 17 17  17 17 17  16 16 16  16 16 16  15 15 15  15 15 15  15 15 15  14 14 14  14 14 14  13 13 13  13 13 13  13 13 13  12 12 12  12 12 12  
201 201 201  220 220 220  224 224 224  223 223 223  220 220 220  215 215 215  210 210 210  204 204 204  198 198 198  193 193 193  187 187 187  182 182 182  177 177 177  172 172 172  167 167 167  162 162 162  158 158 158  153 153 153  149 149 149  145 145 145  142 142 142  138 138 138  134 134 134  131 131 131  128 128 128  124 124 124  121 121 121  118 118 118  115 115 115  113 113 113  110 110 110  107 107 107  105 105 105  102 102 102  100 100 100  98 98 98  95 95 95  93 93 93  91 91 91  89 89 89  87 87 87  85 85 85  83 83 83  81 81 81  80 80 80  78 78 78  76 76 76  75 75 75  73 73 73  71 71 71  70 70 70  69 69 69  67 67 67  66 66 66  64 64 64  63 63 63  62 62 62  60 60 60  59 59 59  58 58 58  57 57 57  56 56 56  54 54 54  53 53 53  52 52 52  51 51 51  50 50 50  49 49 49  48 48 48  47 47 47  46 46 46  45 45 45  44 44 44  43 43 43  43 43 43  42 42 42  41 41 41  40 40 40  39 39 39  38 38 38  38 38 38  37 37 37  36 36 36  35 35 35  35 35 35  34 34 34  33 33 33  33 33 33  32 32 32  31 31 31  31 31 31  30 30 30  29 29 29  29 29 29  28 28 28  27 27 27  27 27 27  26 26 26  26 26 26  25 25 25  25 25 25  24 24 24  24 24 24  23 23 23  22 22 22  22 22 22  21 21 21  21 21 21  20 20 20  20 20 20  20 20 20  19 19 19  19 19 19  18 18 18  18 18 18  17 17 17  17 17 17  16 16 16  16 16 16  15 15 15  15 15 15  15 15 15  14 14 14  14 14 14  13 13 13  13 13 13  13 13 13  12 12 12  
203 203 203  218 218 218  221 221 221  220 220 220  216 216 216  212 212 212  207 207 207  201 201 201  196 196 196  190 190 190  185 185 185  180 180 180  175 175 175  170 170 170  166 166 166  161 161 161  157 157 157  153 153 153  149 149 149  145 145 145  141 141 141  137 137 137  134 134 134  131 131 131  127 127 127  124 124 124  121 121 121  118 118 118  116 116 116  113 113 113  110 110 110  108 108 108  105 105 105  103 103 103  100 100 100  98 98 98  96 96 96  94 94 94  92 92 92  90 90 90  88 88 88  86 86 86  84 84 84  82 82 82  80 80 80  79 79 79  77 77 77  75 75 75  74 74 74  72 72 72  71 71 71  69 69 69  68 68 68  66 66 66  65 65 65  64 64 64  62 62 62  61 61 61  60 60 60  59 59 59  57 57 57  56 56 56  55 55 55  54 54 54  53 53 53  52 52 52  51 51 51  50 50 50  49 49 49  48 48 48  47 47 47  46 46 46  45 45 45  44 44 44  43 43 43  42 42 42  42 42 42  41 41 41  40 40 40  39 39 39  38 38 38  37 37 37  37 37 37  36 36 36  35 35 35  35 35 35  34 34 34  33 33 33  32 32 32  32 32 32  31 31 31  30 30 30  30 30 30  29 29 29  29 29 29  28 28 28  27 27 27  27 27 27  26 26 26  26 26 26  25 25 25  25 25 25  24 24 24  23 23 23  23 23 23  22 22 22  22 22 22  21 21 21  21 21 21  20 20 20  20 20 20  19 19 19  19 19 19  19 19 19  18 18 18  18 18 18  17 17 17  17 17 17  16 16 16  16 16 16  15 15 15  15 15 15  15 15 15  14 14 14  14 14 14  13 13 13  13 13 13  13 13 13  
205 205 205  216 216 216  218 218 218  216 216 216  213 213 213  208 208 208  203 203 203  198 198 198  193 193 193  188 188 188  183 183 183  178 178 178  173 173 173  169 169 169  164 164 164  160 160 160  156 156 156  152 152 152  148 148 148  144 144 144  141 141 141  137 137 137  134 134 134  130 130 130  127 127 127  124 124 124  121 121 121  118 118 118  116 116 116  113 113 113  110 110 110  108 108 108  105 105 105  103 103 103  101 101 101  98 98 98  96 96 96  94 94 94  92 92 92  90 90 90  88 88 88  86 86 86  84 84 84  83 83 83  81 81 81  79 79 79  77 77 77  76 76 76  74 74 74  73 73 73  71 71 71  70 70 70  68 68 68  67 67 67  66 66 66  64 64 64  63 63 63  62 62 62  60 60 60  59 59 59  58 58 58  57 57 57  56 56 56  55 55 55  54 54 54  53 53 53  51 51 51  50 50 50  49 49 49  48 48 48  47 47 47  47 47 47  46 46 46  45 45 45  44 44 44  43 43 43  42 42 42  41 41 41  40 40 40  40 40 40  39 39 39  38 38 38  37 37 37  37 37 37  36 36 36  35 35 35  34 34 34  34 34 34  33 33 33  32 32 32  32 32 32  31 31 31  30 30 30  30 30 30  29 29 29  28 28 28  28 28 28  27 27 27  27 27 27  26 26 26  26 26 26  25 25 25  24 24 24  24 24 24  23 23 23  23 23 23  22 22 22  22 22 22  21 21 21  21 21 21  20 20 20  20 20 20  19 19 19  19 19 19  18 18 18  18 18 18  18 18 18  17 17 17  17 17 17  16 16 16  16 16 16  15 15 15  15 15 15  15 15 15  14 14 14  14 14 14  13 13 13  13 13 13  
208 208 208  215 215 215  215 215 215  213 213 213  209 209 209  205 205 205  200 200 200  195 195 195  190 190 190  186 186 186  181 181 181  176 176 176  172 172 172  167 167 167  163 163 163  159 159 159  155 155 155  151 151 151  147 147 147  144 144 144  140 140 140  137 137 137  133 133 133  130 130 130  127 127 127  124 124 124  121 121 121  118 118 118  116 116 116  113 113 113  111 111 111  108 108 108  106 106 106  103 103 103  101 101 101  99 99 99  97 97 97  95 95 95  93 93 93  91 91 91  89 89 89  87 87 87  85 85 85  83 83 83  81 81 81  80 80 80  78 78 78  76 76 76  75 75 75  73 73 73  72 72 72  70 70 70  69 69 69  68 68 68  66 66 66  65 65 65  64 64 64  62 62 62  61 61 61  60 60 60  59 59 59  58 58 58  56 56 56  55 55 55  54 54 54  53 53 53  52 52 52  51 51 51  50 50 50  49 49 49  48 48 48  47 47 47  46 46 46  45 45 45  44 44 44  44 44 44  43 43 43  42 42 42  41 41 41  40 40 40  39 39 39  39 39 39  38 38 38  37 37 37  36 36 36  36 36 36  35 35 35  34 34 34  33 33 33  33 33 33  32 32 32  31 31 31  31 31 31  30 30 30  30 30 30  29 29 29  28 28 28  28 28 28  27 27 27  27 27 27  26 26 26  25 25 25  25 25 25  24 24 24  24 24 24  23 23 23  23 23 23  22 22 22  22 22 22  21 21 21  21 21 21  20 20 20  20 20 20  19 19 19  19 19 19  18 18 18  18 18 18  17 17 17  17 17 17  17 17 17  16 16 16  16 16 16  15 15 15  15 15 15  14 14 14  14 14 14  14 14 14  13 13 13  
212 212 212  213 213 213  212 212 212  209 209 209  205 205 205  201 201 201  197 197 197  192 192 192  187 187 187  183 183 183  179 179 179  174 174 174  170 170 170  166 166 166  162 162 162  158 158 158  154 154 154  150 150 150  147 147 147  143 143 143  140 140 140  136 136 136  133 133 133  130 130 130  127 127 127  124 124 124  121 121 121  119 119 119  116 116 116  113 113 113  111 111 111  108 108 108  106 106 106  104 104 104  101 101 101  99 99 99  97 97 97  95 95 95  93 93 93  91 91 91  89 89 89  87 87 87  85 85 85  84 84 84  82 82 82  80 80 80  79 79 79  77 77 77  75 75 75  74 74 74  72 72 72  71 71 71  70 70 70  68 68 68  67 67 67  66 66 66  64 64 64  63 63 63  62 62 62  60 60 60  59 59 59  58 58 58  57 57 57  56 56 56  55 55 55  54 54 54  53 53 53  52 52 52  51 51 51  50 50 50  49 49 49  48 48 48  47 47 47  46 46 46  45 45 45  44 44 44  43 43 43  42 42 42  42 42 42  41 41 41  40 40 40  39 39 39  38 38 38  38 38 38  37 37 37  36 36 36  35 35 35  35 35 35  34 34 34  33 33 33  33 33 33  32 32 32  31 31 31  31 31 31  30 30 30  29 29 29  29 29 29  28 28 28  28 28 28  27 27 27  26 26 26  26 26 26  25 25 25  25 25 25  24 24 24  24 24 24  23 23 23  23 23 23  22 22 22  22 22 22  21 21 21  21 21 21  20 20 20  20 20 20  19 19 19  19 19 19  18 18 18  18 18 18  17 17 17  17 17 17  16 16 16  16 16 16  16 16 16  15 15 15  15 15 15  14 14 14  14 14 14  14 14 14  
216 216 216  212 212 212  209 209 209  205 205 205  201 201 201  197 197 197  193 193 193  189 189 189  185 185 185  180 180 180  176 176 176  172 172 172  168 168 168  164 164 164  160 160 160  157 157 157  153 153 153  149 149 149  146 146 146  143 143 143  139 139 139  136 136 136  133 133 133  130 130 130  127 127 127  124 124 124  121 121 121  119 119 119  116 116 116  114 114 114  111 111 111  109 109 109  106 106 106  104 104 104  102 102 102  100 100 100  98 98 98  96 96 96  94 94 94  92 92 92  90 90 90  88 88 88  86 86 86  84 84 84  83 83 83  81 81 81  79 79 79  78 78 78  76 76 76  75 75 75  73 73 73  72 72 72  70 70 70  69 69 69  67 67 67  66 66 66  65 65 65  64 64 64  62 62 62  61 61 61  60 60 60  59 59 59  58 58 58  56 56 56  55 55 55  54 54 54  53 53 53  52 52 52  51 51 51  50 50 50  49 49 49  48 48 48  47 47 47  46 46 46  46 46 46  45 45 45  44 44 44  43 43 43  42 42 42  41 41 41  40 40 40  40 40 40  39 39 39  38 38 38  37 37 37  37 37 37  36 36 36  35 35 35  34 34 34  34 34 34  33 33 33  32 32 32  32 32 32  31 31 31  30 30 30  30 30 30  29 29 29  29 29 29  28 28 28  27 27 27  27 27 27  26 26 26  26 26 26  25 25 25  25 25 25  24 24 24  23 23 23  23 23 23  22 22 22  22 22 22  21 21 21  21 21 21  20 20 20  20 20 20  19 19 19  19 19 19  19 19 19  18 18 18  18 18 18  17 17 17  17 17 17  16 16 16  16 16 16  15 15 15  15 15 15  15 15 15  14 14 14  14 14 14  
220 220 220  211 211 211  206 206 206  201 201 201  197 197 197  193 193 193  190 190 190  186 186 186  182 182 182  178 178 178  174 174 174  170 170 170  166 166 166  163 163 163  159 159 159  156 156 156  152 152 152  149 149 149  145 145 145  142 142 142  139 139 139  136 136 136  133 133 133  130 130 130  127 127 127  124 124 124  121 121 121  119 119 119  116 116 116  114 114 114  111 111 111  109 109 109  107 107 107  104 104 104  102 102 102  100 100 100  98 98 98  96 96 96  94 94 94  92 92 92  90 90 90  88 88 88  87 87 87  85 85 85  83 83 83  81 81 81  80 80 80  78 78 78  77 77 77  75 75 75  74 74 74  72 72 72  71 71 71  69 69 69  68 68 68  67 67 67  65 65 65  64 64 64  63 63 63  62 62 62  60 60 60  59 59 59  58 58 58  57 57 57  56 56 56  55 55 55  54 54 54  53 53 53  52 52 52  51 51 51  50 50 50  49 49 49  48 48 48  47 47 47  46 46 46  45 45 45  44 44 44  43 43 43  43 43 43  42 42 42  41 41 41  40 40 40  39 39 39  39 39 39  38 38 38  37 37 37  36 36 36  36 36 36  35 35 35  34 34 34  34 34 34  33 33 33  32 32 32  32 32 32  31 31 31  30 30 30  30 30 30  29 29 29  28 28 28  28 28 28  27 27 27  27 27 27  26 26 26  25 25 25  25 25 25  24 24 24  24 24 24  23 23 23  23 23 23  22 22 22  22 22 22  21 21 21  21 21 21  20 20 20  20 20 20  19 19 19  19 19 19  18 18 18  18 18 18  17 17 17  17 17 17  17 17 17  16 16 16  16 16 16  15 15 15  15 15 15  14 14 14  14 14 14  
225 225 225  210 210 210  203 203 203  198 198 198  194 194 194  190 190 190  186 186 186  182 182 182  179 179 179  175 175 175  172 172 172  168 168 168  165 165 165  161 161 161  158 158 158  154 154 154  151 151 151  148 148 148  145 145 145  141 141 141  138 138 138  135 135 135  132 132 132  130 130 130  127 127 127  124 124 124  121 121 121  119 119 119  116 116 116  114 114 114  112 112 112  109 109 109  107 107 107  105 105 105  103 103 103  101 101 101  98 98 98  96 96 96  95 95 95  93 93 93  91 91 91  89 89 89  87 87 87  85 85 85  84 84 84  82 82 82  80 80 80  79 79 79  77 77 77  76 76 76  74 74 74  73 73 73  71 71 71  70 70 70  69 69 69  67 67 67  66 66 66  65 65 65  63 63 63  62 62 62  61 61 61  60 60 60  59 59 59  58 58 58  57 57 57  55 55 55  54 54 54  53 53 53  52 52 52  51 51 51  50 50 50  49 49 49  48 48 48  48 48 48  47 47 47  46 46 46  45 45 45  44 44 44  43 43 43  42 42 42  41 41 41  41 41 41  40 40 40  39 39 39  38 38 38  38 38 38  37 37 37  36 36 36  35 35 35  35 35 35  34 34 34  33 33 33  33 33 33  32 32 32  31 31 31  31 31 31  30 30 30  29 29 29  29 29 29  28 28 28  28 28 28  27 27 27  26 26 26  26 26 26  25 25 25  25 25 25  24 24 24  24 24 24  23 23 23  23 23 23  22 22 22  22 22 22  21 21 21  21 21 21  20 20 20  20 20 20  19 19 19  19 19 19  18 18 18  18 18 18  17 17 17  17 17 17  16 16 16  16 16 16  16 16 16  15 15 15  15 15 15  14 14 14  
230 230 230  209 209 209  200 200 200  194 194 194  190 190 190  186 186 186  183 183 183  179 179 179  176 176 176  173 173 173  170 170 170  166 166 166  163 163 163  160 160 160  157 157 157  153 153 153  150 150 150  147 147 147  144 144 144  141 141 141  138 138 138  135 135 135  132 132 132  129 129 129  127 127 127  124 124 124  121 121 121  119 119 119  117 117 117  114 114 114  112 112 112  110 110 110  107 107 107  105 105 105  103 103 103  101 101 101  99 99 99  97 97 97  95 95 95  93 93 93  91 91 91  89 89 89  88 88 88  86 86 86  84 84 84  83 83 83  81 81 81  79 79 79  78 78 78  76 76 76  75 75 75  73 73 73  72 72 72  71 71 71  69 69 69  68 68 68  67 67 67  65 65 65  64 64 64  63 63 63  62 62 62  60 60 60  59 59 59  58 58 58  57 57 57  56 56 56  55 55 55  54 54 54  53 53 53  52 52 52  51 51 51  50 50 50  49 49 49  48 48 48  47 47 47  46 46 46  45 45 45  44 44 44  44 44 44  43 43 43  42 42 42  41 41 41  40 40 40  40 40 40  39 39 39  38 38 38  37 37 37  37 37 37  36 36 36  35 35 35  34 34 34  34 34 34  33 33 33  32 32 32  32 32 32  31 31 31  30 30 30  30 30 30  29 29 29  29 29 29  28 28 28  27 27 27  27 27 27  26 26 26  26 26 26  25 25 25  24 24 24  24 24 24  23 23 23  23 23 23  22 22 22  22 22 22  21 21 21  21 21 21  20 20 20  20 20 20  19 19 19  19 19 19  19 19 19  18 18 18  18 18 18  17 17 17  17 17 17  16 16 16  16 16 16  15 15 15  15 15 15  14 14 14  
235 235 235  209 209 209  197 197 197  191 191 191  186 186 186  183 183 183  179 179 179  176 176 176  173 173 173  170 170 170  167 167 167  164 164 164  161 161 161  158 158 158  155 155 155  152 152 152  149 149 149  146 146 146  143 143 143  140 140 140  137 137 137  135 135 135  132 132 132  129 129 129  127 127 127  124 124 124  122 122 122  119 119 119  117 117 117  114 114 114  112 112 112  110 110 110  108 108 108  105 105 105  103 103 103  101 101 101  99 99 99  97 97 97  95 95 95  94 94 94  92 92 92  90 90 90  88 88 88  86 86 86  85 85 85  83 83 83  82 82 82  80 80 80  78 78 78  77 77 77  75 75 75  74 74 74  73 73 73  71 71 71  70 70 70  68 68 68  67 67 67  66 66 66  65 65 65  63 63 63  62 62 62  61 61 61  60 60 60  59 59 59  58 58 58  57 57 57  55 55 55  54 54 54  53 53 53  52 52 52  51 51 51  50 50 50  49 49 49  49 49 49  48 48 48  47 47 47  46 46 46  45 45 45  44 44 44  43 43 43  42 42 42  42 42 42  41 41 41  40 40 40  39 39 39  39 39 39  38 38 38  37 37 37  36 36 36  36 36 36  35 35 35  34 34 34  33 33 33  33 33 33  32 32 32  31 31 31  31 31 31  30 30 30  30 30 30  29 29 29  28 28 28  28 28 28  27 27 27  27 27 27  26 26 26  25 25 25  25 25 25  24 24 24  24 24 24  23 23 23  23 23 23  22 22 22  22 22 22  21 21 21  21 21 21  20 20 20  20 20 20  19 19 19  19 19 19  18 18 18  18 18 18  17 17 17  17 17 17  16 16 16  16 16 16  16 16 16  15 15 15  15 15 15  
239 239 239  208 208 208  195 195 195  187 187 187  183 183 183  179 179 179  176 176 176  173 173 173  171 171 171  168 168 168  165 165 165  163 163 163  160 160 160  157 157 157  154 154 154  151 151 151  148 148 148  145 145 145  143 143 143  140 140 140  137 137 137  134 134 134  132 132 132  129 129 129  126 126 126  124 124 124  122 122 122  119 119 119  117 117 117  114 114 114  112 112 112  110 110 110  108 108 108  106 106 106  104 104 104  102 102 102  100 100 100  98 98 98  96 96 96  94 94 94  92 92 92  90 90 90  89 89 89  87 87 87  85 85 85  84 84 84  82 82 82  81 81 81  79 79 79  77 77 77  76 76 76  75 75 75  73 73 73  72 72 72  70 70 70  69 69 69  68 68 68  66 66 66  65 65 65  64 64 64  63 63 63  62 62 62  60 60 60  59 59 59  58 58 58  57 57 57  56 56 56  55 55 55  54 54 54  53 53 53  52 52 52  51 51 51  50 50 50  49 49 49  48 48 48  47 47 47  46 46 46  45 45 45  45 45 45  44 44 44  43 43 43  42 42 42  41 41 41  41 41 41  40 40 40  39 39 39  38 38 38  37 37 37  37 37 37  36 36 36  35 35 35  35 35 35  34 34 34  33 33 33  33 33 33  32 32 32  31 31 31  31 31 31  30 30 30  29 29 29  29 29 29  28 28 28  27 27 27  27 27 27  26 26 26  26 26 26  25 25 25  25 25 25  24 24 24  24 24 24  23 23 23  22 22 22  22 22 22  21 21 21  21 21 21  20 20 20  20 20 20  20 20 20  19 19 19  19 19 19  18 18 18  18 18 18  17 17 17  17 17 17  16 16 16  16 16 16  15 15 15  15 15 15  
244 244 244  207 207 207  192 192 192  184 184 184  179 179 179  176 176 176  173 173 173  171 171 171  168 168 168  166 166 166  163 163 163  161 161 161  158 158 158  155 155 155  153 153 153  150 150 150  147 147 147  145 145 145  142 142 142  139 139 139  137 137 137  134 134 134  131 131 131  129 129 129  126 126 126  124 124 124  121 121 121  119 119 119  117 117 117  115 115 115  112 112 112  110 110 110  108 108 108  106 106 106  104 104 104  102 102 102  100 100 100  98 98 98  96 96 96  94 94 94  93 93 93  91 91 91  89 89 89  87 87 87  86 86 86  84 84 84  83 83 83  81 81 81  79 79 79  78 78 78  77 77 77  75 75 75  74 74 74  72 72 72  71 71 71  70 70 70  68 68 68  67 67 67  66 66 66  64 64 64  63 63 63  62 62 62  61 61 61  60 60 60  59 59 59  58 58 58  56 56 56  55 55 55  54 54 54  53 53 53  52 52 52  51 51 51  50 50 50  50 50 50  49 49 49  48 48 48  47 47 47  46 46 46  45 45 45  44 44 44  43 43 43  43 43 43  42 42 42  41 41 41  40 40 40  39 39 39  39 39 39  38 38 38  37 37 37  36 36 36  36 36 36  35 35 35  34 34 34  34 34 34  33 33 33  32 32 32  32 32 32  31 31 31  30 30 30  30 30 30  29 29 29  28 28 28  28 28 28  27 27 27  27 27 27  26 26 26  25 25 25  25 25 25  24 24 24  24 24 24  23 23 23  23 23 23  22 22 22  22 22 22  21 21 21  21 21 21  20 20 20  20 20 20  19 19 19  19 19 19  18 18 18  18 18 18  17 17 17  17 17 17  17 17 17  16 16 16  16 16 16  15 15 15  
247 247 247  207 207 207  190 190 190  181 181 181  176 176 176  173 173 173  170 170 170  168 168 168  166 166 166  164 164 164  161 161 161  159 159 159  157 157 157  154 154 154  152 152 152  149 149 149  146 146 146  144 144 144  141 141 141  139 139 139  136 136 136  134 134 134  131 131 131  129 129 129  126 126 126  124 124 124  121 121 121  119 119 119  117 117 117  115 115 115  112 112 112  110 110 110  108 108 108  106 106 106  104 104 104  102 102 102  100 100 100  98 98 98  97 97 97  95 95 95  93 93 93  91 91 91  90 90 90  88 88 88  86 86 86  85 85 85  83 83 83  82 82 82  80 80 80  78 78 78  77 77 77  76 76 76  74 74 74  73 73 73  71 71 71  70 70 70  69 69 69  67 67 67  66 66 66  65 65 65  64 64 64  63 63 63  61 61 61  60 60 60  59 59 59  58 58 58  57 57 57  56 56 56  55 55 55  54 54 54  53 53 53  52 52 52  51 51 51  50 50 50  49 49 49  48 48 48  47 47 47  46 46 46  46 46 46  45 45 45  44 44 44  43 43 43  42 42 42  41 41 41  41 41 41  40 40 40  39 39 39  38 38 38  38 38 38  37 37 37  36 36 36  35 35 35  35 35 35  34 34 34  33 33 33  33 33 33  32 32 32  31 31 31  31 31 31  30 30 30  29 29 29  29 29 29  28 28 28  28 28 28  27 27 27  26 26 26  26 26 26  25 25 25  25 25 25  24 24 24  24 24 24  23 23 23  23 23 23  22 22 22  22 22 22  21 21 21  21 21 21  20 20 20  20 20 20  19 19 19  19 19 19  18 18 18  18 18 18  17 17 17  17 17 17  16 16 16  16 16 16  15 15 15  
250 250 250  206 206 206  188 188 188  179 179 179  173 173 173  170 170 170  168 168 168  166 166 166  164 164 164  162 162 162  160 160 160  157 157 157  155 155 155  153 153 153  150 150 150  148 148 148  146 146 146  143 143 143  141 141 141  138 138 138  136 136 136  133 133 133  131 131 131  128 128 128  126 126 126  124 124 124  121 121 121  119 119 119  117 117 117  115 115 115  113 113 113  110 110 110  108 108 108  106 106 106  104 104 104  103 103 103  101 101 101  99 99 99  97 97 97  95 95 95  93 93 93  92 92 92  90 90 90  88 88 88  87 87 87  85 85 85  84 84 84  82 82 82  80 80 80  79 79 79  77 77 77  76 76 76  75 75 75  73 73 73  72 72 72  71 71 71  69 69 69  68 68 68  67 67 67  65 65 65  64 64 64  63 63 63  62 62 62  61 61 61  60 60 60  59 59 59  57 57 57  56 56 56  55 55 55  54 54 54  53 53 53  52 52 52  51 51 51  51 51 51  50 50 50  49 49 49  48 48 48  47 47 47  46 46 46  45 45 45  44 44 44  44 44 44  43 43 43  42 42 42  41 41 41  40 40 40  40 40 40  39 39 39  38 38 38  37 37 37  37 37 37  36 36 36  35 35 35  34 34 34  34 34 34  33 33 33  32 32 32  32 32 32  31 31 31  30 30 30  30 30 30  29 29 29  29 29 29  28 28 28  27 27 27  27 27 27  26 26 26  26 26 26  25 25 25  24 24 24  24 24 24  23 23 23  23 23 23  22 22 22  22 22 22  21 21 21  21 21 21  20 20 20  20 20 20  19 19 19  19 19 19  19 19 19  18 18 18  18 18 18  17 17 17  17 17 17  16 16 16  15 15 15  
253 253 253  205 205 205  186 186 186  176 176 176  171 171 171  168 168 168  165 165 165  163 163 163  161 161 161  160 160 160  158 158 158  156 156 156  154 154 154  152 152 152  149 149 149  147 147 147  145 145 145  142 142 142  140 140 140  137 137 137  135 135 135  133 133 133  130 130 130  128 128 128  126 126 126  123 123 123  121 121 121  119 119 119  117 117 117  115 115 115  113 113 113  111 111 111  109 109 109  107 107 107  105 105 105  103 103 103  101 101 101  99 99 99  97 97 97  95 95 95  94 94 94  92 92 92  90 90 90  89 89 89  87 87 87  85 85 85  84 84 84  82 82 82  81 81 81  79 79 79  78 78 78  76 76 76  75 75 75  74 74 74  72 72 72  71 71 71  70 70 70  68 68 68  67 67 67  66 66 66  65 65 65  64 64 64  62 62 62  61 61 61  60 60 60  59 59 59  58 58 58  57 57 57  56 56 56  55 55 55  54 54 54  53 53 53  52 52 52  51 51 51  50 50 50  49 49 49  48 48 48  47 47 47  47 47 47  46 46 46  45 45 45  44 44 44  43 43 43  42 42 42  42 42 42  41 41 41  40 40 40  39 39 39  39 39 39  38 38 38  37 37 37  36 36 36  36 36 36  35 35 35  34 34 34  34 34 34  33 33 33  32 32 32  31 31 31  31 31 31  30 30 30  30 30 30  29 29 29  28 28 28  28 28 28  27 27 27  27 27 27  26 26 26  25 25 25  25 25 25  24 24 24  24 24 24  23 23 23  23 23 23  22 22 22  22 22 22  21 21 21  21 21 21  20 20 20  20 20 20  19 19 19  19 19 19  18 18 18  18 18 18  17 17 17  17 17 17  16 16 16  16 16 16  
255 255 255  204 204 204  184 184 184  174 174 174  169 169 169  165 165 165  163 163 163  161 161 161  160 160 160  158 158 158  156 156 156  154 154 154  152 152 152  150 150 150  148 148 148  146 146 146  144 144 144  141 141 141  139 139 139  137 137 137  135 135 135  132 132 132  130 130 130  128 128 128  125 125 125  123 123 123  121 121 121  119 119 119  117 117 117  115 115 115  113 113 113  111 111 111  109 109 109  107 107 107  105 105 105  103 103 103  101 101 101  99 99 99  97 97 97  96 96 96  94 94 94  92 92 92  91 91 91  89 89 89  87 87 87  86 86 86  84 84 84  83 83 83  81 81 81  80 80 80  78 78 78  77 77 77  76 76 76  74 74 74  73 73 73  71 71 71  70 70 70  69 69 69  68 68 68  66 66 66  65 65 65  64 64 64  63 63 63  62 62 62  61 61 61  60 60 60  58 58 58  57 57 57  56 56 56  55 55 55  54 54 54  53 53 53  52 52 52  51 51 51  51 51 51  50 50 50  49 49 49  48 48 48  47 47 47  46 46 46  45 45 45  44 44 44  44 44 44  43 43 43  42 42 42  41 41 41  40 40 40  40 40 40  39 39 39  38 38 38  37 37 37  37 37 37  36 36 36  35 35 35  35 35 35  34 34 34  33 33 33  33 33 33  32 32 32  31 31 31  31 31 31  30 30 30  29 29 29  29 29 29  28 28 28  27 27 27  27 27 27  26 26 26  26 26 26  25 25 25  25 25 25  24 24 24  24 24 24  23 23 23  23 23 23  22 22 22  22 22 22  21 21 21  21 21 21  20 20 20  20 20 20  19 19 19  19 19 19  18 18 18  18 18 18  17 17 17  17 17 17  16 16 16  
255 255 255  204 204 204  183 183 183  172 172 172  167 167 167  163 163 163  161 161 161  160 160 160  158 158 158  156 156 156  155 155 155  153 153 153  151 151 151  149 149 149  147 147 147  145 145 145  143 143 143  141 141 141  138 138 138  136 136 136  134 134 134  132 132 132  129 129 129  127 127 127  125 125 125  123 123 123  121 121 121  119 119 119  117 117 117  115 115 115  113 113 113  111 111 111  109 109 109  107 107 107  105 105 105  103 103 103  101 101 101  99 99 99  98 98 98  96 96 96  94 94 94  93 93 93  91 91 91  89 89 89  88 88 88  86 86 86  85 85 85  83 83 83  82 82 82  80 80 80  79 79 79  77 77 77  76 76 76  75 75 75  73 73 73  72 72 72  71 71 71  69 69 69  68 68 68  67 67 67  66 66 66  64 64 64  63 63 63  62 62 62  61 61 61  60 60 60  59 59 59  58 58 58  57 57 57  56 56 56  55 55 55  54 54 54  53 53 53  52 52 52  51 51 51  50 50 50  49 49 49  48 48 48  47 47 47  47 47 47  46 46 46  45 45 45  44 44 44  43 43 43  43 43 43  42 42 42  41 41 41  40 40 40  39 39 39  39 39 39  38 38 38  37 37 37  36 36 36  36 36 36  35 35 35  34 34 34  34 34 34  33 33 33  32 32 32  32 32 32  31 31 31  30 30 30  30 30 30  29 29 29  28 28 28  28 28 28  27 27 27  27 27 27  26 26 26  26 26 26  25 25 25  24 24 24  24 24 24  23 23 23  23 23 23  22 22 22  22 22 22  21 21 21  21 21 21  20 20 20  20 20 20  19 19 19  19 19 19  18 18 18  18 18 18  17 17 17  17 17 17  16 16 16  
255 255 255  203 203 203  181 181 181  171 171 171  165 165 165  162 162 162  160 160 160  158 158 158  157 157 157  155 155 155  153 153 153  152 152 152  150 150 150  148 148 148  146 146 146  144 144 144  142 142 142  140 140 140  138 138 138  136 136 136  133 133 133  131 131 131  129 129 129  127 127 127  125 125 125  123 123 123  120 120 120  118 118 118  116 116 116  114 114 114  112 112 112  110 110 110  109 109 109  107 107 107  105 105 105  103 103 103  101 101 101  100 100 100  98 98 98  96 96 96  94 94 94  93 93 93  91 91 91  90 90 90  88 88 88  86 86 86  85 85 85  83 83 83  82 82 82  80 80 80  79 79 79  78 78 78  76 76 76  75 75 75  74 74 74  72 72 72  71 71 71  70 70 70  68 68 68  67 67 67  66 66 66  65 65 65  64 64 64  63 63 63  62 62 62  60 60 60  59 59 59  58 58 58  57 57 57  56 56 56  55 55 55  54 54 54  53 53 53  52 52 52  52 52 52  51 51 51  50 50 50  49 49 49  48 48 48  47 47 47  46 46 46  45 45 45  45 45 45  44 44 44  43 43 43  42 42 42  41 41 41  41 41 41  40 40 40  39 39 39  38 38 38  38 38 38  37 37 37  36 36 36  36 36 36  35 35 35  34 34 34  33 33 33  33 33 33  32 32 32  31 31 31  31 31 31  30 30 30  30 30 30  29 29 29  28 28 28  28 28 28  27 27 27  27 27 27  26 26 26  25 25 25  25 25 25  24 24 24  24 24 24  23 23 23  23 23 23  22 22 22  22 22 22  21 21 21  21 21 21  20 20 20  20 20 20  19 19 19  19 19 19  18 18 18  18 18 18  17 17 17  17 17 17  
254 254 254  201 201 201  180 180 180  170 170 170  164 164 164  161 161 161  158 158 158  157 157 157  155 155 155  154 154 154  152 152 152  151 151 151  149 149 149  147 147 147  145 145 145  143 143 143  141 141 141  139 139 139  137 137 137  135 135 135  133 133 133  131 131 131  128 128 128  126 126 126  124 124 124  122 122 122  120 120 120  118 118 118  116 116 116  114 114 114  112 112 112  110 110 110  108 108 108  107 107 107  105 105 105  103 103 103  101 101 101  100 100 100  98 98 98  96 96 96  95 95 95  93 93 93  91 91 91  90 90 90  88 88 88  87 87 87  85 85 85  84 84 84  82 82 82  81 81 81  79 79 79  78 78 78  77 77 77  75 75 75  74 74 74  73 73 73  71 71 71  70 70 70  69 69 69  68 68 68  67 67 67  65 65 65  64 64 64  63 63 63  62 62 62  61 61 61  60 60 60  59 59 59  58 58 58  57 57 57  56 56 56  55 55 55  54 54 54  53 53 53  52 52 52  51 51 51  50 50 50  49 49 49  48 48 48  48 48 48  47 47 47  46 46 46  45 45 45  44 44 44  44 44 44  43 43 43  42 42 42  41 41 41  40 40 40  40 40 40  39 39 39  38 38 38  37 37 37  37 37 37  36 36 36  35 35 35  35 35 35  34 34 34  33 33 33  33 33 33  32 32 32  31 31 31  31 31 31  30 30 30  29 29 29  29 29 29  28 28 28  28 28 28  27 27 27  26 26 26  26 26 26  25 25 25  25 25 25  24 24 24  24 24 24  23 23 23  23 23 23  22 22 22  22 22 22  21 21 21  21 21 21  20 20 20  20 20 20  19 19 19  19 19 19  18 18 18  18 18 18  17 17 17  
252 252 252  200 200 200  179 179 179  169 169 169  163 163 163  160 160 160  157 157 157  156 156 156  154 154 154  153 153 153  151 151 151  150 150 150  148 148 148  146 146 146  144 144 144  142 142 142  140 140 140  138 138 138  136 136 136  134 134 134  132 132 132  130 130 130  128 128 128  126 126 126  124 124 124  122 122 122  120 120 120  118 118 118  116 116 116  114 114 114  112 112 112  110 110 110  108 108 108  106 106 106  105 105 105  103 103 103  101 101 101  100 100 100  98 98 98  96 96 96  95 95 95  93 93 93  91 91 91  90 90 90  88 88 88  87 87 87  85 85 85  84 84 84  82 82 82  81 81 81  80 80 80  78 78 78  77 77 77  76 76 76  74 74 74  73 73 73  72 72 72  70 70 70  69 69 69  68 68 68  67 67 67  66 66 66  65 65 65  64 64 64  62 62 62  61 61 61  60 60 60  59 59 59  58 58 58  57 57 57  56 56 56  55 55 55  54 54 54  53 53 53  52 52 52  52 52 52  51 51 51  50 50 50  49 49 49  48 48 48  47 47 47  46 46 46  46 46 46  45 45 45  44 44 44  43 43 43  42 42 42  42 42 42  41 41 41  40 40 40  39 39 39  39 39 39  38 38 38  37 37 37  36 36 36  36 36 36  35 35 35  34 34 34  34 34 34  33 33 33  32 32 32  32 32 32  31 31 31  30 30 30  30 30 30  29 29 29  29 29 29  28 28 28  27 27 27  27 27 27  26 26 26  26 26 26  25 25 25  25 25 25  24 24 24  24 24 24  23 23 23  23 23 23  22 22 22  22 22 22  21 21 21  21 21 21  20 20 20  20 20 20  19 19 19  18 18 18  18 18 18  17 17 17  
248 248 248  199 199 199  178 178 178  168 168 168  163 163 163  159 159 159  157 157 157  155 155 155  154 154 154  152 152 152  150 150 150  149 149 149  147 147 147  145 145 145  144 144 144  142 142 142  140 140 140  138 138 138  136 136 136  133 133 133  131 131 131  129 129 129  127 127 127  125 125 125  123 123 123  121 121 121  119 119 119  117 117 117  115 115 115  114 114 114  112 112 112  110 110 110  108 108 108  106 106 106  105 105 105  103 103 103  101 101 101  99 99 99  98 98 98  96 96 96  95 95 95  93 93 93  91 91 91  90 90 90  88 88 88  87 87 87  86 86 86  84 84 84  83 83 83  81 81 81  80 80 80  79 79 79  77 77 77  76 76 76  75 75 75  73 73 73  72 72 72  71 71 71  70 70 70  68 68 68  67 67 67  66 66 66  65 65 65  64 64 64  63 63 63  62 62 62  61 61 61  60 60 60  59 59 59  58 58 58  57 57 57  56 56 56  55 55 55  54 54 54  53 53 53  52 52 52  51 51 51  50 50 50  49 49 49  49 49 49  48 48 48  47 47 47  46 46 46  45 45 45  44 44 44  44 44 44  43 43 43  42 42 42  41 41 41  41 41 41  40 40 40  39 39 39  38 38 38  38 38 38  37 37 37  36 36 36  36 36 36  35 35 35  34 34 34  34 34 34  33 33 33  32 32 32  32 32 32  31 31 31  30 30 30  30 30 30  29 29 29  28 28 28  28 28 28  27 27 27  27 27 27  26 26 26  26 26 26  25 25 25  25 25 25  24 24 24  24 24 24  23 23 23  23 23 23  22 22 22  21 21 21  21 21 21  20 20 20  20 20 20  19 19 19  19 19 19  18 18 18  18 18 18  
244 244 244  197 197 197  178 178 178  168 168 168  162 162 162  159 159 159  156 156 156  155 155 155  153 153 153  151 151 151  150 150 150  148 148 148  146 146 146  145 145 145  143 143 143  141 141 141  139 139 139  137 137 137  135 135 135  133 133 133  131 131 131  129 129 129  127 127 127  125 125 125  123 123 123  121 121 121  119 119 119  117 117 117  115 115 115  113 113 113  111 111 111  110 110 110  108 108 108  106 106 106  104 104 104  103 103 103  101 101 101  99 99 99  98 98 98  96 96 96  95 95 95  93 93 93  91 91 91  90 90 90  89 89 89  87 87 87  86 86 86  84 84 84  83 83 83  81 81 81  80 80 80  79 79 79  77 77 77  76 76 76  75 75 75  74 74 74  72 72 72  71 71 71  70 70 70  69 69 69  68 68 68  67 67 67  65 65 65  64 64 64  63 63 63  62 62 62  61 61 61  60 60 60  59 59 59  58 58 58  57 57 57  56 56 56  55 55 55  54 54 54  53 53 53  53 53 53  52 52 52  51 51 51  50 50 50  49 49 49  48 48 48  47 47 47  47 47 47  46 46 46  45 45 45  44 44 44  43 43 43  43 43 43  42 42 42  41 41 41  40 40 40  40 40 40  39 39 39  38 38 38  38 38 38  37 37 37  36 36 36  35 35 35  35 35 35  34 34 34  33 33 33  33 33 33  32 32 32  31 31 31  31 31 31  30 30 30  30 30 30  29 29 29  28 28 28  28 28 28  27 27 27  27 27 27  26 26 26  26 26 26  25 25 25  24 24 24  24 24 24  23 23 23  23 23 23  22 22 22  22 22 22  21 21 21  21 21 21  20 20 20  20 20 20  19 19 19  19 19 19  18 18 18  
239 239 239  196 196 196  177 177 177  168 168 168  162 162 162  159 159 159  156 156 156  154 154 154  153 153 153  151 151 151  149 149 149  147 147 147  146 146 146  144 144 144  142 142 142  140 140 140  138 138 138  136 136 136  134 134 134  132 132 132  130 130 130  128 128 128  126 126 126  124 124 124  122 122 122  120 120 120  118 118 118  116 116 116  115 115 115  113 113 113  111 111 111  109 109 109  107 107 107  106 106 106  104 104 104  102 102 102  101 101 101  99 99 99  98 98 98  96 96 96  94 94 94  93 93 93  91 91 91  90 90 90  89 89 89  87 87 87  86 86 86  84 84 84  83 83 83  82 82 82  80 80 80  79 79 79  78 78 78  76 76 76  75 75 75  74 74 74  73 73 73  71 71 71  70 70 70  69 69 69  68 68 68  67 67 67  66 66 66  65 65 65  64 64 64  63 63 63  62 62 62  61 61 61  60 60 60  59 59 59  58 58 58  57 57 57  56 56 56  55 55 55  54 54 54  53 53 53  52 52 52  51 51 51  50 50 50  50 50 50  49 49 49  48 48 48  47 47 47  46 46 46  46 46 46  45 45 45  44 44 44  43 43 43  42 42 42  42 42 42  41 41 41  40 40 40  39 39 39  39 39 39  38 38 38  37 37 37  37 37 37  36 36 36  35 35 35  35 35 35  34 34 34  33 33 33  33 33 33  32 32 32  31 31 31  31 31 31  30 30 30  29 29 29  29 29 29  28 28 28  28 28 28  27 27 27  27 27 27  26 26 26  25 25 25  25 25 25  24 24 24  24 24 24  23 23 23  23 23 23  22 22 22  22 22 22  21 21 21  21 21 21  20 20 20  20 20 20  19 19 19  19 19 19  
233 233 233  194 194 194  177 177 177  168 168 168  163 163 163  159 159 159  157 157 157  154 154 154  153 153 153  151 151 151  149 149 149  147 147 147  145 145 145  143 143 143  141 141 141  139 139 139  137 137 137  135 135 135  133 133 133  131 131 131  129 129 129  127 127 127  125 125 125  123 123 123  121 121 121  120 120 120  118 118 118  116 116 116  114 114 114  112 112 112  111 111 111  109 109 109  107 107 107  105 105 105  104 104 104  102 102 102  101 101 101  99 99 99  97 97 97  96 96 96  94 94 94  93 93 93  91 91 91  90 90 90  89 89 89  87 87 87  86 86 86  84 84 84  83 83 83  82 82 82  80 80 80  79 79 79  78 78 78  77 77 77  75 75 75  74 74 74  73 73 73  72 72 72  71 71 71  69 69 69  68 68 68  67 67 67  66 66 66  65 65 65  64 64 64  63 63 63  62 62 62  61 61 61  60 60 60  59 59 59  58 58 58  57 57 57  56 56 56  55 55 55  54 54 54  54 54 54  53 53 53  52 52 52  51 51 51  50 50 50  49 49 49  48 48 48  48 48 48  47 47 47  46 46 46  45 45 45  44 44 44  44 44 44  43 43 43  42 42 42  41 41 41  41 41 41  40 40 40  39 39 39  39 39 39  38 38 38  37 37 37  36 36 36  36 36 36  35 35 35  34 34 34  34 34 34  33 33 33  32 32 32  32 32 32  31 31 31  31 31 31  30 30 30  29 29 29  29 29 29  28 28 28  28 28 28  27 27 27  27 27 27  26 26 26  25 25 25  25 25 25  24 24 24  24 24 24  23 23 23  23 23 23  22 22 22  22 22 22  21 21 21  21 21 21  20 20 20  20 20 20  19 19 19  
226 226 226  192 192 192  177 177 177  169 169 169  163 163 163  160 160 160  157 157 157  155 155 155  153 153 153  151 151 151  149 149 149  147 147 147  145 145 145  143 143 143  141 141 141  139 139 139  137 137 137  135 135 135  133 133 133  131 131 131  129 129 129  127 127 127  125 125 125  123 123 123  121 121 121  119 119 119  117 117 117  115 115 115  114 114 114  112 112 112  110 110 110  108 108 108  107 107 107  105 105 105  103 103 103  102 102 102  100 100 100  99 99 99  97 97 97  96 96 96  94 94 94  93 93 93  91 91 91  90 90 90  88 88 88  87 87 87  86 86 86  84 84 84  83 83 83  82 82 82  81 81 81  79 79 79  78 78 78  77 77 77  76 76 76  74 74 74  73 73 73  72 72 72  71 71 71  70 70 70  69 69 69  68 68 68  67 67 67  65 65 65  64 64 64  63 63 63  62 62 62  61 61 61  60 60 60  59 59 59  59 59 59  58 58 58  57 57 57  56 56 56  55 55 55  54 54 54  53 53 53  52 52 52  51 51 51  51 51 51  50 50 50  49 49 49  48 48 48  47 47 47  47 47 47  46 46 46  45 45 45  44 44 44  43 43 43  43 43 43  42 42 42  41 41 41  41 41 41  40 40 40  39 39 39  38 38 38  38 38 38  37 37 37  36 36 36  36 36 36  35 35 35  34 34 34  34 34 34  33 33 33  32 32 32  32 32 32  31 31 31  31 31 31  30 30 30  29 29 29  29 29 29  28 28 28  28 28 28  27 27 27  26 26 26  26 26 26  25 25 25  25 25 25  24 24 24  24 24 24  23 23 23  23 23 23  22 22 22  22 22 22  21 21 21  21 21 21  20 20 20  19 19 19  
218 218 218  190 190 190  177 177 177  169 169 169  164 164 164  161 161 161  158 158 158  155 155 155  153 153 153  151 151 151  148 148 148  146 146 146  144 144 144  142 142 142  140 140 140  138 138 138  136 136 136  134 134 134  132 132 132  130 130 130  128 128 128  126 126 126  124 124 124  122 122 122  120 120 120  118 118 118  116 116 116  115 115 115  113 113 113  111 111 111  110 110 110  108 108 108  106 106 106  105 105 105  103 103 103  101 101 101  100 100 100  98 98 98  97 97 97  95 95 95  94 94 94  93 93 93  91 91 91  90 90 90  88 88 88  87 87 87  86 86 86  84 84 84  83 83 83  82 82 82  81 81 81  79 79 79  78 78 78  77 77 77  76 76 76  75 75 75  73 73 73  72 72 72  71 71 71  70 70 70  69 69 69  68 68 68  67 67 67  66 66 66  65 65 65  64 64 64  63 63 63  62 62 62  61 61 61  60 60 60  59 59 59  58 58 58  57 57 57  56 56 56  55 55 55  55 55 55  54 54 54  53 53 53  52 52 52  51 51 51  50 50 50  49 49 49  49 49 49  48 48 48  47 47 47  46 46 46  46 46 46  45 45 45  44 44 44  43 43 43  43 43 43  42 42 42  41 41 41  40 40 40  40 40 40  39 39 39  38 38 38  38 38 38  37 37 37  36 36 36  36 36 36  35 35 35  34 34 34  34 34 34  33 33 33  32 32 32  32 32 32  31 31 31  30 30 30  30 30 30  29 29 29  29 29 29  28 28 28  28 28 28  27 27 27  26 26 26  26 26 26  25 25 25  25 25 25  24 24 24  24 24 24  23 23 23  23 23 23  22 22 22  22 22 22  21 21 21  20 20 20  20 20 20  
210 210 210  188 188 188  177 177 177  170 170 170  165 165 165  162 162 162  158 158 158  156 156 156  153 153 153  151 151 151  148 148 148  146 146 146  144 144 144  142 142 142  139 139 139  137 137 137  135 135 135  133 133 133  131 131 131  129 129 129  127 127 127  125 125 125  123 123 123  121 121 121  119 119 119  118 118 118  116 116 116  114 114 114  112 112 112  111 111 111  109 109 109  107 107 107  106 106 106  104 104 104  103 103 103  101 101 101  100 100 100  98 98 98  97 97 97  95 95 95  94 94 94  92 92 92  91 91 91  90 90 90  88 88 88  87 87 87  86 86 86  84 84 84  83 83 83  82 82 82  81 81 81  79 79 79  78 78 78  77 77 77  76 76 76  75 75 75  74 74 74  73 73 73  71 71 71  70 70 70  69 69 69  68 68 68  67 67 67  66 66 66  65 65 65  64 64 64  63 63 63  62 62 62  61 61 61  60 60 60  59 59 59  59 59 59  58 58 58  57 57 57  56 56 56  55 55 55  54 54 54  53 53 53  52 52 52  52 52 52  51 51 51  50 50 50  49 49 49  48 48 48  48 48 48  47 47 47  46 46 46  45 45 45  45 45 45  44 44 44  43 43 43  42 42 42  42 42 42  41 41 41  40 40 40  39 39 39  39 39 39  38 38 38  37 37 37  37 37 37  36 36 36  35 35 35  35 35 35  34 34 34  33 33 33  33 33 33  32 32 32  32 32 32  31 31 31  30 30 30  30 30 30  29 29 29  29 29 29  28 28 28  27 27 27  27 27 27  26 26 26  26 26 26  25 25 25  25 25 25  24 24 24  24 24 24  23 23 23  23 23 23  22 22 22  21 21 21  21 21 21  20 20 20  
201 201 201  186 186 186  177 177 177  171 171 171  167 167 167  163 163 163  159 159 159  156 156 156  154 154 154  151 151 151  148 148 148  146 146 146  143 143 143  141 141 141  139 139 139  137 137 137  134 134 134  132 132 132  130 130 130  128 128 128  126 126 126  124 124 124  122 122 122  121 121 121  119 119 119  117 117 117  115 115 115  113 113 113  112 112 112  110 110 110  108 108 108  107 107 107  105 105 105  104 104 104  102 102 102  101 101 101  99 99 99  98 98 98  96 96 96  95 95 95  94 94 94  92 92 92  91 91 91  89 89 89  88 88 88  87 87 87  86 86 86  84 84 84  83 83 83  82 82 82  81 81 81  80 80 80  78 78 78  77 77 77  76 76 76  75 75 75  74 74 74  73 73 73  72 72 72  71 71 71  70 70 70  69 69 69  68 68 68  67 67 67  66 66 66  65 65 65  64 64 64  63 63 63  62 62 62  61 61 61  60 60 60  59 59 59  58 58 58  57 57 57  56 56 56  55 55 55  55 55 55  54 54 54  53 53 53  52 52 52  51 51 51  50 50 50  50 50 50  49 49 49  48 48 48  47 47 47  47 47 47  46 46 46  45 45 45  44 44 44  44 44 44  43 43 43  42 42 42  41 41 41  41 41 41  40 40 40  39 39 39  39 39 39  38 38 38  37 37 37  37 37 37  36 36 36  35 35 35  35 35 35  34 34 34  33 33 33  33 33 33  32 32 32  32 32 32  31 31 31  30 30 30  30 30 30  29 29 29  29 29 29  28 28 28  27 27 27  27 27 27  26 26 26  26 26 26  25 25 25  25 25 25  24 24 24  24 24 24  23 23 23  22 22 22  22 22 22  21 21 21  21 21 21  
192 192 192  184 184 184  177 177 177  172 172 172  168 168 168  164 164 164  160 160 160  157 157 157  154 154 154  151 151 151  148 148 148  146 146 146  143 143 143  141 141 141  138 138 138  136 136 136  134 134 134  132 132 132  130 130 130  128 128 128  126 126 126  124 124 124  122 122 122  120 120 120  118 118 118  116 116 116  115 115 115  113 113 113  111 111 111  109 109 109  108 108 108  106 106 106  105 105 105  103 103 103  102 102 102  100 100 100  99 99 99  97 97 97  96 96 96  95 95 95  93 93 93  92 92 92  91 91 91  89 89 89  88 88 88  87 87 87  86 86 86  84 84 84  83 83 83  82 82 82  81 81 81  80 80 80  78 78 78  77 77 77  76 76 76  75 75 75  74 74 74  73 73 73  72 72 72  71 71 71  70 70 70  69 69 69  68 68 68  67 67 67  66 66 66  65 65 65  64 64 64  63 63 63  62 62 62  61 61 61  60 60 60  59 59 59  59 59 59  58 58 58  57 57 57  56 56 56  55 55 55  54 54 54  53 53 53  53 53 53  52 52 52  51 51 51  50 50 50  49 49 49  49 49 49  48 48 48  47 47 47  46 46 46  46 46 46  45 45 45  44 44 44  43 43 43  43 43 43  42 42 42  41 41 41  41 41 41  40 40 40  39 39 39  39 39 39  38 38 38  37 37 37  37 37 37  36 36 36  35 35 35  35 35 35  34 34 34  33 33 33  33 33 33  32 32 32  31 31 31  31 31 31  30 30 30  30 30 30  29 29 29  29 29 29  28 28 28  27 27 27  27 27 27  26 26 26  26 26 26  25 25 25  25 25 25  24 24 24  23 23 23  23 23 23  22 22 22  22 22 22  21 21 21  
183 183 183  181 181 181  178 178 178  173 173 173  169 169 169  165 165 165  162 162 162  158 158 158  155 155 155  151 151 151  148 148 148  146 146 146  143 143 143  140 140 140  138 138 138  135 135 135  133 133 133  131 131 131  129 129 129  127 127 127  125 125 125  123 123 123  121 121 121  119 119 119  117 117 117  116 116 116  114 114 114  112 112 112  111 111 111  109 109 109  107 107 107  106 106 106  104 104 104  103 103 103  101 101 101  100 100 100  98 98 98  97 97 97  96 96 96  94 94 94  93 93 93  92 92 92  90 90 90  89 89 89  88 88 88  87 87 87  85 85 85  84 84 84  83 83 83  82 82 82  81 81 81  80 80 80  79 79 79  77 77 77  76 76 76  75 75 75  74 74 74  73 73 73  72 72 72  71 71 71  70 70 70  69 69 69  68 68 68  67 67 67  66 66 66  65 65 65  64 64 64  63 63 63  63 63 63  62 62 62  61 61 61  60 60 60  59 59 59  58 58 58  57 57 57  56 56 56  56 56 56  55 55 55  54 54 54  53 53 53  52 52 52  51 51 51  51 51 51  50 50 50  49 49 49  48 48 48  48 48 48  47 47 47  46 46 46  45 45 45  45 45 45  44 44 44  43 43 43  42 42 42  42 42 42  41 41 41  40 40 40  40 40 40  39 39 39  38 38 38  38 38 38  37 37 37  36 36 36  36 36 36  35 35 35  35 35 35  34 34 34  33 33 33  33 33 33  32 32 32  31 31 31  31 31 31  30 30 30  30 30 30  29 29 29  28 28 28  28 28 28  27 27 27  27 27 27  26 26 26  26 26 26  25 25 25  24 24 24  24 24 24  23 23 23  23 23 23  22 22 22  22 22 22  
174 174 174  179 179 179  178 178 178  175 175 175  171 171 171  167 167 167  163 163 163  159 159 159  155 155 155  152 152 152  149 149 149  145 145 145  143 143 143  140 140 140  137 137 137  135 135 135  133 133 133  130 130 130  128 128 128  126 126 126  124 124 124  122 122 122  120 120 120  118 118 118  117 117 117  115 115 115  113 113 113  112 112 112  110 110 110  108 108 108  107 107 107  105 105 105  104 104 104  102 102 102  101 101 101  99 99 99  98 98 98  97 97 97  95 95 95  94 94 94  93 93 93  91 91 91  90 90 90  89 89 89  88 88 88  87 87 87  85 85 85  84 84 84  83 83 83  82 82 82  81 81 81  80 80 80  79 79 79  78 78 78  76 76 76  75 75 75  74 74 74  73 73 73  72 72 72  71 71 71  70 70 70  69 69 69  68 68 68  68 68 68  67 67 67  66 66 66  65 65 65  64 64 64  63 63 63  62 62 62  61 61 61  60 60 60  59 59 59  59 59 59  58 58 58  57 57 57  56 56 56  55 55 55  54 54 54  54 54 54  53 53 53  52 52 52  51 51 51  50 50 50  50 50 50  49 49 49  48 48 48  47 47 47  47 47 47  46 46 46  45 45 45  44 44 44  44 44 44  43 43 43  42 42 42  42 42 42  41 41 41  40 40 40  40 40 40  39 39 39  38 38 38  38 38 38  37 37 37  36 36 36  36 36 36  35 35 35  34 34 34  34 34 34  33 33 33  33 33 33  32 32 32  31 31 31  31 31 31  30 30 30  30 30 30  29 29 29  28 28 28  28 28 28  27 27 27  27 27 27  26 26 26  25 25 25  25 25 25  24 24 24  24 24 24  23 23 23  23 23 23  22 22 22  
166 166 166  177 177 177  178 178 178  176 176 176  172 172 172  168 168 168  164 164 164  160 160 160  156 156 156  152 152 152  149 149 149  145 145 145  142 142 142  140 140 140  137 137 137  134 134 134  132 132 132  130 130 130  127 127 127  125 125 125  123 123 123  121 121 121  120 120 120  118 118 118  116 116 116  114 114 114  113 113 113  111 111 111  109 109 109  108 108 108  106 106 106  105 105 105  103 103 103  102 102 102  100 100 100  99 99 99  98 98 98  96 96 96  95 95 95  94 94 94  92 92 92  91 91 91  90 90 90  89 89 89  88 88 88  86 86 86  85 85 85  84 84 84  83 83 83  82 82 82  81 81 81  80 80 80  79 79 79  78 78 78  77 77 77  76 76 76  75 75 75  74 74 74  73 73 73  72 72 72  71 71 71  70 70 70  69 69 69  68 68 68  67 67 67  66 66 66  65 65 65  64 64 64  63 63 63  62 62 62  62 62 62  61 61 61  60 60 60  59 59 59  58 58 58  57 57 57  56 56 56  56 56 56  55 55 55  54 54 54  53 53 53  52 52 52  52 52 52  51 51 51  50 50 50  49 49 49  49 49 49  48 48 48  47 47 47  46 46 46  46 46 46  45 45 45  44 44 44  44 44 44  43 43 43  42 42 42  41 41 41  41 41 41  40 40 40  39 39 39  39 39 39  38 38 38  37 37 37  37 37 37  36 36 36  36 36 36  35 35 35  34 34 34  34 34 34  33 33 33  32 32 32  32 32 32  31 31 31  31 31 31  30 30 30  29 29 29  29 29 29  28 28 28  28 28 28  27 27 27  26 26 26  26 26 26  25 25 25  25 25 25  24 24 24  24 24 24  23 23 23  23 23 23  
158 158 158  175 175 175  178 178 178  176 176 176  173 173 173  169 169 169  164 164 164  160 160 160  156 156 156  152 152 152  149 149 149  145 145 145  142 142 142  139 139 139  136 136 136  134 134 134  131 131 131  129 129 129  127 127 127  125 125 125  123 123 123  121 121 121  119 119 119  117 117 117  115 115 115  114 114 114  112 112 112  110 110 110  109 109 109  107 107 107  106 106 106  104 104 104  103 103 103  101 101 101  100 100 100  99 99 99  97 97 97  96 96 96  95 95 95  93 93 93  92 92 92  91 91 91  90 90 90  89 89 89  87 87 87  86 86 86  85 85 85  84 84 84  83 83 83  82 82 82  81 81 81  80 80 80  79 79 79  78 78 78  77 77 77  76 76 76  75 75 75  74 74 74  73 73 73  72 72 72  71 71 71  70 70 70  69 69 69  68 68 68  67 67 67  66 66 66  65 65 65  65 65 65  64 64 64  63 63 63  62 62 62  61 61 61  60 60 60  59 59 59  58 58 58  58 58 58  57 57 57  56 56 56  55 55 55  54 54 54  54 54 54  53 53 53  52 52 52  51 51 51  51 51 51  50 50 50  49 49 49  48 48 48  48 48 48  47 47 47  46 46 46  45 45 45  45 45 45  44 44 44  43 43 43  43 43 43  42 42 42  41 41 41  41 41 41  40 40 40  39 39 39  39 39 39  38 38 38  37 37 37  37 37 37  36 36 36  35 35 35  35 35 35  34 34 34  34 34 34  33 33 33  32 32 32  32 32 32  31 31 31  30 30 30  30 30 30  29 29 29  29 29 29  28 28 28  27 27 27  27 27 27  26 26 26  26 26 26  25 25 25  25 25 25  24 24 24  24 24 24  23 23 23  
150 150 150  173 173 173  178 178 178  177 177 177  174 174 174  170 170 170  165 165 165  161 161 161  156 156 156  152 152 152  149 149 149  145 145 145  142 142 142  139 139 139  136 136 136  133 133 133  131 131 131  128 128 128  126 126 126  124 124 124  122 122 122  120 120 120  118 118 118  117 117 117  115 115 115  113 113 113  111 111 111  110 110 110  108 108 108  107 107 107  105 105 105  104 104 104  102 102 102  101 101 101  100 100 100  98 98 98  97 97 97  96 96 96  95 95 95  93 93 93  92 92 92  91 91 91  90 90 90  89 89 89  87 87 87  86 86 86  85 85 85  84 84 84  83 83 83  82 82 82  81 81 81  80 80 80  79 79 79  78 78 78  77 77 77  76 76 76  75 75 75  74 74 74  73 73 73  72 72 72  71 71 71  70 70 70  69 69 69  68 68 68  68 68 68  67 67 67  66 66 66  65 65 65  64 64 64  63 63 63  62 62 62  61 61 61  61 61 61  60 60 60  59 59 59  58 58 58  57 57 57  56 56 56  56 56 56  55 55 55  54 54 54  53 53 53  52 52 52  52 52 52  51 51 51  50 50 50  49 49 49  49 49 49  48 48 48  47 47 47  47 47 47  46 46 46  45 45 45  44 44 44  44 44 44  43 43 43  42 42 42  42 42 42  41 41 41  40 40 40  40 40 40  39 39 39  38 38 38  38 38 38  37 37 37  36 36 36  36 36 36  35 35 35  35 35 35  34 34 34  33 33 33  33 33 33  32 32 32  31 31 31  31 31 31  30 30 30  30 30 30  29 29 29  28 28 28  28 28 28  27 27 27  27 27 27  26 26 26  26 26 26  25 25 25  25 25 25  24 24 24  24 24 24  
144 144 144  172 172 172  178 178 178  178 178 178  175 175 175  170 170 170  166 166 166  161 161 161  157 157 157  152 152 152  148 148 148  145 145 145  141 141 141  138 138 138  135 135 135  133 133 133  130 130 130  128 128 128  126 126 126  124 124 124  122 122 122  120 120 120  118 118 118  116 116 116  114 114 114  113 113 113  111 111 111  109 109 109  108 108 108  106 106 106  105 105 105  103 103 103  102 102 102  101 101 101  99 99 99  98 98 98  97 97 97  96 96 96  94 94 94  93 93 93  92 92 92  91 91 91  90 90 90  88 88 88  87 87 87  86 86 86  85 85 85  84 84 84  83 83 83  82 82 82  81 81 81  80 80 80  79 79 79  78 78 78  77 77 77  76 76 76  75 75 75  74 74 74  73 73 73  72 72 72  71 71 71  71 71 71  70 70 70  69 69 69  68 68 68  67 67 67  66 66 66  65 65 65  64 64 64  63 63 63  63 63 63  62 62 62  61 61 61  60 60 60  59 59 59  58 58 58  58 58 58  57 57 57  56 56 56  55 55 55  54 54 54  54 54 54  53 53 53  52 52 52  51 51 51  51 51 51  50 50 50  49 49 49  48 48 48  48 48 48  47 47 47  46 46 46  46 46 46  45 45 45  44 44 44  43 43 43  43 43 43  42 42 42  41 41 41  41 41 41  40 40 40  40 40 40  39 39 39  38 38 38  38 38 38  37 37 37  36 36 36  36 36 36  35 35 35  34 34 34  34 34 34  33 33 33  33 33 33  32 32 32  31 31 31  31 31 31  30 30 30  29 29 29  29 29 29  28 28 28  28 28 28  27 27 27  26 26 26  26 26 26  25 25 25  25 25 25  24 24 24  24 24 24  
139 139 139  170 170 170  178 178 178  178 178 178  175 175 175  171 171 171  166 166 166  161 161 161  157 157 157  152 152 152  148 148 148  145 145 145  141 141 141  138 138 138  135 135 135  132 132 132  130 130 130  127 127 127  125 125 125  123 123 123  121 121 121  119 119 119  117 117 117  115 115 115  114 114 114  112 112 112  111 111 111  109 109 109  107 107 107  106 106 106  105 105 105  103 103 103  102 102 102  100 100 100  99 99 99  98 98 98  97 97 97  95 95 95  94 94 94  93 93 93  92 92 92  91 91 91  90 90 90  88 88 88  87 87 87  86 86 86  85 85 85  84 84 84  83 83 83  82 82 82  81 81 81  80 80 80  79 79 79  78 78 78  77 77 77  76 76 76  75 75 75  74 74 74  73 73 73  73 73 73  72 72 72  71 71 71  70 70 70  69 69 69  68 68 68  67 67 67  66 66 66  65 65 65  65 65 65  64 64 64  63 63 63  62 62 62  61 61 61  60 60 60  60 60 60  59 59 59  58 58 58  57 57 57  56 56 56  56 56 56  55 55 55  54 54 54  53 53 53  52 52 52  52 52 52  51 51 51  50 50 50  50 50 50  49 49 49  48 48 48  47 47 47  47 47 47  46 46 46  45 45 45  45 45 45  44 44 44  43 43 43  43 43 43  42 42 42  41 41 41  41 41 41  40 40 40  39 39 39  39 39 39  38 38 38  37 37 37  37 37 37  36 36 36  35 35 35  35 35 35  34 34 34  34 34 34  33 33 33  32 32 32  32 32 32  31 31 31  30 30 30  30 30 30  29 29 29  29 29 29  28 28 28  27 27 27  27 27 27  26 26 26  26 26 26  25 25 25  25 25 25  24 24 24  
135 135 135  169 169 169  177 177 177  178 178 178  175 175 175  171 171 171  166 166 166  161 161 161  156 156 156  152 152 152  148 148 148  144 144 144  141 141 141  137 137 137  134 134 134  132 132 132  129 129 129  127 127 127  125 125 125  123 123 123  121 121 121  119 119 119  117 117 117  115 115 115  113 113 113  112 112 112  110 110 110  109 109 109  107 107 107  106 106 106  104 104 104  103 103 103  102 102 102  100 100 100  99 99 99  98 98 98  96 96 96  95 95 95  94 94 94  93 93 93  92 92 92  91 91 91  90 90 90  88 88 88  87 87 87  86 86 86  85 85 85  84 84 84  83 83 83  82 82 82  81 81 81  80 80 80  79 79 79  78 78 78  77 77 77  76 76 76  76 76 76  75 75 75  74 74 74  73 73 73  72 72 72  71 71 71  70 70 70  69 69 69  68 68 68  68 68 68  67 67 67  66 66 66  65 65 65  64 64 64  63 63 63  62 62 62  62 62 62  61 61 61  60 60 60  59 59 59  58 58 58  58 58 58  57 57 57  56 56 56  55 55 55  54 54 54  54 54 54  53 53 53  52 52 52  51 51 51  51 51 51  50 50 50  49 49 49  48 48 48  48 48 48  47 47 47  46 46 46  46 46 46  45 45 45  44 44 44  44 44 44  43 43 43  42 42 42  42 42 42  41 41 41  40 40 40  40 40 40  39 39 39  38 38 38  38 38 38  37 37 37  36 36 36  36 36 36  35 35 35  34 34 34  34 34 34  33 33 33  33 33 33  32 32 32  31 31 31  31 31 31  30 30 30  29 29 29  29 29 29  28 28 28  28 28 28  27 27 27  27 27 27  26 26 26  25 25 25  25 25 25  25 25 25  
132 132 132  168 168 168  177 177 177  177 177 177  175 175 175  170 170 170  165 165 165  161 161 161  156 156 156  151 151 151  147 147 147  144 144 144  140 140 140  137 137 137  134 134 134  131 131 131  129 129 129  126 126 126  124 124 124  122 122 122  120 120 120  118 118 118  116 116 116  115 115 115  113 113 113  111 111 111  110 110 110  108 108 108  107 107 107  106 106 106  104 104 104  103 103 103  101 101 101  100 100 100  99 99 99  98 98 98  96 96 96  95 95 95  94 94 94  93 93 93  92 92 92  91 91 91  90 90 90  88 88 88  87 87 87  86 86 86  85 85 85  84 84 84  83 83 83  82 82 82  81 81 81  80 80 80  79 79 79  79 79 79  78 78 78  77 77 77  76 76 76  75 75 75  74 74 74  73 73 73  72 72 72  71 71 71  70 70 70  70 70 70  69 69 69  68 68 68  67 67 67  66 66 66  65 65 65  64 64 64  64 64 64  63 63 63  62 62 62  61 61 61  60 60 60  59 59 59  59 59 59  58 58 58  57 57 57  56 56 56  55 55 55  55 55 55  54 54 54  53 53 53  52 52 52  52 52 52  51 51 51  50 50 50  49 49 49  49 49 49  48 48 48  47 47 47  47 47 47  46 46 46  45 45 45  45 45 45  44 44 44  43 43 43  43 43 43  42 42 42  41 41 41  41 41 41  40 40 40  39 39 39  39 39 39  38 38 38  37 37 37  37 37 37  36 36 36  35 35 35  35 35 35  34 34 34  33 33 33  33 33 33  32 32 32  32 32 32  31 31 31  30 30 30  30 30 30  29 29 29  29 29 29  28 28 28  27 27 27  27 27 27  26 26 26  26 26 26  25 25 25  25 25 25  
131 131 131  167 167 167  176 176 176  177 177 177  174 174 174  169 169 169  165 165 165  160 160 160  155 155 155  151 151 151  147 147 147  143 143 143  139 139 139  136 136 136  133 133 133  131 131 131  128 128 128  126 126 126  124 124 124  122 122 122  120 120 120  118 118 118  116 116 116  114 114 114  113 113 113  111 111 111  110 110 110  108 108 108  107 107 107  105 105 105  104 104 104  103 103 103  101 101 101  100 100 100  99 99 99  98 98 98  96 96 96  95 95 95  94 94 94  93 93 93  92 92 92  91 91 91  90 90 90  89 89 89  88 88 88  86 86 86  85 85 85  84 84 84  83 83 83  83 83 83  82 82 82  81 81 81  80 80 80  79 79 79  78 78 78  77 77 77  76 76 76  75 75 75  74 74 74  73 73 73  72 72 72  72 72 72  71 71 71  70 70 70  69 69 69  68 68 68  67 67 67  66 66 66  66 66 66  65 65 65  64 64 64  63 63 63  62 62 62  61 61 61  61 61 61  60 60 60  59 59 59  58 58 58  57 57 57  57 57 57  56 56 56  55 55 55  54 54 54  53 53 53  53 53 53  52 52 52  51 51 51  50 50 50  50 50 50  49 49 49  48 48 48  48 48 48  47 47 47  46 46 46  46 46 46  45 45 45  44 44 44  43 43 43  43 43 43  42 42 42  41 41 41  41 41 41  40 40 40  40 40 40  39 39 39  38 38 38  38 38 38  37 37 37  36 36 36  36 36 36  35 35 35  34 34 34  34 34 34  33 33 33  32 32 32  32 32 32  31 31 31  31 31 31  30 30 30  29 29 29  29 29 29  28 28 28  28 28 28  27 27 27  26 26 26  26 26 26  25 25 25  25 25 25  
132 132 132  166 166 166  175 175 175  176 176 176  173 173 173  168 168 168  164 164 164  159 159 159  154 154 154  150 150 150  146 146 146  142 142 142  139 139 139  136 136 136  133 133 133  130 130 130  128 128 128  125 125 125  123 123 123  121 121 121  119 119 119  118 118 118  116 116 116  114 114 114  113 113 113  111 111 111  110 110 110  108 108 108  107 107 107  105 105 105  104 104 104  103 103 103  101 101 101  100 100 100  99 99 99  98 98 98  96 96 96  95 95 95  94 94 94  93 93 93  92 92 92  91 91 91  90 90 90  89 89 89  88 88 88  87 87 87  86 86 86  85 85 85  84 84 84  83 83 83  82 82 82  81 81 81  80 80 80  79 79 79  78 78 78  77 77 77  76 76 76  75 75 75  74 74 74  74 74 74  73 73 73  72 72 72  71 71 71  70 70 70  69 69 69  68 68 68  67 67 67  67 67 67  66 66 66  65 65 65  64 64 64  63 63 63  62 62 62  62 62 62  61 61 61  60 60 60  59 59 59  58 58 58  58 58 58  57 57 57  56 56 56  55 55 55  54 54 54  54 54 54  53 53 53  52 52 52  51 51 51  51 51 51  50 50 50  49 49 49  49 49 49  48 48 48  47 47 47  46 46 46  46 46 46  45 45 45  44 44 44  44 44 44  43 43 43  42 42 42  42 42 42  41 41 41  40 40 40  40 40 40  39 39 39  38 38 38  38 38 38  37 37 37  37 37 37  36 36 36  35 35 35  35 35 35  34 34 34  33 33 33  33 33 33  32 32 32  31 31 31  31 31 31  30 30 30  30 30 30  29 29 29  28 28 28  28 28 28  27 27 27  27 27 27  26 26 26  26 26 26  25 25 25  
134 134 134  166 166 166  174 174 174  174 174 174  171 171 171  167 167 167  162 162 162  157 157 157  153 153 153  149 149 149  145 145 145  141 141 141  138 138 138  135 135 135  132 132 132  130 130 130  127 127 127  125 125 125  123 123 123  121 121 121  119 119 119  117 117 117  116 116 116  114 114 114  113 113 113  111 111 111  110 110 110  108 108 108  107 107 107  105 105 105  104 104 104  103 103 103  101 101 101  100 100 100  99 99 99  98 98 98  97 97 97  96 96 96  94 94 94  93 93 93  92 92 92  91 91 91  90 90 90  89 89 89  88 88 88  87 87 87  86 86 86  85 85 85  84 84 84  83 83 83  82 82 82  81 81 81  80 80 80  79 79 79  78 78 78  77 77 77  76 76 76  76 76 76  75 75 75  74 74 74  73 73 73  72 72 72  71 71 71  70 70 70  69 69 69  69 69 69  68 68 68  67 67 67  66 66 66  65 65 65  64 64 64  64 64 64  63 63 63  62 62 62  61 61 61  60 60 60  59 59 59  59 59 59  58 58 58  57 57 57  56 56 56  55 55 55  55 55 55  54 54 54  53 53 53  52 52 52  52 52 52  51 51 51  50 50 50  49 49 49  49 49 49  48 48 48  47 47 47  47 47 47  46 46 46  45 45 45  45 45 45  44 44 44  43 43 43  43 43 43  42 42 42  41 41 41  41 41 41  40 40 40  39 39 39  39 39 39  38 38 38  37 37 37  37 37 37  36 36 36  35 35 35  35 35 35  34 34 34  33 33 33  33 33 33  32 32 32  32 32 32  31 31 31  30 30 30  30 30 30  29 29 29  28 28 28  28 28 28  27 27 27  27 27 27  26 26 26  26 26 26  25 25 25  
138 138 138  166 166 166  172 172 172  172 172 172  169 169 169  165 165 165  160 160 160  156 156 156  151 151 151  147 147 147  143 143 143  140 140 140  137 137 137  134 134 134  131 131 131  129 129 129  127 127 127  125 125 125  123 123 123  121 121 121  119 119 119  117 117 117  116 116 116  114 114 114  113 113 113  111 111 111  110 110 110  108 108 108  107 107 107  106 106 106  104 104 104  103 103 103  102 102 102  100 100 100  99 99 99  98 98 98  97 97 97  96 96 96  95 95 95  94 94 94  92 92 92  91 91 91  90 90 90  89 89 89  88 88 88  87 87 87  86 86 86  85 85 85  84 84 84  83 83 83  82 82 82  81 81 81  80 80 80  79 79 79  79 79 79  78 78 78  77 77 77  76 76 76  75 75 75  74 74 74  73 73 73  72 72 72  71 71 71  71 71 71  70 70 70  69 69 69  68 68 68  67 67 67  66 66 66  65 65 65  65 65 65  64 64 64  63 63 63  62 62 62  61 61 61  60 60 60  60 60 60  59 59 59  58 58 58  57 57 57  56 56 56  56 56 56  55 55 55  54 54 54  53 53 53  53 53 53  52 52 52  51 51 51  50 50 50  50 50 50  49 49 49  48 48 48  48 48 48  47 47 47  46 46 46  45 45 45  45 45 45  44 44 44  43 43 43  43 43 43  42 42 42  41 41 41  41 41 41  40 40 40  39 39 39  39 39 39  38 38 38  37 37 37  37 37 37  36 36 36  35 35 35  35 35 35  34 34 34  34 34 34  33 33 33  32 32 32  32 32 32  31 31 31  30 30 30  30 30 30  29 29 29  29 29 29  28 28 28  27 27 27  27 27 27  26 26 26  26 26 26  25 25 25  
143 143 143  166 166 166  171 171 171  170 170 170  166 166 166  162 162 162  158 158 158  153 153 153  149 149 149  146 146 146  142 142 142  139 139 139  136 136 136  133 133 133  131 131 131  128 128 128  126 126 126  124 124 124  122 122 122  121 121 121  119 119 119  117 117 117  116 116 116  114 114 114  113 113 113  111 111 111  110 110 110  108 108 108  107 107 107  106 106 106  104 104 104  103 103 103  102 102 102  101 101 101  100 100 100  98 98 98  97 97 97  96 96 96  95 95 95  94 94 94  93 93 93  92 92 92  91 91 91  90 90 90  89 89 89  88 88 88  87 87 87  86 86 86  85 85 85  84 84 84  83 83 83  82 82 82  81 81 81  80 80 80  79 79 79  78 78 78  77 77 77  76 76 76  75 75 75  74 74 74  73 73 73  73 73 73  72 72 72  71 71 71  70 70 70  69 69 69  68 68 68  67 67 67  66 66 66  66 66 66  65 65 65  64 64 64  63 63 63  62 62 62  61 61 61  61 61 61  60 60 60  59 59 59  58 58 58  57 57 57  57 57 57  56 56 56  55 55 55  54 54 54  54 54 54  53 53 53  52 52 52  51 51 51  51 51 51  50 50 50  49 49 49  48 48 48  48 48 48  47 47 47  46 46 46  46 46 46  45 45 45  44 44 44  43 43 43  43 43 43  42 42 42  41 41 41  41 41 41  40 40 40  39 39 39  39 39 39  38 38 38  38 38 38  37 37 37  36 36 36  36 36 36  35 35 35  34 34 34  34 34 34  33 33 33  32 32 32  32 32 32  31 31 31  30 30 30  30 30 30  29 29 29  29 29 29  28 28 28  27 27 27  27 27 27  26 26 26  26 26 26  25 25 25  
150 150 150  167 167 167  169 169 169  167 167 167  163 163 163  159 159 159  155 155 155  151 151 151  147 147 147  144 144 144  141 141 141  138 138 138  135 135 135  132 132 132  130 130 130  128 128 128  126 126 126  124 124 124  122 122 122  120 120 120  119 119 119  117 117 117  116 116 116  114 114 114  113 113 113  111 111 111  110 110 110  109 109 109  107 107 107  106 106 106  105 105 105  103 103 103  102 102 102  101 101 101  100 100 100  99 99 99  98 98 98  96 96 96  95 95 95  94 94 94  93 93 93  92 92 92  91 91 91  90 90 90  89 89 89  88 88 88  87 87 87  86 86 86  85 85 85  84 84 84  83 83 83  82 82 82  81 81 81  80 80 80  79 79 79  78 78 78  77 77 77  76 76 76  75 75 75  75 75 75  74 74 74  73 73 73  72 72 72  71 71 71  70 70 70  69 69 69  68 68 68  68 68 68  67 67 67  66 66 66  65 65 65  64 64 64  63 63 63  62 62 62  62 62 62  61 61 61  60 60 60  59 59 59  58 58 58  58 58 58  57 57 57  56 56 56  55 55 55  54 54 54  54 54 54  53 53 53  52 52 52  51 51 51  51 51 51  50 50 50  49 49 49  48 48 48  48 48 48  47 47 47  46 46 46  46 46 46  45 45 45  44 44 44  44 44 44  43 43 43  42 42 42  42 42 42  41 41 41  40 40 40  40 40 40  39 39 39  38 38 38  38 38 38  37 37 37  36 36 36  36 36 36  35 35 35  34 34 34  34 34 34  33 33 33  32 32 32  32 32 32  31 31 31  30 30 30  30 30 30  29 29 29  29 29 29  28 28 28  27 27 27  27 27 27  26 26 26  26 26 26  25 25 25  
158 158 158  167 167 167  167 167 167  164 164 164  160 160 160  156 156 156  152 152 152  149 149 149  145 145 145  142 142 142  139 139 139  136 136 136  134 134 134  131 131 131  129 129 129  127 127 127  125 125 125  123 123 123  122 122 122  120 120 120  119 119 119  117 117 117  116 116 116  114 114 114  113 113 113  111 111 111  110 110 110  109 109 109  108 108 108  106 106 106  105 105 105  104 104 104  103 103 103  101 101 101  100 100 100  99 99 99  98 98 98  97 97 97  96 96 96  95 95 95  94 94 94  92 92 92  91 91 91  90 90 90  89 89 89  88 88 88  87 87 87  86 86 86  85 85 85  84 84 84  83 83 83  82 82 82  81 81 81  80 80 80  80 80 80  79 79 79  78 78 78  77 77 77  76 76 76  75 75 75  74 74 74  73 73 73  72 72 72  71 71 71  70 70 70  69 69 69  69 69 69  68 68 68  67 67 67  66 66 66  65 65 65  64 64 64  63 63 63  63 63 63  62 62 62  61 61 61  60 60 60  59 59 59  59 59 59  58 58 58  57 57 57  56 56 56  55 55 55  55 55 55  54 54 54  53 53 53  52 52 52  52 52 52  51 51 51  50 50 50  49 49 49  49 49 49  48 48 48  47 47 47  46 46 46  46 46 46  45 45 45  44 44 44  44 44 44  43 43 43  42 42 42  42 42 42  41 41 41  40 40 40  40 40 40  39 39 39  38 38 38  38 38 38  37 37 37  36 36 36  36 36 36  35 35 35  34 34 34  34 34 34  33 33 33  32 32 32  32 32 32  31 31 31  30 30 30  30 30 30  29 29 29  29 29 29  28 28 28  27 27 27  27 27 27  26 26 26  26 26 26  25 25 25  
167 167 167  168 168 168  165 165 165  161 161 161  157 157 157  153 153 153  149 149 149  146 146 146  143 143 143  140 140 140  137 137 137  135 135 135  132 132 132  130 130 130  128 128 128  127 127 127  125 125 125  123 123 123  122 122 122  120 120 120  119 119 119  117 117 117  116 116 116  114 114 114  113 113 113  112 112 112  110 110 110  109 109 109  108 108 108  107 107 107  105 105 105  104 104 104  103 103 103  102 102 102  101 101 101  100 100 100  98 98 98  97 97 97  96 96 96  95 95 95  94 94 94  93 93 93  92 92 92  91 91 91  90 90 90  89 89 89  88 88 88  87 87 87  86 86 86  85 85 85  84 84 84  83 83 83  82 82 82  81 81 81  80 80 80  79 79 79  78 78 78  77 77 77  76 76 76  75 75 75  74 74 74  73 73 73  72 72 72  72 72 72  71 71 71  70 70 70  69 69 69  68 68 68  67 67 67  66 66 66  65 65 65  65 65 65  64 64 64  63 63 63  62 62 62  61 61 61  60 60 60  59 59 59  59 59 59  58 58 58  57 57 57  56 56 56  55 55 55  55 55 55  54 54 54  53 53 53  52 52 52  52 52 52  51 51 51  50 50 50  49 49 49  49 49 49  48 48 48  47 47 47  46 46 46  46 46 46  45 45 45  44 44 44  44 44 44  43 43 43  42 42 42  42 42 42  41 41 41  40 40 40  40 40 40  39 39 39  38 38 38  38 38 38  37 37 37  36 36 36  36 36 36  35 35 35  34 34 34  34 34 34  33 33 33  32 32 32  32 32 32  31 31 31  30 30 30  30 30 30  29 29 29  29 29 29  28 28 28  27 27 27  27 27 27  26 26 26  26 26 26  25 25 25  
176 176 176  169 169 169  163 163 163  158 158 158  154 154 154  150 150 150  146 146 146  143 143 143  140 140 140  138 138 138  135 135 135  133 133 133  131 131 131  129 129 129  128 128 128  126 126 126  124 124 124  123 123 123  121 121 121  120 120 120  118 118 118  117 117 117  116 116 116  114 114 114  113 113 113  112 112 112  111 111 111  109 109 109  108 108 108  107 107 107  106 106 106  105 105 105  103 103 103  102 102 102  101 101 101  100 100 100  99 99 99  98 98 98  97 97 97  96 96 96  95 95 95  93 93 93  92 92 92  91 91 91  90 90 90  89 89 89  88 88 88  87 87 87  86 86 86  85 85 85  84 84 84  83 83 83  82 82 82  81 81 81  80 80 80  79 79 79  78 78 78  77 77 77  76 76 76  75 75 75  74 74 74  74 74 74  73 73 73  72 72 72  71 71 71  70 70 70  69 69 69  68 68 68  67 67 67  66 66 66  66 66 66  65 65 65  64 64 64  63 63 63  62 62 62  61 61 61  60 60 60  60 60 60  59 59 59  58 58 58  57 57 57  56 56 56  56 56 56  55 55 55  54 54 54  53 53 53  52 52 52  52 52 52  51 51 51  50 50 50  49 49 49  49 49 49  48 48 48  47 47 47  47 47 47  46 46 46  45 45 45  44 44 44  44 44 44  43 43 43  42 42 42  42 42 42  41 41 41  40 40 40  40 40 40  39 39 39  38 38 38  38 38 38  37 37 37  36 36 36  36 36 36  35 35 35  34 34 34  34 34 34  33 33 33  32 32 32  32 32 32  31 31 31  30 30 30  30 30 30  29 29 29  29 29 29  28 28 28  27 27 27  27 27 27  26 26 26  26 26 26  25 25 25  
185 185 185  170 170 170  161 161 161  155 155 155  150 150 150  146 146 146  143 143 143  140 140 140  138 138 138  136 136 136  134 134 134  132 132 132  130 130 130  128 128 128  127 127 127  125 125 125  124 124 124  122 122 122  121 121 121  120 120 120  118 118 118  117 117 117  116 116 116  115 115 115  113 113 113  112 112 112  111 111 111  110 110 110  109 109 109  107 107 107  106 106 106  105 105 105  104 104 104  103 103 103  102 102 102  100 100 100  99 99 99  98 98 98  97 97 97  96 96 96  95 95 95  94 94 94  93 93 93  92 92 92  91 91 91  90 90 90  89 89 89  88 88 88  87 87 87  86 86 86  85 85 85  84 84 84  83 83 83  82 82 82  81 81 81  80 80 80  79 79 79  78 78 78  77 77 77  76 76 76  75 75 75  74 74 74  73 73 73  72 72 72  71 71 71  70 70 70  69 69 69  68 68 68  67 67 67  67 67 67  66 66 66  65 65 65  64 64 64  63 63 63  62 62 62  61 61 61  61 61 61  60 60 60  59 59 59  58 58 58  57 57 57  57 57 57  56 56 56  55 55 55  54 54 54  53 53 53  53 53 53  52 52 52  51 51 51  50 50 50  50 50 50  49 49 49  48 48 48  47 47 47  47 47 47  46 46 46  45 45 45  44 44 44  44 44 44  43 43 43  42 42 42  42 42 42  41 41 41  40 40 40  39 39 39  39 39 39  38 38 38  37 37 37  37 37 37  36 36 36  36 36 36  35 35 35  34 34 34  34 34 34  33 33 33  32 32 32  32 32 32  31 31 31  30 30 30  30 30 30  29 29 29  29 29 29  28 28 28  27 27 27  27 27 27  26 26 26  26 26 26  25 25 25  
194 194 194  171 171 171  160 160 160  152 152 152  147 147 147  143 143 143  140 140 140  137 137 137  135 135 135  133 133 133  132 132 132  130 130 130  129 129 129  127 127 127  126 126 126  125 125 125  123 123 123  122 122 122  121 121 121  120 120 120  118 118 118  117 117 117  116 116 116  115 115 115  114 114 114  112 112 112  111 111 111  110 110 110  109 109 109  108 108 108  107 107 107  105 105 105  104 104 104  103 103 103  102 102 102  101 101 101  100 100 100  99 99 99  98 98 98  97 97 97  95 95 95  94 94 94  93 93 93  92 92 92  91 91 91  90 90 90  89 89 89  88 88 88  87 87 87  86 86 86  85 85 85  84 84 84  83 83 83  82 82 82  81 81 81  80 80 80  79 79 79  78 78 78  77 77 77  76 76 76  75 75 75  74 74 74  73 73 73  72 72 72  71 71 71  70 70 70  69 69 69  69 69 69  68 68 68  67 67 67  66 66 66  65 65 65  64 64 64  63 63 63  62 62 62  62 62 62  61 61 61  60 60 60  59 59 59  58 58 58  57 57 57  57 57 57  56 56 56  55 55 55  54 54 54  53 53 53  53 53 53  52 52 52  51 51 51  50 50 50  50 50 50  49 49 49  48 48 48  47 47 47  47 47 47  46 46 46  45 45 45  44 44 44  44 44 44  43 43 43  42 42 42  42 42 42  41 41 41  40 40 40  39 39 39  39 39 39  38 38 38  37 37 37  37 37 37  36 36 36  35 35 35  35 35 35  34 34 34  34 34 34  33 33 33  32 32 32  32 32 32  31 31 31  30 30 30  30 30 30  29 29 29  29 29 29  28 28 28  27 27 27  27 27 27  26 26 26  26 26 26  25 25 25  
202 202 202  172 172 172  158 158 158  149 149 149  144 144 144  140 140 140  137 137 137  135 135 135  133 133 133  132 132 132  130 130 130  129 129 129  128 128 128  126 126 126  125 125 125  124 124 124  123 123 123  122 122 122  121 121 121  119 119 119  118 118 118  117 117 117  116 116 116  115 115 115  114 114 114  112 112 112  111 111 111  110 110 110  109 109 109  108 108 108  107 107 107  106 106 106  105 105 105  103 103 103  102 102 102  101 101 101  100 100 100  99 99 99  98 98 98  97 97 97  96 96 96  95 95 95  94 94 94  93 93 93  92 92 92  90 90 90  89 89 89  88 88 88  87 87 87  86 86 86  85 85 85  84 84 84  83 83 83  82 82 82  81 81 81  80 80 80  79 79 79  78 78 78  77 77 77  76 76 76  75 75 75  74 74 74  73 73 73  72 72 72  72 72 72  71 71 71  70 70 70  69 69 69  68 68 68  67 67 67  66 66 66  65 65 65  64 64 64  63 63 63  63 63 63  62 62 62  61 61 61  60 60 60  59 59 59  58 58 58  58 58 58  57 57 57  56 56 56  55 55 55  54 54 54  54 54 54  53 53 53  52 52 52  51 51 51  50 50 50  50 50 50  49 49 49  48 48 48  47 47 47  47 47 47  46 46 46  45 45 45  44 44 44  44 44 44  43 43 43  42 42 42  42 42 42  41 41 41  40 40 40  40 40 40  39 39 39  38 38 38  37 37 37  37 37 37  36 36 36  35 35 35  35 35 35  34 34 34  34 34 34  33 33 33  32 32 32  32 32 32  31 31 31  30 30 30  30 30 30  29 29 29  29 29 29  28 28 28  27 27 27  27 27 27  26 26 26  26 26 26  25 25 25  
208 208 208  173 173 173  157 157 157  147 147 147  141 141 141  138 138 138  135 135 135  133 133 133  131 131 131  130 130 130  129 129 129  128 128 128  127 127 127  126 126 126  124 124 124  123 123 123  122 122 122  121 121 121  120 120 120  119 119 119  118 118 118  117 117 117  116 116 116  115 115 115  114 114 114  113 113 113  111 111 111  110 110 110  109 109 109  108 108 108  107 107 107  106 106 106  105 105 105  104 104 104  103 103 103  102 102 102  100 100 100  99 99 99  98 98 98  97 97 97  96 96 96  95 95 95  94 94 94  93 93 93  92 92 92  91 91 91  90 90 90  89 89 89  88 88 88  87 87 87  86 86 86  85 85 85  83 83 83  82 82 82  81 81 81  80 80 80  79 79 79  78 78 78  77 77 77  76 76 76  76 76 76  75 75 75  74 74 74  73 73 73  72 72 72  71 71 71  70 70 70  69 69 69  68 68 68  67 67 67  66 66 66  65 65 65  65 65 65  64 64 64  63 63 63  62 62 62  61 61 61  60 60 60  59 59 59  59 59 59  58 58 58  57 57 57  56 56 56  55 55 55  54 54 54  54 54 54  53 53 53  52 52 52  51 51 51  51 51 51  50 50 50  49 49 49  48 48 48  48 48 48  47 47 47  46 46 46  45 45 45  45 45 45  44 44 44  43 43 43  42 42 42  42 42 42  41 41 41  40 40 40  40 40 40  39 39 39  38 38 38  38 38 38  37 37 37  36 36 36  36 36 36  35 35 35  34 34 34  34 34 34  33 33 33  32 32 32  32 32 32  31 31 31  30 30 30  30 30 30  29 29 29  29 29 29  28 28 28  27 27 27  27 27 27  26 26 26  26 26 26  25 25 25  
212 212 212  173 173 173  156 156 156  146 146 146  140 140 140  136 136 136  133 133 133  131 131 131  130 130 130  129 129 129  128 128 128  127 127 127  126 126 126  125 125 125  124 124 124  123 123 123  122 122 122  121 121 121  120 120 120  119 119 119  118 118 118  117 117 117  116 116 116  115 115 115  114 114 114  113 113 113  111 111 111  110 110 110  109 109 109  108 108 108  107 107 107  106 106 106  105 105 105  104 104 104  103 103 103  102 102 102  101 101 101  100 100 100  98 98 98  97 97 97  96 96 96  95 95 95  94 94 94  93 93 93  92 92 92  91 91 91  90 90 90  89 89 89  88 88 88  87 87 87  86 86 86  85 85 85  84 84 84  83 83 83  82 82 82  81 81 81  80 80 80  79 79 79  78 78 78  77 77 77  76 76 76  75 75 75  74 74 74  73 73 73  72 72 72  71 71 71  70 70 70  69 69 69  68 68 68  67 67 67  66 66 66  66 66 66  65 65 65  64 64 64  63 63 63  62 62 62  61 61 61  60 60 60  60 60 60  59 59 59  58 58 58  57 57 57  56 56 56  55 55 55  55 55 55  54 54 54  53 53 53  52 52 52  52 52 52  51 51 51  50 50 50  49 49 49  48 48 48  48 48 48  47 47 47  46 46 46  45 45 45  45 45 45  44 44 44  43 43 43  43 43 43  42 42 42  41 41 41  40 40 40  40 40 40  39 39 39  38 38 38  38 38 38  37 37 37  36 36 36  36 36 36  35 35 35  34 34 34  34 34 34  33 33 33  32 32 32  32 32 32  31 31 31  31 31 31  30 30 30  29 29 29  29 29 29  28 28 28  28 28 28  27 27 27  26 26 26  26 26 26  25 25 25  
213 213 213  173 173 173  155 155 155  145 145 145  139 139 139  135 135 135  132 132 132  130 130 130  129 129 129  128 128 128  127 127 127  126 126 126  125 125 125  124 124 124  123 123 123  122 122 122  121 121 121  120 120 120  119 119 119  118 118 118  117 117 117  116 116 116  115 115 115  114 114 114  113 113 113  112 112 112  111 111 111  110 110 110  109 109 109  108 108 108  107 107 107  106 106 106  105 105 105  104 104 104  103 103 103  102 102 102  101 101 101  100 100 100  99 99 99  97 97 97  96 96 96  95 95 95  94 94 94  93 93 93  92 92 92  91 91 91  90 90 90  89 89 89  88 88 88  87 87 87  86 86 86  85 85 85  84 84 84  83 83 83  82 82 82  81 81 81  80 80 80  79 79 79  78 78 78  77 77 77  76 76 76  75 75 75  74 74 74  73 73 73  72 72 72  71 71 71  70 70 70  69 69 69  68 68 68  68 68 68  67 67 67  66 66 66  65 65 65  64 64 64  63 63 63  62 62 62  61 61 61  61 61 61  60 60 60  59 59 59  58 58 58  57 57 57  57 57 57  56 56 56  55 55 55  54 54 54  53 53 53  53 53 53  52 52 52  51 51 51  50 50 50  49 49 49  49 49 49  48 48 48  47 47 47  46 46 46  46 46 46  45 45 45  44 44 44  43 43 43  43 43 43  42 42 42  41 41 41  41 41 41  40 40 40  39 39 39  39 39 39  38 38 38  37 37 37  36 36 36  36 36 36  35 35 35  35 35 35  34 34 34  33 33 33  33 33 33  32 32 32  31 31 31  31 31 31  30 30 30  30 30 30  29 29 29  28 28 28  28 28 28  27 27 27  26 26 26  26 26 26  25 25 25  
211 211 211  173 173 173  155 155 155  145 145 145  139 139 139  135 135 135  132 132 132  130 130 130  129 129 129  128 128 128  127 127 127  126 126 126  125 125 125  124 124 124  123 123 123  122 122 122  121 121 121  120 120 120  119 119 119  118 118 118  117 117 117  116 116 116  115 115 115  114 114 114  113 113 113  112 112 112  111 111 111  110 110 110  109 109 109  108 108 108  107 107 107  106 106 106  105 105 105  104 104 104  103 103 103  102 102 102  101 101 101  100 100 100  98 98 98  97 97 97  96 96 96  95 95 95  94 94 94  93 93 93  92 92 92  91 91 91  90 90 90  89 89 89  88 88 88  87 87 87  86 86 86  85 85 85  84 84 84  83 83 83  82 82 82  81 81 81  80 80 80  79 79 79  78 78 78  77 77 77  76 76 76  75 75 75  74 74 74  73 73 73  72 72 72  71 71 71  71 71 71  70 70 70  69 69 69  68 68 68  67 67 67  66 66 66  65 65 65  64 64 64  63 63 63  63 63 63  62 62 62  61 61 61  60 60 60  59 59 59  58 58 58  58 58 58  57 57 57  56 56 56  55 55 55  54 54 54  54 54 54  53 53 53  52 52 52  51 51 51  50 50 50  50 50 50  49 49 49  48 48 48  47 47 47  47 47 47  46 46 46  45 45 45  44 44 44  44 44 44  43 43 43  42 42 42  42 42 42  41 41 41  40 40 40  39 39 39  39 39 39  38 38 38  37 37 37  37 37 37  36 36 36  35 35 35  35 35 35  34 34 34  34 34 34  33 33 33  32 32 32  32 32 32  31 31 31  30 30 30  30 30 30  29 29 29  29 29 29  28 28 28  27 27 27  27 27 27  26 26 26  25 25 25  
205 205 205  172 172 172  155 155 155  146 146 146  140 140 140  136 136 136  133 133 133  131 131 131  129 129 129  128 128 128  127 127 127  125 125 125  124 124 124  123 123 123  122 122 122  121 121 121  120 120 120  119 119 119  119 119 119  118 118 118  117 117 117  116 116 116  115 115 115  114 114 114  113 113 113  112 112 112  111 111 111  109 109 109  108 108 108  107 107 107  106 106 106  105 105 105  104 104 104  103 103 103  102 102 102  101 101 101  100 100 100  99 99 99  98 98 98  97 97 97  96 96 96  95 95 95  94 94 94  93 93 93  92 92 92  91 91 91  90 90 90  89 89 89  88 88 88  87 87 87  86 86 86  85 85 85  84 84 84  83 83 83  82 82 82  81 81 81  80 80 80  79 79 79  78 78 78  77 77 77  76 76 76  75 75 75  74 74 74  73 73 73  73 73 73  72 72 72  71 71 71  70 70 70  69 69 69  68 68 68  67 67 67  66 66 66  65 65 65  65 65 65  64 64 64  63 63 63  62 62 62  61 61 61  60 60 60  60 60 60  59 59 59  58 58 58  57 57 57  56 56 56  56 56 56  55 55 55  54 54 54  53 53 53  52 52 52  52 52 52  51 51 51  50 50 50  49 49 49  49 49 49  48 48 48  47 47 47  46 46 46  46 46 46  45 45 45  44 44 44  43 43 43  43 43 43  42 42 42  41 41 41  41 41 41  40 40 40  39 39 39  38 38 38  38 38 38  37 37 37  36 36 36  36 36 36  35 35 35  34 34 34  34 34 34  33 33 33  33 33 33  32 32 32  31 31 31  31 31 31  30 30 30  29 29 29  29 29 29  28 28 28  28 28 28  27 27 27  26 26 26  26 26 26  
196 196 196  170 170 170  156 156 156  148 148 148  142 142 142  138 138 138  135 135 135  132 132 132  130 130 130  129 129 129  127 127 127  126 126 126  125 125 125  123 123 123  122 122 122  121 121 121  120 120 120  119 119 119  118 118 118  117 117 117  116 116 116  115 115 115  114 114 114  113 113 113  112 112 112  111 111 111  110 110 110  109 109 109  108 108 108  107 107 107  106 106 106  105 105 105  104 104 104  103 103 103  102 102 102  101 101 101  100 100 100  99 99 99  98 98 98  97 97 97  96 96 96  95 95 95  94 94 94  93 93 93  92 92 92  91 91 91  90 90 90  89 89 89  88 88 88  87 87 87  86 86 86  85 85 85  84 84 84  83 83 83  82 82 82  81 81 81  80 80 80  79 79 79  78 78 78  77 77 77  76 76 76  76 76 76  75 75 75  74 74 74  73 73 73  72 72 72  71 71 71  70 70 70  69 69 69  68 68 68  67 67 67  67 67 67  66 66 66  65 65 65  64 64 64  63 63 63  62 62 62  62 62 62  61 61 61  60 60 60  59 59 59  58 58 58  57 57 57  57 57 57  56 56 56  55 55 55  54 54 54  54 54 54  53 53 53  52 52 52  51 51 51  50 50 50  50 50 50  49 49 49  48 48 48  47 47 47  47 47 47  46 46 46  45 45 45  45 45 45  44 44 44  43 43 43  42 42 42  42 42 42  41 41 41  40 40 40  40 40 40  39 39 39  38 38 38  38 38 38  37 37 37  36 36 36  36 36 36  35 35 35  34 34 34  34 34 34  33 33 33  32 32 32  32 32 32  31 31 31  30 30 30  30 30 30  29 29 29  29 29 29  28 28 28  27 27 27  27 27 27  26 26 26  
182 182 182  167 167 167  158 158 158  151 151 151  145 145 145  141 141 141  138 138 138  135 135 135  132 132 132  130 130 130  128 128 128  127 127 127  125 125 125  124 124 124  122 122 122  121 121 121  120 120 120  118 118 118  117 117 117  116 116 116  115 115 115  114 114 114  113 113 113  112 112 112  111 111 111  110 110 110  109 109 109  108 108 108  107 107 107  106 106 106  105 105 105  104 104 104  103 103 103  102 102 102  101 101 101  100 100 100  99 99 99  98 98 98  97 97 97  96 96 96  95 95 95  94 94 94  93 93 93  92 92 92  91 91 91  90 90 90  89 89 89  89 89 89  88 88 88  87 87 87  86 86 86  85 85 85  84 84 84  83 83 83  82 82 82  81 81 81  80 80 80  79 79 79  78 78 78  77 77 77  77 77 77  76 76 76  75 75 75  74 74 74  73 73 73  72 72 72  71 71 71  70 70 70  70 70 70  69 69 69  68 68 68  67 67 67  66 66 66  65 65 65  64 64 64  64 64 64  63 63 63  62 62 62  61 61 61  60 60 60  60 60 60  59 59 59  58 58 58  57 57 57  56 56 56  56 56 56  55 55 55  54 54 54  53 53 53  52 52 52  52 52 52  51 51 51  50 50 50  49 49 49  49 49 49  48 48 48  47 47 47  47 47 47  46 46 46  45 45 45  44 44 44  44 44 44  43 43 43  42 42 42  42 42 42  41 41 41  40 40 40  39 39 39  39 39 39  38 38 38  37 37 37  37 37 37  36 36 36  35 35 35  35 35 35  34 34 34  33 33 33  33 33 33  32 32 32  32 32 32  31 31 31  30 30 30  30 30 30  29 29 29  28 28 28  28 28 28  27 27 27  27 27 27  
165 165 165  164 164 164  160 160 160  155 155 155  150 150 150  145 145 145  141 141 141  138 138 138  135 135 135  132 132 132  130 130 130  128 128 128  126 126 126  124 124 124  122 122 122  121 121 121  119 119 119  118 118 118  117 117 117  115 115 115  114 114 114  113 113 113  112 112 112  111 111 111  110 110 110  109 109 109  108 108 108  107 107 107  106 106 106  105 105 105  104 104 104  103 103 103  102 102 102  101 101 101  100 100 100  99 99 99  98 98 98  97 97 97  96 96 96  95 95 95  95 95 95  94 94 94  93 93 93  92 92 92  91 91 91  90 90 90  89 89 89  88 88 88  87 87 87  86 86 86  85 85 85  85 85 85  84 84 84  83 83 83  82 82 82  81 81 81  80 80 80  79 79 79  78 78 78  77 77 77  77 77 77  76 76 76  75 75 75  74 74 74  73 73 73  72 72 72  71 71 71  71 71 71  70 70 70  69 69 69  68 68 68  67 67 67  66 66 66  66 66 66  65 65 65  64 64 64  63 63 63  62 62 62  62 62 62  61 61 61  60 60 60  59 59 59  58 58 58  58 58 58  57 57 57  56 56 56  55 55 55  54 54 54  54 54 54  53 53 53  52 52 52  51 51 51  51 51 51  50 50 50  49 49 49  49 49 49  48 48 48  47 47 47  46 46 46  46 46 46  45 45 45  44 44 44  44 44 44  43 43 43  42 42 42  41 41 41  41 41 41  40 40 40  39 39 39  39 39 39  38 38 38  37 37 37  37 37 37  36 36 36  35 35 35  35 35 35  34 34 34  33 33 33  33 33 33  32 32 32  31 31 31  31 31 31  30 30 30  30 30 30  29 29 29  28 28 28  28 28 28  27 27 27  
146 146 146  161 161 161  162 162 162  159 159 159  155 155 155  150 150 150  146 146 146  141 141 141  138 138 138  134 134 134  131 131 131  129 129 129  126 126 126  124 124 124  122 122 122  121 121 121  119 119 119  117 117 117  116 116 116  115 115 115  113 113 113  112 112 112  111 111 111  110 110 110  109 109 109  108 108 108  107 107 107  106 106 106  105 105 105  104 104 104  103 103 103  102 102 102  101 101 101  100 100 100  99 99 99  98 98 98  97 97 97  96 96 96  96 96 96  95 95 95  94 94 94  93 93 93  92 92 92  91 91 91  90 90 90  89 89 89  89 89 89  88 88 88  87 87 87  86 86 86  85 85 85  84 84 84  83 83 83  83 83 83  82 82 82  81 81 81  80 80 80  79 79 79  78 78 78  78 78 78  77 77 77  76 76 76  75 75 75  74 74 74  73 73 73  73 73 73  72 72 72  71 71 71  70 70 70  69 69 69  68 68 68  68 68 68  67 67 67  66 66 66  65 65 65  64 64 64  64 64 64  63 63 63  62 62 62  61 61 61  60 60 60  60 60 60  59 59 59  58 58 58  57 57 57  57 57 57  56 56 56  55 55 55  54 54 54  54 54 54  53 53 53  52 52 52  51 51 51  51 51 51  50 50 50  49 49 49  48 48 48  48 48 48  47 47 47  46 46 46  46 46 46  45 45 45  44 44 44  44 44 44  43 43 43  42 42 42  41 41 41  41 41 41  40 40 40  39 39 39  39 39 39  38 38 38  37 37 37  37 37 37  36 36 36  35 35 35  35 35 35  34 34 34  33 33 33  33 33 33  32 32 32  31 31 31  31 31 31  30 30 30  30 30 30  29 29 29  28 28 28  28 28 28  
127 127 127  158 158 158  164 164 164  163 163 163  160 160 160  155 155 155  150 150 150  145 145 145  141 141 141  137 137 137  133 133 133  130 130 130  127 127 127  125 125 125  122 122 122  120 120 120  119 119 119  117 117 117  115 115 115  114 114 114  113 113 113  111 111 111  110 110 110  109 109 109  108 108 108  107 107 107  106 106 106  105 105 105  104 104 104  103 103 103  102 102 102  101 101 101  100 100 100  99 99 99  98 98 98  97 97 97  96 96 96  96 96 96  95 95 95  94 94 94  93 93 93  92 92 92  91 91 91  90 90 90  90 90 90  89 89 89  88 88 88  87 87 87  86 86 86  86 86 86  85 85 85  84 84 84  83 83 83  82 82 82  82 82 82  81 81 81  80 80 80  79 79 79  78 78 78  78 78 78  77 77 77  76 76 76  75 75 75  74 74 74  74 74 74  73 73 73  72 72 72  71 71 71  70 70 70  70 70 70  69 69 69  68 68 68  67 67 67  66 66 66  66 66 66  65 65 65  64 64 64  63 63 63  62 62 62  62 62 62  61 61 61  60 60 60  59 59 59  59 59 59  58 58 58  57 57 57  56 56 56  56 56 56  55 55 55  54 54 54  53 53 53  53 53 53  52 52 52  51 51 51  50 50 50  50 50 50  49 49 49  48 48 48  48 48 48  47 47 47  46 46 46  46 46 46  45 45 45  44 44 44  43 43 43  43 43 43  42 42 42  41 41 41  41 41 41  40 40 40  39 39 39  39 39 39  38 38 38  37 37 37  37 37 37  36 36 36  35 35 35  35 35 35  34 34 34  33 33 33  33 33 33  32 32 32  31 31 31  31 31 31  30 30 30  30 30 30  29 29 29  29 29 29  
109 109 109  154 154 154  166 166 166  167 167 167  164 164 164  159 159 159  154 154 154  148 148 148  143 143 143  139 139 139  135 135 135  131 131 131  128 128 128  125 125 125  123 123 123  120 120 120  118 118 118  116 116 116  115 115 115  113 113 113  112 112 112  111 111 111  109 109 109  108 108 108  107 107 107  106 106 106  105 105 105  104 104 104  103 103 103  102 102 102  101 101 101  100 100 100  99 99 99  98 98 98  97 97 97  96 96 96  96 96 96  95 95 95  94 94 94  93 93 93  92 92 92  91 91 91  91 91 91  90 90 90  89 89 89  88 88 88  87 87 87  87 87 87  86 86 86  85 85 85  84 84 84  84 84 84  83 83 83  82 82 82  81 81 81  81 81 81  80 80 80  79 79 79  78 78 78  78 78 78  77 77 77  76 76 76  75 75 75  75 75 75  74 74 74  73 73 73  72 72 72  71 71 71  71 71 71  70 70 70  69 69 69  68 68 68  67 67 67  67 67 67  66 66 66  65 65 65  64 64 64  64 64 64  63 63 63  62 62 62  61 61 61  61 61 61  60 60 60  59 59 59  58 58 58  58 58 58  57 57 57  56 56 56  55 55 55  55 55 55  54 54 54  53 53 53  52 52 52  52 52 52  51 51 51  50 50 50  50 50 50  49 49 49  48 48 48  48 48 48  47 47 47  46 46 46  45 45 45  45 45 45  44 44 44  43 43 43  43 43 43  42 42 42  41 41 41  41 41 41  40 40 40  39 39 39  39 39 39  38 38 38  37 37 37  37 37 37  36 36 36  35 35 35  34 34 34  34 34 34  33 33 33  32 32 32  32 32 32  31 31 31  31 31 31  30 30 30  30 30 30  29 29 29  
97 97 97  152 152 152  167 167 167  169 169 169  167 167 167  162 162 162  156 156 156  150 150 150  145 145 145  140 140 140  136 136 136  132 132 132  128 128 128  125 125 125  123 123 123  120 120 120  118 118 118  116 116 116  114 114 114  113 113 113  111 111 111  110 110 110  109 109 109  107 107 107  106 106 106  105 105 105  104 104 104  103 103 103  102 102 102  101 101 101  100 100 100  99 99 99  98 98 98  98 98 98  97 97 97  96 96 96  95 95 95  94 94 94  93 93 93  93 93 93  92 92 92  91 91 91  90 90 90  89 89 89  89 89 89  88 88 88  87 87 87  86 86 86  86 86 86  85 85 85  84 84 84  84 84 84  83 83 83  82 82 82  81 81 81  81 81 81  80 80 80  79 79 79  78 78 78  78 78 78  77 77 77  76 76 76  75 75 75  75 75 75  74 74 74  73 73 73  72 72 72  72 72 72  71 71 71  70 70 70  69 69 69  69 69 69  68 68 68  67 67 67  66 66 66  65 65 65  65 65 65  64 64 64  63 63 63  62 62 62  62 62 62  61 61 61  60 60 60  59 59 59  59 59 59  58 58 58  57 57 57  56 56 56  56 56 56  55 55 55  54 54 54  54 54 54  53 53 53  52 52 52  51 51 51  51 51 51  50 50 50  49 49 49  49 49 49  48 48 48  47 47 47  47 47 47  46 46 46  45 45 45  45 45 45  44 44 44  43 43 43  42 42 42  42 42 42  41 41 41  40 40 40  40 40 40  39 39 39  38 38 38  38 38 38  37 37 37  36 36 36  36 36 36  35 35 35  34 34 34  34 34 34  33 33 33  32 32 32  32 32 32  31 31 31  30 30 30  30 30 30  30 30 30  
95 95 95  151 151 151  167 167 167  169 169 169  167 167 167  162 162 162  156 156 156  150 150 150  145 145 145  140 140 140  136 136 136  132 132 132  128 128 128  125 125 125  122 122 122  120 120 120  118 118 118  116 116 116  114 114 114  112 112 112  111 111 111  110 110 110  108 108 108  107 107 107  106 106 106  105 105 105  104 104 104  103 103 103  102 102 102  101 101 101  100 100 100  99 99 99  98 98 98  97 97 97  97 97 97  96 96 96  95 95 95  94 94 94  93 93 93  93 93 93  92 92 92  91 91 91  90 90 90  89 89 89  89 89 89  88 88 88  87 87 87  86 86 86  86 86 86  85 85 85  84 84 84  84 84 84  83 83 83  82 82 82  81 81 81  81 81 81  80 80 80  79 79 79  78 78 78  78 78 78  77 77 77  76 76 76  76 76 76  75 75 75  74 74 74  73 73 73  73 73 73  72 72 72  71 71 71  70 70 70  69 69 69  69 69 69  68 68 68  67 67 67  66 66 66  66 66 66  65 65 65  64 64 64  63 63 63  63 63 63  62 62 62  61 61 61  60 60 60  60 60 60  59 59 59  58 58 58  57 57 57  57 57 57  56 56 56  55 55 55  54 54 54  54 54 54  53 53 53  52 52 52  52 52 52  51 51 51  50 50 50  50 50 50  49 49 49  48 48 48  47 47 47  47 47 47  46 46 46  45 45 45  45 45 45  44 44 44  43 43 43  43 43 43  42 42 42  41 41 41  41 41 41  40 40 40  39 39 39  39 39 39  38 38 38  37 37 37  36 36 36  36 36 36  35 35 35  34 34 34  34 34 34  33 33 33  32 32 32  32 32 32  31 31 31  31 31 31  30 30 30  30 30 30  
106 106 106  152 152 152  165 165 165  166 166 166  163 163 163  158 158 158  152 152 152  147 147 147  142 142 142  138 138 138  134 134 134  130 130 130  127 127 127  124 124 124  122 122 122  119 119 119  117 117 117  116 116 116  114 114 114  113 113 113  111 111 111  110 110 110  109 109 109  108 108 108  107 107 107  105 105 105  104 104 104  104 104 104  103 103 103  102 102 102  101 101 101  100 100 100  99 99 99  98 98 98  97 97 97  96 96 96  96 96 96  95 95 95  94 94 94  93 93 93  92 92 92  92 92 92  91 91 91  90 90 90  89 89 89  88 88 88  88 88 88  87 87 87  86 86 86  85 85 85  85 85 85  84 84 84  83 83 83  82 82 82  82 82 82  81 81 81  80 80 80  79 79 79  79 79 79  78 78 78  77 77 77  76 76 76  76 76 76  75 75 75  74 74 74  73 73 73  73 73 73  72 72 72  71 71 71  70 70 70  70 70 70  69 69 69  68 68 68  67 67 67  66 66 66  66 66 66  65 65 65  64 64 64  63 63 63  63 63 63  62 62 62  61 61 61  60 60 60  60 60 60  59 59 59  58 58 58  57 57 57  57 57 57  56 56 56  55 55 55  54 54 54  54 54 54  53 53 53  52 52 52  51 51 51  51 51 51  50 50 50  49 49 49  49 49 49  48 48 48  47 47 47  47 47 47  46 46 46  45 45 45  45 45 45  44 44 44  43 43 43  42 42 42  42 42 42  41 41 41  40 40 40  40 40 40  39 39 39  38 38 38  38 38 38  37 37 37  36 36 36  36 36 36  35 35 35  34 34 34  34 34 34  33 33 33  32 32 32  32 32 32  31 31 31  30 30 30  30 30 30  29 29 29  
136 136 136  157 157 157  160 160 160  158 158 158  153 153 153  149 149 149  144 144 144  140 140 140  136 136 136  133 133 133  130 130 130  127 127 127  125 125 125  122 122 122  120 120 120  119 119 119  117 117 117  116 116 116  114 114 114  113 113 113  112 112 112  111 111 111  110 110 110  109 109 109  108 108 108  107 107 107  106 106 106  105 105 105  104 104 104  103 103 103  102 102 102  101 101 101  100 100 100  100 100 100  99 99 99  98 98 98  97 97 97  96 96 96  95 95 95  95 95 95  94 94 94  93 93 93  92 92 92  91 91 91  90 90 90  90 90 90  89 89 89  88 88 88  87 87 87  86 86 86  86 86 86  85 85 85  84 84 84  83 83 83  82 82 82  82 82 82  81 81 81  80 80 80  79 79 79  78 78 78  78 78 78  77 77 77  76 76 76  75 75 75  74 74 74  74 74 74  73 73 73  72 72 72  71 71 71  70 70 70  69 69 69  69 69 69  68 68 68  67 67 67  66 66 66  65 65 65  65 65 65  64 64 64  63 63 63  62 62 62  62 62 62  61 61 61  60 60 60  59 59 59  58 58 58  58 58 58  57 57 57  56 56 56  55 55 55  55 55 55  54 54 54  53 53 53  52 52 52  52 52 52  51 51 51  50 50 50  50 50 50  49 49 49  48 48 48  47 47 47  47 47 47  46 46 46  45 45 45  45 45 45  44 44 44  43 43 43  43 43 43  42 42 42  41 41 41  40 40 40  40 40 40  39 39 39  38 38 38  38 38 38  37 37 37  36 36 36  36 36 36  35 35 35  34 34 34  34 34 34  33 33 33  32 32 32  32 32 32  31 31 31  30 30 30  30 30 30  29 29 29  29 29 29  
183 183 183  164 164 164  153 153 153  145 145 145  139 139 139  135 135 135  132 132 132  129 129 129  127 127 127  125 125 125  124 124 124  122 122 122  121 121 121  120 120 120  119 119 119  118 118 118  117 117 117  116 116 116  115 115 115  114 114 114  113 113 113  112 112 112  111 111 111  111 111 111  110 110 110  109 109 109  108 108 108  107 107 107  106 106 106  105 105 105  105 105 105  104 104 104  103 103 103  102 102 102  101 101 101  100 100 100  99 99 99  98 98 98  98 98 98  97 97 97  96 96 96  95 95 95  94 94 94  93 93 93  92 92 92  91 91 91  90 90 90  90 90 90  89 89 89  88 88 88  87 87 87  86 86 86  85 85 85  84 84 84  83 83 83  82 82 82  81 81 81  81 81 81  80 80 80  79 79 79  78 78 78  77 77 77  76 76 76  75 75 75  74 74 74  74 74 74  73 73 73  72 72 72  71 71 71  70 70 70  69 69 69  68 68 68  68 68 68  67 67 67  66 66 66  65 65 65  64 64 64  63 63 63  63 63 63  62 62 62  61 61 61  60 60 60  59 59 59  59 59 59  58 58 58  57 57 57  56 56 56  56 56 56  55 55 55  54 54 54  53 53 53  52 52 52  52 52 52  51 51 51  50 50 50  49 49 49  49 49 49  48 48 48  47 47 47  46 46 46  46 46 46  45 45 45  44 44 44  44 44 44  43 43 43  42 42 42  41 41 41  41 41 41  40 40 40  39 39 39  39 39 39  38 38 38  37 37 37  37 37 37  36 36 36  35 35 35  35 35 35  34 34 34  33 33 33  33 33 33  32 32 32  31 31 31  31 31 31  30 30 30  29 29 29  29 29 29  28 28 28  28 28 28  
235 235 235  172 172 172  145 145 145  132 132 132  124 124 124  120 120 120  118 118 118  117 117 117  117 117 117  117 117 117  117 117 117  117 117 117  117 117 117  117 117 117  117 117 117  116 116 116  116 116 116  116 116 116  115 115 115  115 115 115  114 114 114  114 114 114  113 113 113  113 113 113  112 112 112  111 111 111  110 110 110  110 110 110  109 109 109  108 108 108  107 107 107  106 106 106  105 105 105  105 105 105  104 104 104  103 103 103  102 102 102  101 101 101  100 100 100  99 99 99  98 98 98  97 97 97  96 96 96  95 95 95  94 94 94  93 93 93  92 92 92  91 91 91  90 90 90  89 89 89  88 88 88  87 87 87  86 86 86  85 85 85  84 84 84  83 83 83  82 82 82  81 81 81  80 80 80  79 79 79  78 78 78  77 77 77  76 76 76  76 76 76  75 75 75  74 74 74  73 73 73  72 72 72  71 71 71  70 70 70  69 69 69  68 68 68  67 67 67  66 66 66  66 66 66  65 65 65  64 64 64  63 63 63  62 62 62  61 61 61  61 61 61  60 60 60  59 59 59  58 58 58  57 57 57  56 56 56  56 56 56  55 55 55  54 54 54  53 53 53  52 52 52  52 52 52  51 51 51  50 50 50  49 49 49  48 48 48  48 48 48  47 47 47  46 46 46  45 45 45  45 45 45  44 44 44  43 43 43  42 42 42  42 42 42  41 41 41  40 40 40  40 40 40  39 39 39  38 38 38  38 38 38  37 37 37  36 36 36  36 36 36  35 35 35  34 34 34  34 34 34  33 33 33  32 32 32  32 32 32  31 31 31  30 30 30  30 30 30  29 29 29  28 28 28  28 28 28  27 27 27  26 26 26  
244 244 244  174 174 174  144 144 144  129 129 129  121 121 121  118 118 118  116 116 116  115 115 115  115 115 115  115 115 115  115 115 115  116 116 116  116 116 116  116 116 116  116 116 116  116 116 116  116 116 116  115 115 115  115 115 115  115 115 115  114 114 114  114 114 114  113 113 113  113 113 113  112 112 112  111 111 111  111 111 111  110 110 110  109 109 109  108 108 108  107 107 107  107 107 107  106 106 106  105 105 105  104 104 104  103 103 103  102 102 102  101 101 101  100 100 100  99 99 99  98 98 98  97 97 97  96 96 96  96 96 96  95 95 95  94 94 94  93 93 93  92 92 92  91 91 91  90 90 90  89 89 89  88 88 88  87 87 87  86 86 86  85 85 85  84 84 84  83 83 83  82 82 82  81 81 81  80 80 80  79 79 79  78 78 78  77 77 77  76 76 76  75 75 75  74 74 74  73 73 73  72 72 72  71 71 71  70 70 70  69 69 69  68 68 68  68 68 68  67 67 67  66 66 66  65 65 65  64 64 64  63 63 63  62 62 62  61 61 61  61 61 61  60 60 60  59 59 59  58 58 58  57 57 57  57 57 57  56 56 56  55 55 55  54 54 54  53 53 53  52 52 52  52 52 52  51 51 51  50 50 50  49 49 49  49 49 49  48 48 48  47 47 47  46 46 46  45 45 45  45 45 45  44 44 44  43 43 43  42 42 42  42 42 42  41 41 41  40 40 40  40 40 40  39 39 39  38 38 38  38 38 38  37 37 37  36 36 36  36 36 36  35 35 35  34 34 34  34 34 34  33 33 33  32 32 32  32 32 32  31 31 31  30 30 30  30 30 30  29 29 29  28 28 28  28 28 28  27 27 27  26 26 26  
62 62 62  145 145 145  169 169 169  175 175 175  173 173 173  168 168 168  161 161 161  154 154 154  148 148 148  142 142 142  137 137 137  132 132 132  128 128 128  124 124 124  121 121 121  118 118 118  116 116 116  114 114 114  112 112 112  110 110 110  108 108 108  107 107 107  106 106 106  105 105 105  104 104 104  102 102 102  101 101 101  101 101 101  100 100 100  99 99 99  98 98 98  97 97 97  96 96 96  96 96 96  95 95 95  94 94 94  93 93 93  93 93 93  92 92 92  91 91 91  91 91 91  90 90 90  89 89 89  89 89 89  88 88 88  87 87 87  87 87 87  86 86 86  85 85 85  85 85 85  84 84 84  84 84 84  83 83 83  82 82 82  82 82 82  81 81 81  80 80 80  80 80 80  79 79 79  78 78 78  78 78 78  77 77 77  76 76 76  76 76 76  75 75 75  74 74 74  74 74 74  73 73 73  72 72 72  71 71 71  71 71 71  70 70 70  69 69 69  69 69 69  68 68 68  67 67 67  66 66 66  66 66 66  65 65 65  64 64 64  63 63 63  63 63 63  62 62 62  61 61 61  60 60 60  60 60 60  59 59 59  58 58 58  58 58 58  57 57 57  56 56 56  55 55 55  55 55 55  54 54 54  53 53 53  53 53 53  52 52 52  51 51 51  51 51 51  50 50 50  49 49 49  49 49 49  48 48 48  47 47 47  47 47 47  46 46 46  45 45 45  44 44 44  44 44 44  43 43 43  42 42 42  42 42 42  41 41 41  40 40 40  39 39 39  39 39 39  38 38 38  37 37 37  37 37 37  36 36 36  35 35 35  35 35 35  34 34 34  33 33 33  33 33 33  32 32 32  32 32 32  31 31 31  
158 158 158  159 159 159  155 155 155  150 150 150  145 145 145  140 140 140  136 136 136  133 133 133  130 130 130  127 127 127  125 125 125  123 123 123  121 121 121  119 119 119  118 118 118  117 117 117  115 115 115  114 114 114  113 113 113  112 112 112  111 111 111  110 110 110  109 109 109  109 109 109  108 108 108  107 107 107  106 106 106  105 105 105  105 105 105  104 104 104  103 103 103  102 102 102  101 101 101  100 100 100  100 100 100  99 99 99  98 98 98  97 97 97  96 96 96  96 96 96  95 95 95  94 94 94  93 93 93  92 92 92  92 92 92  91 91 91  90 90 90  89 89 89  88 88 88  87 87 87  87 87 87  86 86 86  85 85 85  84 84 84  83 83 83  83 83 83  82 82 82  81 81 81  80 80 80  79 79 79  78 78 78  78 78 78  77 77 77  76 76 76  75 75 75  74 74 74  73 73 73  73 73 73  72 72 72  71 71 71  70 70 70  69 69 69  69 69 69  68 68 68  67 67 67  66 66 66  65 65 65  65 65 65  64 64 64  63 63 63  62 62 62  61 61 61  61 61 61  60 60 60  59 59 59  58 58 58  57 57 57  57 57 57  56 56 56  55 55 55  54 54 54  54 54 54  53 53 53  52 52 52  51 51 51  51 51 51  50 50 50  49 49 49  48 48 48  48 48 48  47 47 47  46 46 46  46 46 46  45 45 45  44 44 44  43 43 43  43 43 43  42 42 42  41 41 41  41 41 41  40 40 40  39 39 39  39 39 39  38 38 38  37 37 37  37 37 37  36 36 36  35 35 35  34 34 34  34 34 34  33 33 33  33 33 33  32 32 32  31 31 31  31 31 31  30 30 30  29 29 29  29 29 29  
