P3
128 128
255
0 18 48 0 23 55 0 23 55 0 21 52 0 19 50 0 18 48 0 19 50 0 20 51 0 21 52 0 22 53 0 22 53 0 22 54 0 22 54 0 22 54 0 22 53 0 22 53 0 21 52 0 21 52 0 21 51 0 20 51 0 20 50 0 19 50 0 19 49 0 18 49 0 18 48 0 18 48 0 18 48 0 18 48 0 18 49 0 19 49 0 19 49 0 19 50 0 19 50 0 20 50 0 20 51 0 20 51 0 20 51 0 20 51 0 21 51 0 21 51 0 21 52 0 21 52 0 21 52 0 21 52 0 21 52 0 21 52 0 21 52 0 21 52 0 21 52 0 21 52 0 21 52 0 21 52 0 21 52 0 21 52 0 21 52 0 21 52 0 21 52 0 21 52 0 21 52 0 21 52 0 21 51 0 20 51 0 20 51 0 20 51 0 20 51 0 20 51 0 20 51 0 20 50 0 20 50 0 19 50 0 19 50 0 19 50 0 19 49 0 19 49 0 19 49 0 19 49 0 18 49 0 18 48 0 18 48 0 18 48 0 18 48 0 18 48 0 18 48 0 18 48 0 18 48 0 18 48 0 18 49 0 18 49 0 19 49 0 19 49 0 19 49 0 19 50 0 19 50 0 19 50 0 20 50 0 20 50 0 20 51 0 20 51 0 20 51 0 20 51 0 21 52 0 21 52 0 21 52 0 21 52 0 21 52 0 21 53 0 22 53 0 22 53 0 22 53 0 22 53 0 22 54 0 22 54 0 23 54 0 23 54 0 23 54 0 23 55 0 23 55 0 23 55 0 24 55 0 24 55 0 24 56 0 24 56 0 24 56 0 24 56 0 24 56 0 24 56 0 24 56 0 25 57
0 112 169 0 26 59 0 37 72 0 46 83 0 47 85 0 44 81 0 40 76 0 36 71 0 31 65 0 28 60 0 24 56 0 22 53 0 19 50 0 18 48 0 19 50 0 20 51 0 21 52 0 22 53 0 22 54 0 23 54 0 23 54 0 23 54 0 23 54 0 23 54 0 22 54 0 22 54 0 22 53 0 22 53 0 22 53 0 21 52 0 21 52 0 21 52 0 21 51 0 20 51 0 20 51 0 20 50 0 20 50 0 19 50 0 19 49 0 19 49 0 19 49 0 18 48 0 18 48 0 18 48 0 18 48 0 18 48 0 18 48 0 18 48 0 18 49 0 19 49 0 19 49 0 19 49 0 19 50 0 19 50 0 19 50 0 20 50 0 20 50 0 20 50 0 20 50 0 20 51 0 20 51 0 20 51 0 20 51 0 20 51 0 20 51 0 20 51 0 20 51 0 20 51 0 20 51 0 20 51 0 20 51 0 20 51 0 20 51 0 20 50 0 20 50 0 20 50 0 19 50 0 19 50 0 19 50 0 19 50 0 19 49 0 19 49 0 19 49 0 19 49 0 19 49 0 18 49 0 18 49 0 18 48 0 18 48 0 18 48 0 18 48 0 18 48 0 18 48 0 18 48 0 18 48 0 18 48 0 18 48 0 18 48 0 18 48 0 18 48 0 18 48 0 18 49 0 18 49 0 19 49 0 19 49 0 19 49 0 19 49 0 19 50 0 19 50 0 19 50 0 20 50 0 20 50 0 20 51 0 20 51 0 20 51 0 21 51 0 21 52 0 21 52 0 21 52 0 21 52 0 21 53 0 22 53 0 22 53 0 22 53 0 22 53 0 22 53 0 22 53 0 22 53
0 101 155 0 37 72 0 24 55 0 35 70 0 40 76 0 41 77 0 40 76 0 39 75 0 37 72 0 34 69 0 32 66 0 30 63 0 28 61 0 26 59 0 24 56 0 23 54 0 22 53 0 20 51 0 19 50 0 18 48 0 18 48 0 19 49 0 19 50 0 20 51 0 21 52 0 21 52 0 22 53 0 22 53 0 23 54 0 23 54 0 23 55 0 23 55 0 24 55 0 24 56 0 24 56 0 24 56 0 24 56 0 24 56 0 24 56 0 24 56 0 24 56 0 24 56 0 24 56 0 24 56 0 24 56 0 24 56 0 24 55 0 24 55 0 23 55 0 23 55 0 23 55 0 23 54 0 23 54 0 22 54 0 22 54 0 22 53 0 22 53 0 22 53 0 21 52 0 21 52 0 21 52 0 21 52 0 20 51 0 20 51 0 20 51 0 20 50 0 20 50 0 19 50 0 19 50 0 19 49 0 19 49 0 18 49 0 18 48 0 18 48 0 18 48 0 18 48 0 18 48 0 18 48 0 18 48 0 18 48 0 18 49 0 19 49 0 19 49 0 19 50 0 19 50 0 19 50 0 20 50 0 20 51 0 20 51 0 20 51 0 21 51 0 21 52 0 21 52 0 21 52 0 21 52 0 22 53 0 22 53 0 22 53 0 22 53 0 22 54 0 23 54 0 23 54 0 23 54 0 23 55 0 23 55 0 23 55 0 24 55 0 24 55 0 24 56 0 24 56 0 24 56 0 24 56 0 24 56 0 25 56 0 25 57 0 25 57 0 25 57 0 25 57 0 25 57 0 25 57 0 25 57 0 25 58 0 26 58 0 26 58 0 26 58 0 26 58 0 26 59 0 26 59
0 92 143 0 35 70 0 23 55 0 33 68 0 37 73 0 38 74 0 38 74 0 37 72 0 35 70 0 33 67 0 31 65 0 29 62 0 27 60 0 25 58 0 24 56 0 23 54 0 21 52 0 20 51 0 19 49 0 18 48 0 18 48 0 19 49 0 19 50 0 20 51 0 20 51 0 21 52 0 21 53 0 22 53 0 22 53 0 23 54 0 23 54 0 23 55 0 23 55 0 23 55 0 24 55 0 24 55 0 24 55 0 24 56 0 24 56 0 24 56 0 24 56 0 24 56 0 24 56 0 24 55 0 24 55 0 23 55 0 23 55 0 23 55 0 23 55 0 23 54 0 23 54 0 23 54 0 22 54 0 22 54 0 22 53 0 22 53 0 22 53 0 21 53 0 21 52 0 21 52 0 21 52 0 21 51 0 20 51 0 20 51 0 20 51 0 20 50 0 20 50 0 19 50 0 19 49 0 19 49 0 19 49 0 18 49 0 18 48 0 18 48 0 18 48 0 18 48 0 18 48 0 18 48 0 18 48 0 18 48 0 18 49 0 19 49 0 19 49 0 19 49 0 19 50 0 19 50 0 20 50 0 20 50 0 20 51 0 20 51 0 20 51 0 21 51 0 21 52 0 21 52 0 21 52 0 21 52 0 22 53 0 22 53 0 22 53 0 22 53 0 22 54 0 22 54 0 23 54 0 23 54 0 23 54 0 23 55 0 23 55 0 23 55 0 24 55 0 24 55 0 24 56 0 24 56 0 24 56 0 24 56 0 24 56 0 24 56 0 25 57 0 25 57 0 25 57 0 25 57 0 25 57 0 25 57 0 25 57 0 25 58 0 26 58 0 26 58 0 26 58 0 26 58
0 40 77 0 26 59 0 19 49 0 20 51 0 23 54 0 24 56 0 25 57 0 25 57 0 25 57 0 25 57 0 25 57 0 24 56 0 23 55 0 23 54 0 22 54 0 22 53 0 21 52 0 20 51 0 20 50 0 19 50 0 19 49 0 18 48 0 18 48 0 18 48 0 18 48 0 19 49 0 19 49 0 19 50 0 20 50 0 20 51 0 20 51 0 20 51 0 21 51 0 21 52 0 21 52 0 21 52 0 21 52 0 21 52 0 21 52 0 22 53 0 22 53 0 22 53 0 22 53 0 22 53 0 22 53 0 22 53 0 22 53 0 22 53 0 22 53 0 21 53 0 21 53 0 21 52 0 21 52 0 21 52 0 21 52 0 21 52 0 21 52 0 21 52 0 21 52 0 21 51 0 20 51 0 20 51 0 20 51 0 20 51 0 20 50 0 20 50 0 20 50 0 19 50 0 19 50 0 19 50 0 19 49 0 19 49 0 19 49 0 18 49 0 18 48 0 18 48 0 18 48 0 18 48 0 18 48 0 18 48 0 18 48 0 18 48 0 18 48 0 18 48 0 18 49 0 19 49 0 19 49 0 19 49 0 19 50 0 19 50 0 19 50 0 20 50 0 20 50 0 20 51 0 20 51 0 20 51 0 20 51 0 21 51 0 21 52 0 21 52 0 21 52 0 21 52 0 21 52 0 21 53 0 22 53 0 22 53 0 22 53 0 22 53 0 22 53 0 22 54 0 22 54 0 23 54 0 23 54 0 23 54 0 23 55 0 23 55 0 23 55 0 23 55 0 23 55 0 24 55 0 24 55 0 24 56 0 24 56 0 24 56 0 24 56 0 24 56 0 24 56 0 25 56
0 42 78 0 19 49 0 26 58 0 27 59 0 26 58 0 24 56 0 22 53 0 20 51 0 19 49 0 18 48 0 19 49 0 20 50 0 20 51 0 21 51 0 21 52 0 21 52 0 21 52 0 21 52 0 21 51 0 20 51 0 20 51 0 20 50 0 20 50 0 19 50 0 19 49 0 19 49 0 18 49 0 18 48 0 18 48 0 18 48 0 18 48 0 18 48 0 18 48 0 18 49 0 19 49 0 19 49 0 19 49 0 19 49 0 19 50 0 19 50 0 19 50 0 20 50 0 20 50 0 20 50 0 20 51 0 20 51 0 20 51 0 20 51 0 20 51 0 20 51 0 20 51 0 20 51 0 20 51 0 20 51 0 20 51 0 20 51 0 20 51 0 20 51 0 20 51 0 20 51 0 20 51 0 20 51 0 20 51 0 20 51 0 20 50 0 20 50 0 20 50 0 20 50 0 19 50 0 19 50 0 19 50 0 19 50 0 19 49 0 19 49 0 19 49 0 19 49 0 18 49 0 18 49 0 18 48 0 18 48 0 18 48 0 18 48 0 18 48 0 18 48 0 18 48 0 18 48 0 18 48 0 18 48 0 18 48 0 18 49 0 19 49 0 19 49 0 19 49 0 19 49 0 19 49 0 19 50 0 19 50 0 19 50 0 20 50 0 20 50 0 20 50 0 20 51 0 20 51 0 20 51 0 20 51 0 20 51 0 21 51 0 21 52 0 21 52 0 21 52 0 21 52 0 21 52 0 21 53 0 22 53 0 22 53 0 22 53 0 22 53 0 22 53 0 22 54 0 22 54 0 23 54 0 23 54 0 23 54 0 23 54 0 23 54 0 23 55 0 23 55 0 23 55
0 71 116 0 21 52 0 30 63 0 34 69 0 34 69 0 32 66 0 30 63 0 27 59 0 24 56 0 22 53 0 20 51 0 18 49 0 18 48 0 19 49 0 20 50 0 20 51 0 21 52 0 21 52 0 21 52 0 21 52 0 21 52 0 21 52 0 21 52 0 21 51 0 20 51 0 20 51 0 20 51 0 20 50 0 19 50 0 19 50 0 19 49 0 19 49 0 18 49 0 18 48 0 18 48 0 18 48 0 18 48 0 18 48 0 18 48 0 18 48 0 18 48 0 18 48 0 18 49 0 19 49 0 19 49 0 19 49 0 19 49 0 19 49 0 19 50 0 19 50 0 19 50 0 19 50 0 20 50 0 20 50 0 20 50 0 20 50 0 20 50 0 20 50 0 20 50 0 20 50 0 20 51 0 20 51 0 20 50 0 20 50 0 20 50 0 20 50 0 20 50 0 20 50 0 20 50 0 20 50 0 19 50 0 19 50 0 19 50 0 19 50 0 19 49 0 19 49 0 19 49 0 19 49 0 19 49 0 18 49 0 18 49 0 18 48 0 18 48 0 18 48 0 18 48 0 18 48 0 18 48 0 18 48 0 18 48 0 18 48 0 18 48 0 18 48 0 18 48 0 18 48 0 18 49 0 18 49 0 19 49 0 19 49 0 19 49 0 19 49 0 19 49 0 19 50 0 19 50 0 19 50 0 19 50 0 20 50 0 20 50 0 20 50 0 20 51 0 20 51 0 20 51 0 20 51 0 21 51 0 21 52 0 21 52 0 21 52 0 21 52 0 21 52 0 21 52 0 22 53 0 22 53 0 22 53 0 22 53 0 22 53 0 22 53 0 22 53 0 22 53 0 22 53
0 83 132 0 23 54 0 32 66 0 37 73 0 38 73 0 36 71 0 33 67 0 30 63 0 26 59 0 24 56 0 21 52 0 19 50 0 18 48 0 18 49 0 19 50 0 20 51 0 21 52 0 21 52 0 21 52 0 21 52 0 21 52 0 21 52 0 21 52 0 21 52 0 21 52 0 21 52 0 20 51 0 20 51 0 20 51 0 20 51 0 20 50 0 19 50 0 19 50 0 19 49 0 19 49 0 19 49 0 18 49 0 18 48 0 18 48 0 18 48 0 18 48 0 18 48 0 18 48 0 18 48 0 18 48 0 18 49 0 18 49 0 19 49 0 19 49 0 19 49 0 19 49 0 19 50 0 19 50 0 19 50 0 19 50 0 19 50 0 20 50 0 20 50 0 20 50 0 20 50 0 20 50 0 20 50 0 20 50 0 20 50 0 20 50 0 20 50 0 20 50 0 20 50 0 20 50 0 19 50 0 19 50 0 19 50 0 19 50 0 19 50 0 19 50 0 19 49 0 19 49 0 19 49 0 19 49 0 19 49 0 18 49 0 18 49 0 18 48 0 18 48 0 18 48 0 18 48 0 18 48 0 18 48 0 18 48 0 18 48 0 18 48 0 18 48 0 18 48 0 18 48 0 18 48 0 18 48 0 18 48 0 18 48 0 18 49 0 18 49 0 19 49 0 19 49 0 19 49 0 19 49 0 19 49 0 19 50 0 19 50 0 19 50 0 19 50 0 20 50 0 20 50 0 20 51 0 20 51 0 20 51 0 20 51 0 21 51 0 21 52 0 21 52 0 21 52 0 21 52 0 21 52 0 21 52 0 21 53 0 22 53 0 22 53 0 22 53 0 22 53 0 21 53
0 81 129 0 22 54 0 31 65 0 37 73 0 37 73 0 35 70 0 32 66 0 29 62 0 26 59 0 24 55 0 21 52 0 19 50 0 18 48 0 19 49 0 19 50 0 20 51 0 21 52 0 21 52 0 21 52 0 21 52 0 21 52 0 21 52 0 21 52 0 21 52 0 21 52 0 21 52 0 20 51 0 20 51 0 20 51 0 20 50 0 20 50 0 19 50 0 19 50 0 19 49 0 19 49 0 19 49 0 18 49 0 18 48 0 18 48 0 18 48 0 18 48 0 18 48 0 18 48 0 18 48 0 18 48 0 18 49 0 18 49 0 19 49 0 19 49 0 19 49 0 19 49 0 19 49 0 19 50 0 19 50 0 19 50 0 19 50 0 20 50 0 20 50 0 20 50 0 20 50 0 20 50 0 20 50 0 20 50 0 20 50 0 20 50 0 20 50 0 20 50 0 20 50 0 20 50 0 19 50 0 19 50 0 19 50 0 19 50 0 19 50 0 19 50 0 19 49 0 19 49 0 19 49 0 19 49 0 19 49 0 18 49 0 18 49 0 18 48 0 18 48 0 18 48 0 18 48 0 18 48 0 18 48 0 18 48 0 18 48 0 18 48 0 18 48 0 18 48 0 18 48 0 18 48 0 18 48 0 18 48 0 18 48 0 18 49 0 18 49 0 19 49 0 19 49 0 19 49 0 19 49 0 19 49 0 19 49 0 19 50 0 19 50 0 19 50 0 20 50 0 20 50 0 20 50 0 20 51 0 20 51 0 20 51 0 20 51 0 21 51 0 21 52 0 21 52 0 21 52 0 21 52 0 21 52 0 21 52 0 21 52 0 21 52 0 21 52 0 21 52 0 21 52
0 70 115 0 21 51 0 30 63 0 34 69 0 34 69 0 32 66 0 30 63 0 27 59 0 24 56 0 22 53 0 20 51 0 18 49 0 18 48 0 19 49 0 20 50 0 20 51 0 21 52 0 21 52 0 21 52 0 21 52 0 21 52 0 21 52 0 21 52 0 21 51 0 20 51 0 20 51 0 20 51 0 20 50 0 20 50 0 19 50 0 19 50 0 19 49 0 19 49 0 18 49 0 18 48 0 18 48 0 18 48 0 18 48 0 18 48 0 18 48 0 18 48 0 18 48 0 18 48 0 18 49 0 18 49 0 19 49 0 19 49 0 19 49 0 19 49 0 19 49 0 19 50 0 19 50 0 19 50 0 19 50 0 19 50 0 19 50 0 20 50 0 20 50 0 20 50 0 20 50 0 20 50 0 20 50 0 20 50 0 20 50 0 20 50 0 20 50 0 20 50 0 19 50 0 19 50 0 19 50 0 19 50 0 19 50 0 19 50 0 19 50 0 19 49 0 19 49 0 19 49 0 19 49 0 19 49 0 18 49 0 18 49 0 18 48 0 18 48 0 18 48 0 18 48 0 18 48 0 18 48 0 18 48 0 18 48 0 18 48 0 18 48 0 18 48 0 18 48 0 18 48 0 18 48 0 18 48 0 18 49 0 18 49 0 18 49 0 19 49 0 19 49 0 19 49 0 19 49 0 19 49 0 19 50 0 19 50 0 19 50 0 19 50 0 20 50 0 20 50 0 20 50 0 20 51 0 20 51 0 20 51 0 20 51 0 20 51 0 21 51 0 21 52 0 21 52 0 21 52 0 21 52 0 21 52 0 21 52 0 21 52 0 21 53 0 21 53 0 21 53 0 21 52
0 53 93 0 18 48 0 27 60 0 30 64 0 29 63 0 28 60 0 25 57 0 23 55 0 21 52 0 19 50 0 18 48 0 18 48 0 19 49 0 20 50 0 20 51 0 21 51 0 21 52 0 21 52 0 21 52 0 21 51 0 21 51 0 20 51 0 20 51 0 20 51 0 20 50 0 19 50 0 19 50 0 19 49 0 19 49 0 18 49 0 18 49 0 18 48 0 18 48 0 18 48 0 18 48 0 18 48 0 18 48 0 18 48 0 18 48 0 18 49 0 18 49 0 19 49 0 19 49 0 19 49 0 19 49 0 19 49 0 19 50 0 19 50 0 19 50 0 19 50 0 19 50 0 19 50 0 20 50 0 20 50 0 20 50 0 20 50 0 20 50 0 20 50 0 20 50 0 20 50 0 20 50 0 20 50 0 20 50 0 20 50 0 20 50 0 20 50 0 19 50 0 19 50 0 19 50 0 19 50 0 19 50 0 19 50 0 19 49 0 19 49 0 19 49 0 19 49 0 19 49 0 18 49 0 18 49 0 18 48 0 18 48 0 18 48 0 18 48 0 18 48 0 18 48 0 18 48 0 18 48 0 18 48 0 18 48 0 18 48 0 18 48 0 18 48 0 18 48 0 18 49 0 18 49 0 19 49 0 19 49 0 19 49 0 19 49 0 19 49 0 19 49 0 19 50 0 19 50 0 19 50 0 19 50 0 20 50 0 20 50 0 20 50 0 20 51 0 20 51 0 20 51 0 20 51 0 20 51 0 20 51 0 21 51 0 21 52 0 21 52 0 21 52 0 21 52 0 21 52 0 21 52 0 21 52 0 21 53 0 22 53 0 22 53 0 22 53 0 22 53 0 22 53
0 35 69 0 20 51 0 25 57 0 25 57 0 24 56 0 22 54 0 21 52 0 19 50 0 18 48 0 18 48 0 19 50 0 20 50 0 20 51 0 20 51 0 21 52 0 21 52 0 21 51 0 20 51 0 20 51 0 20 51 0 20 51 0 20 50 0 19 50 0 19 49 0 19 49 0 19 49 0 18 49 0 18 48 0 18 48 0 18 48 0 18 48 0 18 48 0 18 48 0 18 48 0 18 49 0 19 49 0 19 49 0 19 49 0 19 49 0 19 50 0 19 50 0 19 50 0 19 50 0 19 50 0 20 50 0 20 50 0 20 50 0 20 50 0 20 50 0 20 50 0 20 50 0 20 50 0 20 51 0 20 50 0 20 51 0 20 50 0 20 50 0 20 50 0 20 50 0 20 50 0 20 50 0 20 50 0 20 50 0 20 50 0 19 50 0 19 50 0 19 50 0 19 50 0 19 50 0 19 50 0 19 49 0 19 49 0 19 49 0 19 49 0 19 49 0 18 49 0 18 49 0 18 48 0 18 48 0 18 48 0 18 48 0 18 48 0 18 48 0 18 48 0 18 48 0 18 48 0 18 48 0 18 48 0 18 48 0 18 48 0 18 49 0 18 49 0 19 49 0 19 49 0 19 49 0 19 49 0 19 49 0 19 50 0 19 50 0 19 50 0 19 50 0 20 50 0 20 50 0 20 50 0 20 50 0 20 51 0 20 51 0 20 51 0 20 51 0 20 51 0 20 51 0 21 51 0 21 52 0 21 52 0 21 52 0 21 52 0 21 52 0 21 52 0 21 52 0 21 53 0 22 53 0 22 53 0 22 53 0 22 53 0 22 53 0 22 53 0 22 53 0 22 53
0 19 49 0 23 54 0 22 53 0 20 51 0 19 49 0 18 48 0 19 49 0 20 50 0 20 51 0 21 52 0 21 52 0 21 52 0 21 52 0 21 52 0 21 52 0 21 52 0 21 51 0 20 51 0 20 51 0 20 50 0 19 50 0 19 49 0 19 49 0 18 49 0 18 48 0 18 48 0 18 48 0 18 48 0 18 48 0 18 49 0 19 49 0 19 49 0 19 49 0 19 50 0 19 50 0 19 50 0 20 50 0 20 50 0 20 50 0 20 51 0 20 51 0 20 51 0 20 51 0 20 51 0 20 51 0 20 51 0 20 51 0 20 51 0 20 51 0 20 51 0 20 51 0 20 51 0 20 51 0 20 51 0 20 51 0 20 51 0 20 51 0 20 51 0 20 51 0 20 50 0 20 50 0 20 50 0 20 50 0 19 50 0 19 50 0 19 50 0 19 50 0 19 50 0 19 49 0 19 49 0 19 49 0 19 49 0 19 49 0 18 49 0 18 49 0 18 48 0 18 48 0 18 48 0 18 48 0 18 48 0 18 48 0 18 48 0 18 48 0 18 48 0 18 48 0 18 48 0 18 48 0 18 48 0 18 49 0 19 49 0 19 49 0 19 49 0 19 49 0 19 49 0 19 50 0 19 50 0 19 50 0 19 50 0 20 50 0 20 50 0 20 50 0 20 51 0 20 51 0 20 51 0 20 51 0 20 51 0 20 51 0 21 51 0 21 51 0 21 52 0 21 52 0 21 52 0 21 52 0 21 52 0 21 52 0 21 52 0 21 52 0 21 53 0 22 53 0 22 53 0 22 53 0 22 53 0 22 53 0 22 53 0 22 53 0 22 53 0 22 53 0 22 53
0 35 69 0 25 57 0 20 50 0 19 49 0 21 52 0 22 53 0 23 54 0 23 55 0 23 55 0 23 55 0 23 55 0 23 54 0 22 54 0 22 53 0 21 53 0 21 52 0 21 51 0 20 51 0 20 50 0 19 50 0 19 49 0 18 48 0 18 48 0 18 48 0 18 48 0 18 48 0 18 49 0 19 49 0 19 49 0 19 50 0 19 50 0 20 50 0 20 50 0 20 51 0 20 51 0 20 51 0 20 51 0 20 51 0 20 51 0 21 51 0 21 51 0 21 51 0 21 51 0 21 52 0 21 51 0 21 52 0 21 52 0 21 51 0 21 51 0 20 51 0 20 51 0 20 51 0 20 51 0 20 51 0 20 51 0 20 51 0 20 51 0 20 51 0 20 51 0 20 50 0 20 50 0 20 50 0 20 50 0 19 50 0 19 50 0 19 50 0 19 49 0 19 49 0 19 49 0 19 49 0 19 49 0 19 49 0 18 49 0 18 48 0 18 48 0 18 48 0 18 48 0 18 48 0 18 48 0 18 48 0 18 48 0 18 48 0 18 48 0 18 48 0 18 48 0 18 49 0 18 49 0 19 49 0 19 49 0 19 49 0 19 49 0 19 49 0 19 50 0 19 50 0 19 50 0 20 50 0 20 50 0 20 50 0 20 50 0 20 51 0 20 51 0 20 51 0 20 51 0 20 51 0 20 51 0 21 51 0 21 52 0 21 52 0 21 52 0 21 52 0 21 52 0 21 52 0 21 52 0 21 52 0 21 53 0 22 53 0 22 53 0 22 53 0 22 53 0 22 53 0 22 53 0 22 53 0 22 53 0 22 53 0 22 54 0 22 54 0 22 54 0 22 54
0 47 85 0 27 59 0 18 48 0 22 53 0 25 57 0 26 58 0 26 59 0 26 58 0 26 58 0 25 57 0 24 56 0 24 55 0 23 54 0 22 54 0 22 53 0 21 52 0 20 51 0 20 50 0 19 50 0 19 49 0 18 48 0 18 48 0 18 48 0 18 48 0 18 49 0 19 49 0 19 50 0 19 50 0 20 50 0 20 50 0 20 51 0 20 51 0 20 51 0 21 51 0 21 52 0 21 52 0 21 52 0 21 52 0 21 52 0 21 52 0 21 52 0 21 52 0 21 52 0 21 52 0 21 52 0 21 52 0 21 52 0 21 52 0 21 52 0 21 52 0 21 52 0 21 51 0 21 51 0 20 51 0 20 51 0 20 51 0 20 51 0 20 51 0 20 51 0 20 50 0 20 50 0 20 50 0 19 50 0 19 50 0 19 50 0 19 50 0 19 49 0 19 49 0 19 49 0 19 49 0 18 49 0 18 49 0 18 48 0 18 48 0 18 48 0 18 48 0 18 48 0 18 48 0 18 48 0 18 48 0 18 48 0 18 48 0 18 48 0 18 48 0 18 49 0 19 49 0 19 49 0 19 49 0 19 49 0 19 49 0 19 50 0 19 50 0 19 50 0 20 50 0 20 50 0 20 50 0 20 51 0 20 51 0 20 51 0 20 51 0 20 51 0 20 51 0 21 51 0 21 52 0 21 52 0 21 52 0 21 52 0 21 52 0 21 52 0 21 52 0 21 52 0 21 52 0 21 53 0 22 53 0 22 53 0 22 53 0 22 53 0 22 53 0 22 53 0 22 53 0 22 53 0 22 53 0 22 54 0 22 54 0 22 54 0 22 54 0 23 54 0 23 54
0 56 97 0 28 61 0 19 49 0 25 57 0 27 60 0 28 61 0 28 62 0 28 61 0 27 60 0 26 59 0 25 58 0 24 56 0 23 55 0 23 54 0 22 53 0 21 52 0 20 51 0 20 50 0 19 49 0 18 49 0 18 48 0 18 48 0 18 48 0 19 49 0 19 49 0 19 50 0 20 50 0 20 51 0 20 51 0 20 51 0 20 51 0 21 52 0 21 52 0 21 52 0 21 52 0 21 52 0 21 52 0 21 52 0 21 52 0 21 52 0 21 52 0 21 52 0 21 52 0 21 52 0 21 52 0 21 52 0 21 52 0 21 52 0 21 52 0 21 52 0 21 52 0 21 52 0 21 51 0 21 51 0 20 51 0 20 51 0 20 51 0 20 51 0 20 51 0 20 50 0 20 50 0 19 50 0 19 50 0 19 50 0 19 50 0 19 49 0 19 49 0 19 49 0 19 49 0 18 49 0 18 49 0 18 48 0 18 48 0 18 48 0 18 48 0 18 48 0 18 48 0 18 48 0 18 48 0 18 48 0 18 48 0 18 48 0 18 49 0 18 49 0 19 49 0 19 49 0 19 49 0 19 49 0 19 50 0 19 50 0 19 50 0 19 50 0 20 50 0 20 50 0 20 50 0 20 51 0 20 51 0 20 51 0 20 51 0 20 51 0 20 51 0 21 51 0 21 52 0 21 52 0 21 52 0 21 52 0 21 52 0 21 52 0 21 52 0 21 52 0 21 53 0 22 53 0 22 53 0 22 53 0 22 53 0 22 53 0 22 53 0 22 53 0 22 53 0 22 53 0 22 53 0 22 53 0 22 54 0 22 54 0 22 54 0 22 54 0 23 54 0 23 54
0 61 103 0 29 62 0 20 51 0 26 59 0 29 62 0 30 63 0 30 63 0 29 62 0 28 61 0 27 60 0 26 58 0 25 57 0 24 55 0 23 54 0 22 53 0 21 52 0 20 51 0 19 50 0 19 49 0 18 48 0 18 48 0 18 48 0 18 49 0 19 49 0 19 50 0 20 50 0 20 51 0 20 51 0 20 51 0 21 51 0 21 52 0 21 52 0 21 52 0 21 52 0 21 52 0 21 52 0 21 53 0 21 53 0 22 53 0 22 53 0 22 53 0 22 53 0 21 53 0 21 53 0 21 52 0 21 52 0 21 52 0 21 52 0 21 52 0 21 52 0 21 52 0 21 52 0 21 52 0 21 51 0 20 51 0 20 51 0 20 51 0 20 51 0 20 51 0 20 50 0 20 50 0 19 50 0 19 50 0 19 50 0 19 49 0 19 49 0 19 49 0 19 49 0 18 49 0 18 49 0 18 48 0 18 48 0 18 48 0 18 48 0 18 48 0 18 48 0 18 48 0 18 48 0 18 48 0 18 48 0 18 48 0 18 49 0 18 49 0 19 49 0 19 49 0 19 49 0 19 49 0 19 49 0 19 50 0 19 50 0 19 50 0 20 50 0 20 50 0 20 50 0 20 51 0 20 51 0 20 51 0 20 51 0 20 51 0 20 51 0 21 51 0 21 52 0 21 52 0 21 52 0 21 52 0 21 52 0 21 52 0 21 52 0 21 52 0 21 52 0 21 53 0 22 53 0 22 53 0 22 53 0 22 53 0 22 53 0 22 53 0 22 53 0 22 53 0 22 53 0 22 53 0 22 53 0 22 53 0 22 54 0 22 54 0 22 54 0 22 54 0 23 54
0 63 105 0 28 62 0 20 51 0 27 59 0 29 63 0 30 64 0 30 64 0 29 63 0 28 61 0 27 60 0 26 58 0 25 57 0 24 55 0 23 54 0 22 53 0 21 52 0 20 51 0 19 50 0 19 49 0 18 48 0 18 48 0 18 48 0 19 49 0 19 49 0 19 50 0 20 50 0 20 51 0 20 51 0 21 51 0 21 52 0 21 52 0 21 52 0 21 52 0 21 52 0 21 52 0 21 53 0 22 53 0 22 53 0 22 53 0 22 53 0 22 53 0 21 53 0 21 53 0 21 53 0 21 52 0 21 52 0 21 52 0 21 52 0 21 52 0 21 52 0 21 52 0 21 52 0 21 51 0 20 51 0 20 51 0 20 51 0 20 51 0 20 51 0 20 50 0 20 50 0 20 50 0 19 50 0 19 50 0 19 50 0 19 49 0 19 49 0 19 49 0 19 49 0 18 49 0 18 48 0 18 48 0 18 48 0 18 48 0 18 48 0 18 48 0 18 48 0 18 48 0 18 48 0 18 48 0 18 48 0 18 48 0 18 49 0 18 49 0 19 49 0 19 49 0 19 49 0 19 49 0 19 49 0 19 50 0 19 50 0 19 50 0 20 50 0 20 50 0 20 50 0 20 51 0 20 51 0 20 51 0 20 51 0 20 51 0 20 51 0 21 51 0 21 52 0 21 52 0 21 52 0 21 52 0 21 52 0 21 52 0 21 52 0 21 52 0 21 52 0 21 52 0 21 53 0 22 53 0 22 53 0 22 53 0 22 53 0 22 53 0 22 53 0 22 53 0 22 53 0 22 53 0 22 53 0 22 53 0 22 53 0 22 53 0 22 54 0 22 54 0 22 54
0 61 103 0 28 61 0 20 51 0 26 59 0 29 62 0 30 63 0 30 63 0 29 62 0 28 61 0 27 59 0 26 58 0 24 56 0 23 55 0 22 54 0 21 52 0 21 51 0 20 50 0 19 50 0 18 49 0 18 48 0 18 48 0 18 48 0 19 49 0 19 49 0 19 50 0 20 50 0 20 51 0 20 51 0 20 51 0 21 51 0 21 52 0 21 52 0 21 52 0 21 52 0 21 52 0 21 52 0 21 52 0 21 52 0 21 53 0 21 53 0 21 52 0 21 52 0 21 52 0 21 52 0 21 52 0 21 52 0 21 52 0 21 52 0 21 52 0 21 52 0 21 52 0 21 51 0 20 51 0 20 51 0 20 51 0 20 51 0 20 51 0 20 50 0 20 50 0 20 50 0 19 50 0 19 50 0 19 50 0 19 49 0 19 49 0 19 49 0 19 49 0 18 49 0 18 49 0 18 48 0 18 48 0 18 48 0 18 48 0 18 48 0 18 48 0 18 48 0 18 48 0 18 48 0 18 48 0 18 48 0 18 48 0 18 49 0 18 49 0 19 49 0 19 49 0 19 49 0 19 49 0 19 49 0 19 50 0 19 50 0 19 50 0 19 50 0 20 50 0 20 50 0 20 50 0 20 51 0 20 51 0 20 51 0 20 51 0 20 51 0 20 51 0 21 51 0 21 51 0 21 52 0 21 52 0 21 52 0 21 52 0 21 52 0 21 52 0 21 52 0 21 52 0 21 52 0 21 52 0 21 53 0 21 53 0 22 53 0 22 53 0 22 53 0 22 53 0 22 53 0 22 53 0 22 53 0 22 53 0 22 53 0 22 53 0 22 53 0 22 53 0 22 54
0 56 97 0 27 60 0 20 51 0 26 58 0 28 61 0 29 62 0 28 61 0 28 61 0 27 60 0 26 58 0 25 57 0 24 56 0 23 54 0 22 53 0 21 52 0 20 51 0 20 50 0 19 49 0 18 49 0 18 48 0 18 48 0 18 48 0 18 49 0 19 49 0 19 50 0 19 50 0 20 50 0 20 51 0 20 51 0 20 51 0 21 51 0 21 52 0 21 52 0 21 52 0 21 52 0 21 52 0 21 52 0 21 52 0 21 52 0 21 52 0 21 52 0 21 52 0 21 52 0 21 52 0 21 52 0 21 52 0 21 52 0 21 52 0 21 52 0 21 51 0 20 51 0 20 51 0 20 51 0 20 51 0 20 51 0 20 51 0 20 50 0 20 50 0 20 50 0 19 50 0 19 50 0 19 50 0 19 49 0 19 49 0 19 49 0 19 49 0 19 49 0 18 49 0 18 48 0 18 48 0 18 48 0 18 48 0 18 48 0 18 48 0 18 48 0 18 48 0 18 48 0 18 48 0 18 48 0 18 48 0 18 48 0 18 49 0 18 49 0 19 49 0 19 49 0 19 49 0 19 49 0 19 49 0 19 50 0 19 50 0 19 50 0 19 50 0 19 50 0 20 50 0 20 50 0 20 50 0 20 51 0 20 51 0 20 51 0 20 51 0 20 51 0 20 51 0 20 51 0 21 51 0 21 51 0 21 52 0 21 52 0 21 52 0 21 52 0 21 52 0 21 52 0 21 52 0 21 52 0 21 52 0 21 52 0 21 52 0 21 52 0 21 52 0 21 52 0 21 53 0 21 53 0 22 53 0 22 53 0 22 53 0 22 53 0 22 53 0 22 53 0 22 53
0 49 88 0 26 58 0 19 50 0 24 56 0 26 59 0 27 59 0 27 59 0 26 59 0 26 58 0 25 57 0 24 56 0 23 55 0 22 54 0 22 53 0 21 52 0 20 51 0 20 50 0 19 49 0 18 49 0 18 48 0 18 48 0 18 48 0 18 49 0 19 49 0 19 49 0 19 50 0 19 50 0 20 50 0 20 51 0 20 51 0 20 51 0 20 51 0 20 51 0 21 51 0 21 51 0 21 52 0 21 52 0 21 52 0 21 52 0 21 52 0 21 52 0 21 52 0 21 52 0 21 52 0 21 52 0 21 51 0 21 51 0 20 51 0 20 51 0 20 51 0 20 51 0 20 51 0 20 51 0 20 51 0 20 50 0 20 50 0 20 50 0 20 50 0 19 50 0 19 50 0 19 50 0 19 49 0 19 49 0 19 49 0 19 49 0 19 49 0 18 49 0 18 49 0 18 48 0 18 48 0 18 48 0 18 48 0 18 48 0 18 48 0 18 48 0 18 48 0 18 48 0 18 48 0 18 48 0 18 48 0 18 48 0 18 48 0 18 49 0 18 49 0 19 49 0 19 49 0 19 49 0 19 49 0 19 49 0 19 49 0 19 50 0 19 50 0 19 50 0 19 50 0 20 50 0 20 50 0 20 50 0 20 50 0 20 51 0 20 51 0 20 51 0 20 51 0 20 51 0 20 51 0 20 51 0 20 51 0 20 51 0 21 51 0 21 51 0 21 52 0 21 52 0 21 52 0 21 52 0 21 52 0 21 52 0 21 52 0 21 52 0 21 52 0 21 52 0 21 52 0 21 52 0 21 52 0 21 52 0 21 52 0 21 52 0 21 52 0 21 53 0 21 53
0 41 77 0 24 56 0 18 49 0 22 53 0 24 56 0 24 56 0 25 57 0 24 56 0 24 56 0 23 55 0 23 54 0 22 53 0 22 53 0 21 52 0 20 51 0 20 50 0 19 50 0 19 49 0 18 49 0 18 48 0 18 48 0 18 48 0 18 48 0 18 49 0 19 49 0 19 49 0 19 50 0 19 50 0 19 50 0 20 50 0 20 50 0 20 51 0 20 51 0 20 51 0 20 51 0 20 51 0 20 51 0 20 51 0 20 51 0 20 51 0 20 51 0 20 51 0 20 51 0 20 51 0 20 51 0 20 51 0 20 51 0 20 51 0 20 51 0 20 51 0 20 51 0 20 50 0 20 50 0 20 50 0 20 50 0 19 50 0 19 50 0 19 50 0 19 50 0 19 50 0 19 49 0 19 49 0 19 49 0 19 49 0 19 49 0 18 49 0 18 49 0 18 49 0 18 48 0 18 48 0 18 48 0 18 48 0 18 48 0 18 48 0 18 48 0 18 48 0 18 48 0 18 48 0 18 48 0 18 48 0 18 48 0 18 48 0 18 48 0 18 49 0 18 49 0 18 49 0 19 49 0 19 49 0 19 49 0 19 49 0 19 49 0 19 49 0 19 50 0 19 50 0 19 50 0 19 50 0 19 50 0 20 50 0 20 50 0 20 50 0 20 50 0 20 50 0 20 51 0 20 51 0 20 51 0 20 51 0 20 51 0 20 51 0 20 51 0 20 51 0 20 51 0 20 51 0 20 51 0 21 51 0 21 51 0 21 51 0 21 52 0 21 52 0 21 52 0 21 52 0 21 52 0 21 52 0 21 52 0 21 52 0 21 52 0 21 52 0 21 52 0 21 52
0 31 65 0 22 54 0 18 48 0 20 50 0 21 52 0 22 53 0 22 53 0 22 54 0 22 53 0 22 53 0 22 53 0 21 52 0 21 52 0 20 51 0 20 51 0 20 50 0 19 50 0 19 49 0 19 49 0 18 48 0 18 48 0 18 48 0 18 48 0 18 48 0 18 48 0 18 49 0 19 49 0 19 49 0 19 49 0 19 50 0 19 50 0 19 50 0 19 50 0 20 50 0 20 50 0 20 50 0 20 50 0 20 50 0 20 50 0 20 50 0 20 51 0 20 51 0 20 50 0 20 50 0 20 50 0 20 50 0 20 50 0 20 50 0 20 50 0 20 50 0 20 50 0 19 50 0 19 50 0 19 50 0 19 50 0 19 50 0 19 50 0 19 50 0 19 49 0 19 49 0 19 49 0 19 49 0 19 49 0 19 49 0 19 49 0 18 49 0 18 49 0 18 48 0 18 48 0 18 48 0 18 48 0 18 48 0 18 48 0 18 48 0 18 48 0 18 48 0 18 48 0 18 48 0 18 48 0 18 48 0 18 48 0 18 48 0 18 48 0 18 48 0 18 48 0 18 49 0 18 49 0 19 49 0 19 49 0 19 49 0 19 49 0 19 49 0 19 49 0 19 49 0 19 49 0 19 50 0 19 50 0 19 50 0 19 50 0 19 50 0 19 50 0 20 50 0 20 50 0 20 50 0 20 50 0 20 50 0 20 50 0 20 51 0 20 51 0 20 51 0 20 51 0 20 51 0 20 51 0 20 51 0 20 51 0 20 51 0 20 51 0 20 51 0 20 51 0 20 51 0 20 51 0 20 51 0 20 51 0 20 51 0 21 51 0 21 51 0 21 51 0 21 51
0 22 53 0 21 51 0 19 49 0 18 48 0 18 49 0 19 50 0 20 50 0 20 51 0 20 51 0 20 51 0 20 51 0 20 51 0 20 51 0 20 50 0 20 50 0 19 50 0 19 50 0 19 49 0 19 49 0 18 49 0 18 48 0 18 48 0 18 48 0 18 48 0 18 48 0 18 48 0 18 48 0 18 49 0 18 49 0 19 49 0 19 49 0 19 49 0 19 49 0 19 49 0 19 50 0 19 50 0 19 50 0 19 50 0 19 50 0 19 50 0 19 50 0 19 50 0 19 50 0 19 50 0 19 50 0 19 50 0 19 50 0 19 50 0 19 50 0 19 50 0 19 50 0 19 50 0 19 50 0 19 50 0 19 49 0 19 49 0 19 49 0 19 49 0 19 49 0 19 49 0 19 49 0 19 49 0 19 49 0 19 49 0 18 49 0 18 49 0 18 49 0 18 48 0 18 48 0 18 48 0 18 48 0 18 48 0 18 48 0 18 48 0 18 48 0 18 48 0 18 48 0 18 48 0 18 48 0 18 48 0 18 48 0 18 48 0 18 48 0 18 48 0 18 48 0 18 48 0 18 48 0 18 49 0 18 49 0 18 49 0 19 49 0 19 49 0 19 49 0 19 49 0 19 49 0 19 49 0 19 49 0 19 49 0 19 49 0 19 50 0 19 50 0 19 50 0 19 50 0 19 50 0 19 50 0 19 50 0 19 50 0 19 50 0 20 50 0 20 50 0 20 50 0 20 50 0 20 50 0 20 50 0 20 50 0 20 50 0 20 51 0 20 51 0 20 51 0 20 51 0 20 51 0 20 51 0 20 51 0 20 51 0 20 51 0 20 51 0 20 51 0 20 51
0 23 55 0 19 49 0 20 51 0 20 51 0 19 50 0 19 49 0 18 48 0 18 48 0 18 49 0 19 49 0 19 49 0 19 50 0 19 50 0 19 50 0 19 50 0 19 49 0 19 49 0 19 49 0 19 49 0 19 49 0 18 49 0 18 48 0 18 48 0 18 48 0 18 48 0 18 48 0 18 48 0 18 48 0 18 48 0 18 48 0 18 48 0 18 48 0 18 49 0 18 49 0 19 49 0 19 49 0 19 49 0 19 49 0 19 49 0 19 49 0 19 49 0 19 49 0 19 49 0 19 49 0 19 49 0 19 49 0 19 49 0 19 49 0 19 49 0 19 49 0 19 49 0 19 49 0 19 49 0 19 49 0 19 49 0 19 49 0 19 49 0 19 49 0 19 49 0 19 49 0 19 49 0 19 49 0 18 49 0 18 49 0 18 49 0 18 49 0 18 48 0 18 48 0 18 48 0 18 48 0 18 48 0 18 48 0 18 48 0 18 48 0 18 48 0 18 48 0 18 48 0 18 48 0 18 48 0 18 48 0 18 48 0 18 48 0 18 48 0 18 48 0 18 48 0 18 48 0 18 48 0 18 48 0 18 48 0 18 48 0 18 49 0 18 49 0 18 49 0 18 49 0 19 49 0 19 49 0 19 49 0 19 49 0 19 49 0 19 49 0 19 49 0 19 49 0 19 49 0 19 49 0 19 49 0 19 49 0 19 49 0 19 50 0 19 50 0 19 50 0 19 50 0 19 50 0 19 50 0 19 50 0 19 50 0 19 50 0 19 50 0 19 50 0 20 50 0 20 50 0 20 50 0 20 50 0 20 50 0 20 50 0 20 50 0 20 50 0 20 50 0 20 50
0 33 67 0 18 48 0 21 53 0 22 54 0 22 53 0 21 52 0 20 51 0 19 50 0 19 49 0 18 48 0 18 48 0 18 48 0 18 49 0 19 49 0 19 49 0 19 49 0 19 49 0 19 49 0 19 49 0 19 49 0 19 49 0 18 49 0 18 49 0 18 48 0 18 48 0 18 48 0 18 48 0 18 48 0 18 48 0 18 48 0 18 48 0 18 48 0 18 48 0 18 48 0 18 48 0 18 48 0 18 48 0 18 48 0 18 48 0 18 48 0 18 49 0 18 49 0 18 49 0 18 49 0 18 49 0 18 49 0 19 49 0 19 49 0 18 49 0 19 49 0 19 49 0 19 49 0 19 49 0 19 49 0 19 49 0 19 49 0 19 49 0 18 49 0 18 49 0 18 49 0 18 49 0 18 49 0 18 49 0 18 49 0 18 48 0 18 48 0 18 48 0 18 48 0 18 48 0 18 48 0 18 48 0 18 48 0 18 48 0 18 48 0 18 48 0 18 48 0 18 48 0 18 48 0 18 48 0 18 48 0 18 48 0 18 48 0 18 48 0 18 48 0 18 48 0 18 48 0 18 48 0 18 48 0 18 48 0 18 48 0 18 48 0 18 48 0 18 48 0 18 48 0 18 48 0 18 49 0 18 49 0 18 49 0 18 49 0 18 49 0 18 49 0 19 49 0 19 49 0 19 49 0 19 49 0 19 49 0 19 49 0 19 49 0 19 49 0 19 49 0 19 49 0 19 49 0 19 49 0 19 49 0 19 49 0 19 49 0 19 49 0 19 50 0 19 50 0 19 50 0 19 50 0 19 50 0 19 50 0 19 50 0 19 50 0 19 50 0 19 50 0 19 50
0 41 78 0 19 50 0 23 54 0 25 57 0 24 56 0 24 55 0 23 54 0 21 52 0 20 51 0 19 50 0 18 49 0 18 48 0 18 48 0 18 48 0 18 49 0 19 49 0 19 49 0 19 49 0 19 49 0 19 49 0 19 49 0 19 49 0 19 49 0 19 49 0 18 49 0 18 49 0 18 48 0 18 48 0 18 48 0 18 48 0 18 48 0 18 48 0 18 48 0 18 48 0 18 48 0 18 48 0 18 48 0 18 48 0 18 48 0 18 48 0 18 48 0 18 48 0 18 48 0 18 48 0 18 48 0 18 48 0 18 48 0 18 48 0 18 48 0 18 48 0 18 48 0 18 48 0 18 49 0 18 49 0 18 49 0 18 49 0 18 49 0 18 49 0 18 49 0 18 49 0 18 48 0 18 48 0 18 48 0 18 48 0 18 48 0 18 48 0 18 48 0 18 48 0 18 48 0 18 48 0 18 48 0 18 48 0 18 48 0 18 48 0 18 48 0 18 48 0 18 48 0 18 48 0 18 48 0 18 48 0 18 48 0 18 48 0 18 48 0 18 48 0 18 48 0 18 48 0 18 48 0 18 48 0 18 48 0 18 48 0 18 48 0 18 48 0 18 48 0 18 48 0 18 48 0 18 48 0 18 48 0 18 48 0 18 48 0 18 48 0 18 48 0 18 48 0 18 48 0 18 48 0 18 48 0 18 49 0 18 49 0 18 49 0 18 49 0 18 49 0 18 49 0 18 49 0 19 49 0 19 49 0 19 49 0 19 49 0 19 49 0 19 49 0 19 49 0 19 49 0 19 49 0 19 49 0 19 49 0 19 49 0 19 49 0 19 49 0 19 49 0 19 49
0 49 88 0 21 51 0 24 55 0 26 59 0 27 59 0 26 58 0 24 56 0 23 55 0 22 53 0 20 51 0 19 50 0 19 49 0 18 48 0 18 48 0 18 48 0 18 49 0 19 49 0 19 49 0 19 49 0 19 49 0 19 49 0 19 49 0 19 49 0 19 49 0 19 49 0 19 49 0 19 49 0 19 49 0 18 49 0 18 49 0 18 48 0 18 48 0 18 48 0 18 48 0 18 48 0 18 48 0 18 48 0 18 48 0 18 48 0 18 48 0 18 48 0 18 48 0 18 48 0 18 48 0 18 48 0 18 48 0 18 48 0 18 48 0 18 48 0 18 48 0 18 48 0 18 48 0 18 48 0 18 48 0 18 48 0 18 48 0 18 48 0 18 48 0 18 48 0 18 48 0 18 48 0 18 48 0 18 48 0 18 48 0 18 48 0 18 48 0 18 48 0 18 48 0 18 48 0 18 48 0 18 48 0 18 48 0 18 48 0 18 48 0 18 48 0 18 48 0 18 48 0 18 48 0 18 48 0 18 48 0 18 48 0 18 48 0 18 48 0 18 48 0 18 48 0 18 48 0 18 48 0 18 48 0 18 48 0 18 48 0 18 48 0 18 48 0 18 48 0 18 48 0 18 48 0 18 48 0 18 48 0 18 48 0 18 48 0 18 48 0 18 48 0 18 48 0 18 48 0 18 48 0 18 48 0 18 48 0 18 48 0 18 48 0 18 48 0 18 48 0 18 48 0 18 48 0 18 48 0 18 48 0 18 48 0 18 48 0 18 49 0 18 49 0 18 49 0 18 49 0 18 49 0 18 49 0 18 49 0 18 49 0 18 49 0 18 49 0 18 49 0 18 48
0 55 95 0 22 53 0 24 56 0 28 61 0 28 61 0 28 61 0 26 59 0 24 56 0 23 54 0 22 53 0 20 51 0 19 50 0 18 49 0 18 48 0 18 48 0 18 48 0 18 49 0 19 49 0 19 49 0 19 50 0 19 50 0 19 50 0 19 50 0 19 50 0 19 50 0 19 49 0 19 49 0 19 49 0 19 49 0 19 49 0 19 49 0 19 49 0 19 49 0 18 49 0 18 49 0 18 49 0 18 48 0 18 48 0 18 48 0 18 48 0 18 48 0 18 48 0 18 48 0 18 48 0 18 48 0 18 48 0 18 48 0 18 48 0 18 48 0 18 48 0 18 48 0 18 48 0 18 48 0 18 48 0 18 48 0 18 48 0 18 48 0 18 48 0 18 48 0 18 48 0 18 48 0 18 48 0 18 48 0 18 48 0 18 48 0 18 48 0 18 48 0 18 48 0 18 48 0 18 48 0 18 48 0 18 48 0 18 48 0 18 48 0 18 48 0 18 48 0 18 48 0 18 48 0 18 48 0 18 48 0 18 48 0 18 48 0 18 48 0 18 48 0 18 48 0 18 48 0 18 48 0 18 48 0 18 48 0 18 48 0 18 48 0 18 48 0 18 48 0 18 48 0 18 48 0 18 48 0 18 48 0 18 48 0 18 48 0 18 48 0 18 48 0 18 48 0 18 48 0 18 48 0 18 48 0 18 48 0 18 48 0 18 48 0 18 48 0 18 48 0 18 48 0 18 48 0 18 48 0 18 48 0 18 48 0 18 48 0 18 48 0 18 48 0 18 48 0 18 48 0 18 48 0 18 48 0 18 48 0 18 48 0 18 48 0 18 48 0 18 48 0 18 48
0 60 101 0 22 54 0 25 57 0 29 62 0 30 63 0 29 62 0 27 60 0 26 58 0 24 56 0 22 54 0 21 52 0 20 51 0 19 49 0 18 48 0 18 48 0 18 48 0 19 49 0 19 49 0 19 49 0 19 50 0 19 50 0 19 50 0 19 50 0 19 50 0 19 50 0 19 50 0 19 50 0 19 50 0 19 50 0 19 49 0 19 49 0 19 49 0 19 49 0 19 49 0 19 49 0 19 49 0 19 49 0 18 49 0 18 49 0 18 49 0 18 48 0 18 48 0 18 48 0 18 48 0 18 48 0 18 48 0 18 48 0 18 48 0 18 48 0 18 48 0 18 48 0 18 48 0 18 48 0 18 48 0 18 48 0 18 48 0 18 48 0 18 48 0 18 48 0 18 48 0 18 48 0 18 48 0 18 48 0 18 48 0 18 48 0 18 48 0 18 48 0 18 48 0 18 48 0 18 48 0 18 48 0 18 48 0 18 48 0 18 48 0 18 48 0 18 48 0 18 48 0 18 48 0 18 48 0 18 48 0 18 48 0 18 48 0 18 48 0 18 48 0 18 48 0 18 48 0 18 48 0 18 48 0 18 48 0 18 48 0 18 48 0 18 48 0 18 48 0 18 48 0 18 48 0 18 48 0 18 48 0 18 48 0 18 48 0 18 48 0 18 48 0 18 48 0 18 48 0 18 48 0 18 48 0 18 48 0 18 48 0 18 48 0 18 48 0 18 48 0 18 48 0 18 48 0 18 48 0 18 48 0 18 48 0 18 48 0 18 48 0 18 48 0 18 48 0 18 48 0 18 48 0 18 48 0 18 48 0 18 48 0 18 48 0 18 48 0 18 48 0 18 48
0 63 105 0 23 55 0 25 58 0 30 63 0 31 64 0 30 63 0 28 61 0 26 59 0 25 57 0 23 55 0 22 53 0 20 51 0 19 50 0 18 49 0 18 48 0 18 48 0 18 49 0 19 49 0 19 49 0 19 50 0 19 50 0 19 50 0 19 50 0 19 50 0 19 50 0 19 50 0 19 50 0 19 50 0 19 50 0 19 50 0 19 50 0 19 50 0 19 50 0 19 49 0 19 49 0 19 49 0 19 49 0 19 49 0 19 49 0 19 49 0 19 49 0 18 49 0 18 49 0 18 48 0 18 48 0 18 48 0 18 48 0 18 48 0 18 48 0 18 48 0 18 48 0 18 48 0 18 48 0 18 48 0 18 48 0 18 48 0 18 48 0 18 48 0 18 48 0 18 48 0 18 48 0 18 48 0 18 48 0 18 48 0 18 48 0 18 48 0 18 48 0 18 48 0 18 48 0 18 48 0 18 48 0 18 48 0 18 48 0 18 48 0 18 48 0 18 48 0 18 48 0 18 48 0 18 48 0 18 48 0 18 48 0 18 48 0 18 48 0 18 48 0 18 48 0 18 48 0 18 48 0 18 48 0 18 48 0 18 48 0 18 48 0 18 48 0 18 48 0 18 48 0 18 48 0 18 48 0 18 48 0 18 48 0 18 48 0 18 48 0 18 48 0 18 48 0 18 48 0 18 48 0 18 48 0 18 48 0 18 48 0 18 48 0 18 48 0 18 48 0 18 48 0 18 48 0 18 48 0 18 48 0 18 48 0 18 48 0 18 48 0 18 48 0 18 48 0 18 48 0 18 48 0 18 48 0 18 48 0 18 48 0 18 48 0 18 48 0 18 48 0 18 48
0 64 107 0 23 55 0 26 58 0 30 64 0 31 65 0 30 64 0 29 62 0 27 59 0 25 57 0 23 55 0 22 53 0 21 51 0 19 50 0 19 49 0 18 48 0 18 48 0 18 48 0 19 49 0 19 49 0 19 50 0 19 50 0 19 50 0 20 50 0 20 50 0 20 50 0 20 50 0 20 50 0 19 50 0 19 50 0 19 50 0 19 50 0 19 50 0 19 50 0 19 50 0 19 50 0 19 49 0 19 49 0 19 49 0 19 49 0 19 49 0 19 49 0 19 49 0 19 49 0 18 49 0 18 49 0 18 48 0 18 48 0 18 48 0 18 48 0 18 48 0 18 48 0 18 48 0 18 48 0 18 48 0 18 48 0 18 48 0 18 48 0 18 48 0 18 48 0 18 48 0 18 48 0 18 48 0 18 48 0 18 48 0 18 48 0 18 48 0 18 48 0 18 48 0 18 48 0 18 48 0 18 48 0 18 48 0 18 48 0 18 48 0 18 48 0 18 48 0 18 48 0 18 48 0 18 48 0 18 48 0 18 48 0 18 48 0 18 48 0 18 48 0 18 48 0 18 48 0 18 48 0 18 48 0 18 48 0 18 48 0 18 48 0 18 48 0 18 48 0 18 48 0 18 48 0 18 48 0 18 48 0 18 48 0 18 48 0 18 48 0 18 48 0 18 48 0 18 48 0 18 48 0 18 48 0 18 48 0 18 48 0 18 48 0 18 48 0 18 48 0 18 48 0 18 48 0 18 48 0 18 48 0 18 48 0 18 48 0 18 48 0 18 48 0 18 48 0 18 48 0 18 48 0 18 48 0 18 48 0 18 48 0 18 48 0 18 48 0 18 48 0 18 48
0 64 107 0 23 55 0 26 58 0 30 64 0 31 65 0 30 64 0 29 62 0 27 60 0 25 57 0 24 55 0 22 53 0 21 52 0 20 50 0 19 49 0 18 48 0 18 48 0 18 48 0 19 49 0 19 49 0 19 50 0 19 50 0 19 50 0 20 50 0 20 50 0 20 50 0 20 50 0 20 50 0 20 50 0 20 50 0 19 50 0 19 50 0 19 50 0 19 50 0 19 50 0 19 50 0 19 50 0 19 50 0 19 49 0 19 49 0 19 49 0 19 49 0 19 49 0 19 49 0 19 49 0 18 49 0 18 49 0 18 49 0 18 48 0 18 48 0 18 48 0 18 48 0 18 48 0 18 48 0 18 48 0 18 48 0 18 48 0 18 48 0 18 48 0 18 48 0 18 48 0 18 48 0 18 48 0 18 48 0 18 48 0 18 48 0 18 48 0 18 48 0 18 48 0 18 48 0 18 48 0 18 48 0 18 48 0 18 48 0 18 48 0 18 48 0 18 48 0 18 48 0 18 48 0 18 48 0 18 48 0 18 48 0 18 48 0 18 48 0 18 48 0 18 48 0 18 48 0 18 48 0 18 48 0 18 48 0 18 48 0 18 48 0 18 48 0 18 48 0 18 48 0 18 48 0 18 48 0 18 48 0 18 48 0 18 48 0 18 48 0 18 48 0 18 48 0 18 48 0 18 48 0 18 48 0 18 48 0 18 48 0 18 48 0 18 48 0 18 48 0 18 48 0 18 48 0 18 48 0 18 48 0 18 48 0 18 48 0 18 48 0 18 48 0 18 48 0 18 48 0 18 48 0 18 48 0 18 48 0 18 48 0 18 48 0 18 48 0 18 49 0 18 49
0 63 105 0 23 55 0 25 58 0 30 63 0 31 65 0 30 64 0 29 62 0 27 59 0 25 57 0 23 55 0 22 53 0 21 51 0 20 50 0 19 49 0 18 48 0 18 48 0 18 48 0 19 49 0 19 49 0 19 50 0 19 50 0 19 50 0 19 50 0 20 50 0 20 50 0 20 50 0 20 50 0 19 50 0 19 50 0 20 50 0 19 50 0 19 50 0 19 50 0 19 50 0 19 50 0 19 50 0 19 50 0 19 50 0 19 49 0 19 49 0 19 49 0 19 49 0 19 49 0 19 49 0 19 49 0 18 49 0 18 49 0 18 49 0 18 48 0 18 48 0 18 48 0 18 48 0 18 48 0 18 48 0 18 48 0 18 48 0 18 48 0 18 48 0 18 48 0 18 48 0 18 48 0 18 48 0 18 48 0 18 48 0 18 48 0 18 48 0 18 48 0 18 48 0 18 48 0 18 48 0 18 48 0 18 48 0 18 48 0 18 48 0 18 48 0 18 48 0 18 48 0 18 48 0 18 48 0 18 48 0 18 48 0 18 48 0 18 48 0 18 48 0 18 48 0 18 48 0 18 48 0 18 48 0 18 48 0 18 48 0 18 48 0 18 48 0 18 48 0 18 48 0 18 48 0 18 48 0 18 48 0 18 48 0 18 48 0 18 48 0 18 48 0 18 48 0 18 48 0 18 48 0 18 48 0 18 48 0 18 48 0 18 48 0 18 48 0 18 48 0 18 48 0 18 48 0 18 48 0 18 48 0 18 48 0 18 48 0 18 48 0 18 48 0 18 48 0 18 48 0 18 48 0 18 48 0 18 48 0 18 49 0 18 49 0 18 49 0 19 49 0 19 49
0 60 101 0 23 54 0 25 57 0 29 62 0 30 64 0 29 63 0 28 61 0 26 59 0 25 57 0 23 55 0 22 53 0 21 51 0 19 50 0 19 49 0 18 48 0 18 48 0 18 48 0 18 49 0 19 49 0 19 49 0 19 50 0 19 50 0 19 50 0 19 50 0 19 50 0 19 50 0 19 50 0 19 50 0 19 50 0 19 50 0 19 50 0 19 50 0 19 50 0 19 50 0 19 50 0 19 50 0 19 50 0 19 49 0 19 49 0 19 49 0 19 49 0 19 49 0 19 49 0 19 49 0 19 49 0 19 49 0 18 49 0 18 49 0 18 49 0 18 48 0 18 48 0 18 48 0 18 48 0 18 48 0 18 48 0 18 48 0 18 48 0 18 48 0 18 48 0 18 48 0 18 48 0 18 48 0 18 48 0 18 48 0 18 48 0 18 48 0 18 48 0 18 48 0 18 48 0 18 48 0 18 48 0 18 48 0 18 48 0 18 48 0 18 48 0 18 48 0 18 48 0 18 48 0 18 48 0 18 48 0 18 48 0 18 48 0 18 48 0 18 48 0 18 48 0 18 48 0 18 48 0 18 48 0 18 48 0 18 48 0 18 48 0 18 48 0 18 48 0 18 48 0 18 48 0 18 48 0 18 48 0 18 48 0 18 48 0 18 48 0 18 48 0 18 48 0 18 48 0 18 48 0 18 48 0 18 49 0 18 49 0 18 49 0 18 49 0 18 49 0 18 49 0 18 49 0 18 49 0 18 49 0 18 49 0 18 49 0 18 49 0 18 49 0 18 49 0 18 49 0 18 49 0 18 49 0 18 49 0 18 49 0 19 49 0 19 49 0 19 49 0 19 49
0 56 96 0 22 53 0 24 56 0 28 61 0 29 62 0 28 61 0 27 60 0 25 58 0 24 56 0 22 54 0 21 52 0 20 51 0 19 50 0 19 49 0 18 48 0 18 48 0 18 48 0 18 49 0 19 49 0 19 49 0 19 49 0 19 50 0 19 50 0 19 50 0 19 50 0 19 50 0 19 50 0 19 50 0 19 50 0 19 50 0 19 50 0 19 50 0 19 50 0 19 50 0 19 49 0 19 49 0 19 49 0 19 49 0 19 49 0 19 49 0 19 49 0 19 49 0 19 49 0 19 49 0 19 49 0 18 49 0 18 49 0 18 49 0 18 49 0 18 48 0 18 48 0 18 48 0 18 48 0 18 48 0 18 48 0 18 48 0 18 48 0 18 48 0 18 48 0 18 48 0 18 48 0 18 48 0 18 48 0 18 48 0 18 48 0 18 48 0 18 48 0 18 48 0 18 48 0 18 48 0 18 48 0 18 48 0 18 48 0 18 48 0 18 48 0 18 48 0 18 48 0 18 48 0 18 48 0 18 48 0 18 48 0 18 48 0 18 48 0 18 48 0 18 48 0 18 48 0 18 48 0 18 48 0 18 48 0 18 48 0 18 48 0 18 48 0 18 48 0 18 48 0 18 48 0 18 48 0 18 48 0 18 48 0 18 48 0 18 48 0 18 48 0 18 48 0 18 48 0 18 48 0 18 49 0 18 49 0 18 49 0 18 49 0 18 49 0 18 49 0 18 49 0 18 49 0 18 49 0 18 49 0 18 49 0 18 49 0 18 49 0 18 49 0 18 49 0 18 49 0 19 49 0 19 49 0 19 49 0 19 49 0 19 49 0 19 49 0 19 49 0 19 49
0 50 89 0 21 52 0 23 55 0 27 59 0 27 60 0 27 60 0 26 58 0 24 56 0 23 55 0 22 53 0 21 52 0 20 51 0 19 50 0 18 49 0 18 48 0 18 48 0 18 48 0 18 48 0 18 49 0 19 49 0 19 49 0 19 49 0 19 49 0 19 49 0 19 49 0 19 49 0 19 49 0 19 49 0 19 49 0 19 49 0 19 49 0 19 49 0 19 49 0 19 49 0 19 49 0 19 49 0 19 49 0 19 49 0 19 49 0 19 49 0 19 49 0 19 49 0 19 49 0 19 49 0 18 49 0 18 49 0 18 49 0 18 49 0 18 48 0 18 48 0 18 48 0 18 48 0 18 48 0 18 48 0 18 48 0 18 48 0 18 48 0 18 48 0 18 48 0 18 48 0 18 48 0 18 48 0 18 48 0 18 48 0 18 48 0 18 48 0 18 48 0 18 48 0 18 48 0 18 48 0 18 48 0 18 48 0 18 48 0 18 48 0 18 48 0 18 48 0 18 48 0 18 48 0 18 48 0 18 48 0 18 48 0 18 48 0 18 48 0 18 48 0 18 48 0 18 48 0 18 48 0 18 48 0 18 48 0 18 48 0 18 48 0 18 48 0 18 48 0 18 48 0 18 48 0 18 48 0 18 48 0 18 48 0 18 48 0 18 48 0 18 48 0 18 48 0 18 48 0 18 49 0 18 49 0 18 49 0 18 49 0 18 49 0 18 49 0 18 49 0 18 49 0 18 49 0 18 49 0 18 49 0 18 49 0 19 49 0 19 49 0 19 49 0 19 49 0 19 49 0 19 49 0 19 49 0 19 49 0 19 49 0 19 49 0 19 49 0 19 49 0 19 49
0 44 82 0 21 51 0 22 54 0 25 57 0 26 58 0 25 57 0 24 56 0 23 55 0 22 53 0 21 52 0 20 51 0 20 50 0 19 49 0 18 49 0 18 48 0 18 48 0 18 48 0 18 48 0 18 48 0 18 49 0 19 49 0 19 49 0 19 49 0 19 49 0 19 49 0 19 49 0 19 49 0 19 49 0 19 49 0 19 49 0 19 49 0 19 49 0 19 49 0 19 49 0 19 49 0 19 49 0 19 49 0 19 49 0 19 49 0 19 49 0 18 49 0 18 49 0 18 49 0 18 49 0 18 49 0 18 49 0 18 49 0 18 48 0 18 48 0 18 48 0 18 48 0 18 48 0 18 48 0 18 48 0 18 48 0 18 48 0 18 48 0 18 48 0 18 48 0 18 48 0 18 48 0 18 48 0 18 48 0 18 48 0 18 48 0 18 48 0 18 48 0 18 48 0 18 48 0 18 48 0 18 48 0 18 48 0 18 48 0 18 48 0 18 48 0 18 48 0 18 48 0 18 48 0 18 48 0 18 48 0 18 48 0 18 48 0 18 48 0 18 48 0 18 48 0 18 48 0 18 48 0 18 48 0 18 48 0 18 48 0 18 48 0 18 48 0 18 48 0 18 48 0 18 48 0 18 48 0 18 48 0 18 48 0 18 48 0 18 48 0 18 48 0 18 48 0 18 48 0 18 48 0 18 49 0 18 49 0 18 49 0 18 49 0 18 49 0 18 49 0 18 49 0 18 49 0 19 49 0 19 49 0 19 49 0 19 49 0 19 49 0 19 49 0 19 49 0 19 49 0 19 49 0 19 49 0 19 49 0 19 49 0 19 49 0 19 49 0 19 49 0 19 50
0 37 73 0 20 50 0 21 52 0 23 55 0 24 55 0 23 55 0 23 54 0 22 53 0 21 52 0 20 51 0 20 50 0 19 49 0 19 49 0 18 48 0 18 48 0 18 48 0 18 48 0 18 48 0 18 48 0 18 48 0 18 48 0 18 49 0 18 49 0 18 49 0 18 49 0 18 49 0 18 49 0 18 49 0 18 49 0 18 49 0 19 49 0 18 49 0 18 49 0 18 49 0 18 49 0 18 49 0 18 49 0 18 49 0 18 49 0 18 49 0 18 49 0 18 49 0 18 49 0 18 48 0 18 48 0 18 48 0 18 48 0 18 48 0 18 48 0 18 48 0 18 48 0 18 48 0 18 48 0 18 48 0 18 48 0 18 48 0 18 48 0 18 48 0 18 48 0 18 48 0 18 48 0 18 48 0 18 48 0 18 48 0 18 48 0 18 48 0 18 48 0 18 48 0 18 48 0 18 48 0 18 48 0 18 48 0 18 48 0 18 48 0 18 48 0 18 48 0 18 48 0 18 48 0 18 48 0 18 48 0 18 48 0 18 48 0 18 48 0 18 48 0 18 48 0 18 48 0 18 48 0 18 48 0 18 48 0 18 48 0 18 48 0 18 48 0 18 48 0 18 48 0 18 48 0 18 48 0 18 48 0 18 48 0 18 48 0 18 48 0 18 48 0 18 48 0 18 48 0 18 48 0 18 48 0 18 49 0 18 49 0 18 49 0 18 49 0 18 49 0 18 49 0 18 49 0 19 49 0 19 49 0 19 49 0 19 49 0 19 49 0 19 49 0 19 49 0 19 49 0 19 49 0 19 49 0 19 49 0 19 49 0 19 49 0 19 49 0 19 50 0 19 50
0 30 63 0 19 49 0 20 51 0 21 52 0 22 53 0 21 52 0 21 52 0 20 51 0 20 50 0 19 50 0 19 49 0 18 49 0 18 48 0 18 48 0 18 48 0 18 48 0 18 48 0 18 48 0 18 48 0 18 48 0 18 48 0 18 48 0 18 48 0 18 48 0 18 48 0 18 48 0 18 48 0 18 48 0 18 48 0 18 48 0 18 48 0 18 48 0 18 48 0 18 48 0 18 48 0 18 48 0 18 48 0 18 48 0 18 48 0 18 48 0 18 48 0 18 48 0 18 48 0 18 48 0 18 48 0 18 48 0 18 48 0 18 48 0 18 48 0 18 48 0 18 48 0 18 48 0 18 48 0 18 48 0 18 48 0 18 48 0 18 48 0 18 48 0 18 48 0 18 48 0 18 48 0 18 48 0 18 48 0 18 48 0 18 48 0 18 48 0 18 48 0 18 48 0 18 48 0 18 48 0 18 48 0 18 48 0 18 48 0 18 48 0 18 48 0 18 48 0 18 48 0 18 48 0 18 48 0 18 48 0 18 48 0 18 48 0 18 48 0 18 48 0 18 48 0 18 48 0 18 48 0 18 48 0 18 48 0 18 48 0 18 48 0 18 48 0 18 48 0 18 48 0 18 48 0 18 48 0 18 48 0 18 48 0 18 48 0 18 48 0 18 48 0 18 48 0 18 48 0 18 48 0 18 48 0 18 48 0 18 48 0 18 49 0 18 49 0 18 49 0 18 49 0 18 49 0 18 49 0 19 49 0 19 49 0 19 49 0 19 49 0 19 49 0 19 49 0 19 49 0 19 49 0 19 49 0 19 49 0 19 49 0 19 49 0 19 50 0 19 50 0 19 50
0 22 54 0 18 48 0 19 49 0 19 50 0 19 50 0 19 50 0 19 49 0 19 49 0 18 49 0 18 48 0 18 48 0 18 48 0 18 48 0 18 48 0 18 48 0 18 48 0 18 48 0 18 48 0 18 48 0 18 48 0 18 48 0 18 48 0 18 48 0 18 48 0 18 48 0 18 48 0 18 48 0 18 48 0 18 48 0 18 48 0 18 48 0 18 48 0 18 48 0 18 48 0 18 48 0 18 48 0 18 48 0 18 48 0 18 48 0 18 48 0 18 48 0 18 48 0 18 48 0 18 48 0 18 48 0 18 48 0 18 48 0 18 48 0 18 48 0 18 48 0 18 48 0 18 48 0 18 48 0 18 48 0 18 48 0 18 48 0 18 48 0 18 48 0 18 48 0 18 48 0 18 48 0 18 48 0 18 48 0 18 48 0 18 48 0 18 48 0 18 48 0 18 48 0 18 48 0 18 48 0 18 48 0 18 48 0 18 48 0 18 48 0 18 48 0 18 48 0 18 48 0 18 48 0 18 48 0 18 48 0 18 48 0 18 48 0 18 48 0 18 48 0 18 48 0 18 48 0 18 48 0 18 48 0 18 48 0 18 48 0 18 48 0 18 48 0 18 48 0 18 48 0 18 48 0 18 48 0 18 48 0 18 48 0 18 48 0 18 48 0 18 48 0 18 48 0 18 48 0 18 48 0 18 48 0 18 48 0 18 48 0 18 48 0 18 49 0 18 49 0 18 49 0 18 49 0 18 49 0 19 49 0 19 49 0 19 49 0 19 49 0 19 49 0 19 49 0 19 49 0 19 49 0 19 49 0 19 49 0 19 49 0 19 49 0 19 50 0 19 50 0 19 50
0 20 51 0 18 49 0 18 48 0 18 48 0 18 48 0 18 48 0 18 48 0 18 48 0 18 48 0 18 48 0 18 48 0 18 48 0 18 48 0 18 48 0 18 48 0 18 48 0 18 48 0 18 48 0 18 48 0 18 48 0 18 48 0 18 48 0 18 48 0 18 48 0 18 48 0 18 48 0 18 48 0 18 48 0 18 48 0 18 48 0 18 48 0 18 48 0 18 48 0 18 48 0 18 48 0 18 48 0 18 48 0 18 48 0 18 48 0 18 48 0 18 48 0 18 48 0 18 48 0 18 48 0 18 48 0 18 48 0 18 48 0 18 48 0 18 48 0 18 48 0 18 48 0 18 48 0 18 48 0 18 48 0 18 48 0 18 48 0 18 48 0 18 48 0 18 48 0 18 48 0 18 48 0 18 48 0 18 48 0 18 48 0 18 48 0 18 48 0 18 48 0 18 48 0 18 48 0 18 48 0 18 48 0 18 48 0 18 48 0 18 48 0 18 48 0 18 48 0 18 48 0 18 48 0 18 48 0 18 48 0 18 48 0 18 48 0 18 48 0 18 48 0 18 48 0 18 48 0 18 48 0 18 48 0 18 48 0 18 48 0 18 48 0 18 48 0 18 48 0 18 48 0 18 48 0 18 48 0 18 48 0 18 48 0 18 48 0 18 48 0 18 48 0 18 48 0 18 48 0 18 48 0 18 48 0 18 48 0 18 48 0 18 48 0 18 48 0 18 48 0 18 49 0 18 49 0 18 49 0 18 49 0 19 49 0 19 49 0 19 49 0 19 49 0 19 49 0 19 49 0 19 49 0 19 49 0 19 49 0 19 49 0 19 50 0 19 50 0 19 50 0 19 50
0 28 61 0 19 50 0 19 49 0 20 50 0 20 51 0 20 51 0 20 50 0 19 50 0 19 50 0 19 49 0 18 49 0 18 48 0 18 48 0 18 48 0 18 48 0 18 48 0 18 48 0 18 48 0 18 48 0 18 48 0 18 48 0 18 48 0 18 48 0 18 48 0 18 48 0 18 48 0 18 48 0 18 48 0 18 48 0 18 48 0 18 48 0 18 48 0 18 48 0 18 48 0 18 48 0 18 48 0 18 48 0 18 48 0 18 48 0 18 48 0 18 48 0 18 48 0 18 48 0 18 48 0 18 48 0 18 48 0 18 48 0 18 48 0 18 48 0 18 48 0 18 48 0 18 48 0 18 48 0 18 48 0 18 48 0 18 48 0 18 48 0 18 48 0 18 48 0 18 48 0 18 48 0 18 48 0 18 48 0 18 48 0 18 48 0 18 48 0 18 48 0 18 48 0 18 48 0 18 48 0 18 48 0 18 48 0 18 48 0 18 48 0 18 48 0 18 48 0 18 48 0 18 48 0 18 48 0 18 48 0 18 48 0 18 48 0 18 48 0 18 48 0 18 48 0 18 48 0 18 48 0 18 48 0 18 48 0 18 48 0 18 48 0 18 48 0 18 48 0 18 48 0 18 48 0 18 48 0 18 48 0 18 48 0 18 48 0 18 48 0 18 48 0 18 48 0 18 48 0 18 48 0 18 48 0 18 48 0 18 48 0 18 48 0 18 48 0 18 48 0 18 49 0 18 49 0 18 49 0 18 49 0 19 49 0 19 49 0 19 49 0 19 49 0 19 49 0 19 49 0 19 49 0 19 49 0 19 49 0 19 49 0 19 50 0 19 50 0 19 50 0 19 50
0 35 70 0 20 51 0 20 51 0 22 53 0 22 54 0 22 53 0 22 53 0 21 52 0 20 51 0 20 50 0 19 50 0 19 49 0 18 49 0 18 48 0 18 48 0 18 48 0 18 48 0 18 48 0 18 48 0 18 48 0 18 48 0 18 49 0 18 49 0 18 49 0 18 49 0 18 49 0 18 49 0 18 49 0 18 49 0 18 48 0 18 48 0 18 48 0 18 48 0 18 48 0 18 48 0 18 48 0 18 48 0 18 48 0 18 48 0 18 48 0 18 48 0 18 48 0 18 48 0 18 48 0 18 48 0 18 48 0 18 48 0 18 48 0 18 48 0 18 48 0 18 48 0 18 48 0 18 48 0 18 48 0 18 48 0 18 48 0 18 48 0 18 48 0 18 48 0 18 48 0 18 48 0 18 48 0 18 48 0 18 48 0 18 48 0 18 48 0 18 48 0 18 48 0 18 48 0 18 48 0 18 48 0 18 48 0 18 48 0 18 48 0 18 48 0 18 48 0 18 48 0 18 48 0 18 48 0 18 48 0 18 48 0 18 48 0 18 48 0 18 48 0 18 48 0 18 48 0 18 48 0 18 48 0 18 48 0 18 48 0 18 48 0 18 48 0 18 48 0 18 48 0 18 48 0 18 48 0 18 48 0 18 48 0 18 48 0 18 48 0 18 48 0 18 48 0 18 48 0 18 48 0 18 48 0 18 48 0 18 48 0 18 48 0 18 48 0 18 48 0 18 48 0 18 49 0 18 49 0 18 49 0 18 49 0 19 49 0 19 49 0 19 49 0 19 49 0 19 49 0 19 49 0 19 49 0 19 49 0 19 50 0 19 50 0 19 50 0 19 50 0 19 50
0 42 79 0 21 52 0 21 52 0 24 55 0 24 56 0 24 56 0 23 55 0 22 54 0 22 53 0 21 52 0 20 51 0 19 50 0 19 49 0 18 48 0 18 48 0 18 48 0 18 48 0 18 48 0 18 49 0 18 49 0 19 49 0 19 49 0 19 49 0 19 49 0 19 49 0 19 49 0 19 49 0 19 49 0 19 49 0 19 49 0 19 49 0 19 49 0 19 49 0 18 49 0 18 49 0 18 49 0 18 48 0 18 48 0 18 48 0 18 48 0 18 48 0 18 48 0 18 48 0 18 48 0 18 48 0 18 48 0 18 48 0 18 48 0 18 48 0 18 48 0 18 48 0 18 48 0 18 48 0 18 48 0 18 48 0 18 48 0 18 48 0 18 48 0 18 48 0 18 48 0 18 48 0 18 48 0 18 48 0 18 48 0 18 48 0 18 49 0 18 49 0 18 49 0 18 49 0 18 49 0 18 49 0 18 48 0 18 49 0 18 48 0 18 48 0 18 48 0 18 48 0 18 48 0 18 48 0 18 48 0 18 48 0 18 48 0 18 48 0 18 48 0 18 48 0 18 48 0 18 48 0 18 48 0 18 48 0 18 48 0 18 48 0 18 48 0 18 48 0 18 48 0 18 48 0 18 48 0 18 48 0 18 48 0 18 48 0 18 48 0 18 48 0 18 48 0 18 48 0 18 48 0 18 48 0 18 48 0 18 48 0 18 48 0 18 48 0 18 48 0 18 48 0 18 48 0 18 49 0 18 49 0 18 49 0 19 49 0 19 49 0 19 49 0 19 49 0 19 49 0 19 49 0 19 49 0 19 50 0 19 50 0 19 50 0 19 50 0 19 50 0 19 50
0 48 87 0 22 53 0 22 54 0 26 58 0 26 59 0 26 58 0 25 57 0 24 56 0 23 54 0 21 53 0 20 51 0 20 50 0 19 49 0 18 48 0 18 48 0 18 48 0 18 48 0 18 49 0 19 49 0 19 49 0 19 49 0 19 49 0 19 50 0 19 50 0 19 50 0 19 50 0 19 49 0 19 49 0 19 49 0 19 49 0 19 49 0 19 49 0 19 49 0 19 49 0 19 49 0 19 49 0 18 49 0 18 49 0 18 49 0 18 48 0 18 48 0 18 48 0 18 48 0 18 48 0 18 48 0 18 48 0 18 48 0 18 48 0 18 48 0 18 48 0 18 48 0 18 48 0 18 48 0 18 48 0 18 48 0 18 48 0 18 48 0 18 48 0 18 48 0 18 48 0 18 48 0 18 49 0 18 49 0 18 49 0 18 49 0 18 49 0 18 49 0 18 49 0 18 49 0 18 49 0 18 49 0 18 49 0 18 49 0 18 49 0 18 49 0 18 49 0 18 49 0 18 49 0 18 48 0 18 48 0 18 48 0 18 48 0 18 48 0 18 48 0 18 48 0 18 48 0 18 48 0 18 48 0 18 48 0 18 48 0 18 48 0 18 48 0 18 48 0 18 48 0 18 48 0 18 48 0 18 48 0 18 48 0 18 48 0 18 48 0 18 48 0 18 48 0 18 48 0 18 48 0 18 48 0 18 48 0 18 48 0 18 48 0 18 48 0 18 48 0 18 48 0 18 48 0 18 49 0 18 49 0 18 49 0 19 49 0 19 49 0 19 49 0 19 49 0 19 49 0 19 49 0 19 50 0 19 50 0 19 50 0 19 50 0 19 50 0 19 50 0 19 50
0 54 94 0 23 54 0 23 55 0 27 60 0 28 61 0 27 60 0 26 59 0 25 57 0 24 55 0 22 53 0 21 52 0 20 51 0 19 49 0 18 48 0 18 48 0 18 48 0 18 49 0 19 49 0 19 49 0 19 50 0 19 50 0 19 50 0 19 50 0 19 50 0 19 50 0 19 50 0 19 50 0 19 50 0 19 50 0 19 50 0 19 50 0 19 50 0 19 49 0 19 49 0 19 49 0 19 49 0 19 49 0 19 49 0 18 49 0 18 49 0 18 48 0 18 48 0 18 48 0 18 48 0 18 48 0 18 48 0 18 48 0 18 48 0 18 48 0 18 48 0 18 48 0 18 48 0 18 48 0 18 48 0 18 48 0 18 48 0 18 48 0 18 48 0 18 48 0 18 48 0 18 49 0 18 49 0 18 49 0 18 49 0 18 49 0 18 49 0 19 49 0 19 49 0 19 49 0 19 49 0 19 49 0 19 49 0 18 49 0 18 49 0 18 49 0 18 49 0 18 49 0 18 49 0 18 49 0 18 49 0 18 49 0 18 49 0 18 48 0 18 48 0 18 48 0 18 48 0 18 48 0 18 48 0 18 48 0 18 48 0 18 48 0 18 48 0 18 48 0 18 48 0 18 48 0 18 48 0 18 48 0 18 48 0 18 48 0 18 48 0 18 48 0 18 48 0 18 48 0 18 48 0 18 48 0 18 48 0 18 48 0 18 48 0 18 48 0 18 48 0 18 48 0 18 48 0 18 49 0 18 49 0 19 49 0 19 49 0 19 49 0 19 49 0 19 49 0 19 49 0 19 49 0 19 50 0 19 50 0 19 50 0 19 50 0 19 50 0 19 50 0 19 50
0 58 100 0 23 54 0 24 56 0 29 62 0 30 63 0 29 62 0 28 60 0 26 58 0 24 56 0 23 54 0 21 52 0 20 51 0 19 50 0 18 49 0 18 48 0 18 48 0 18 49 0 19 49 0 19 50 0 19 50 0 19 50 0 20 50 0 20 50 0 20 50 0 20 50 0 20 50 0 20 50 0 20 50 0 20 50 0 19 50 0 19 50 0 19 50 0 19 50 0 19 50 0 19 49 0 19 49 0 19 49 0 19 49 0 19 49 0 19 49 0 18 49 0 18 49 0 18 48 0 18 48 0 18 48 0 18 48 0 18 48 0 18 48 0 18 48 0 18 48 0 18 48 0 18 48 0 18 48 0 18 48 0 18 48 0 18 48 0 18 48 0 18 48 0 18 48 0 18 49 0 18 49 0 18 49 0 18 49 0 19 49 0 19 49 0 19 49 0 19 49 0 19 49 0 19 49 0 19 49 0 19 49 0 19 49 0 19 49 0 19 49 0 19 49 0 19 49 0 19 49 0 18 49 0 18 49 0 18 49 0 18 49 0 18 49 0 18 49 0 18 49 0 18 48 0 18 48 0 18 48 0 18 48 0 18 48 0 18 48 0 18 48 0 18 48 0 18 48 0 18 48 0 18 48 0 18 48 0 18 48 0 18 48 0 18 48 0 18 48 0 18 48 0 18 48 0 18 48 0 18 48 0 18 48 0 18 48 0 18 48 0 18 48 0 18 48 0 18 48 0 18 48 0 18 48 0 18 49 0 18 49 0 19 49 0 19 49 0 19 49 0 19 49 0 19 49 0 19 49 0 19 50 0 19 50 0 19 50 0 19 50 0 19 50 0 19 50 0 19 50 0 19 50
0 62 104 0 23 55 0 25 57 0 30 63 0 31 64 0 30 63 0 28 61 0 27 59 0 25 57 0 23 55 0 22 53 0 20 51 0 19 50 0 18 48 0 18 48 0 18 48 0 19 49 0 19 49 0 19 50 0 20 50 0 20 50 0 20 50 0 20 51 0 20 51 0 20 51 0 20 51 0 20 51 0 20 50 0 20 50 0 20 50 0 20 50 0 19 50 0 19 50 0 19 50 0 19 50 0 19 50 0 19 49 0 19 49 0 19 49 0 19 49 0 18 49 0 18 49 0 18 48 0 18 48 0 18 48 0 18 48 0 18 48 0 18 48 0 18 48 0 18 48 0 18 48 0 18 48 0 18 48 0 18 48 0 18 48 0 18 48 0 18 48 0 18 48 0 18 49 0 18 49 0 18 49 0 19 49 0 19 49 0 19 49 0 19 49 0 19 49 0 19 49 0 19 49 0 19 49 0 19 49 0 19 49 0 19 49 0 19 49 0 19 49 0 19 49 0 19 49 0 19 49 0 19 49 0 19 49 0 19 49 0 18 49 0 18 49 0 18 49 0 18 49 0 18 49 0 18 48 0 18 48 0 18 48 0 18 48 0 18 48 0 18 48 0 18 48 0 18 48 0 18 48 0 18 48 0 18 48 0 18 48 0 18 48 0 18 48 0 18 48 0 18 48 0 18 48 0 18 48 0 18 48 0 18 48 0 18 48 0 18 48 0 18 48 0 18 48 0 18 48 0 18 48 0 18 49 0 18 49 0 19 49 0 19 49 0 19 49 0 19 49 0 19 49 0 19 49 0 19 50 0 19 50 0 19 50 0 19 50 0 19 50 0 19 50 0 20 50 0 20 50 0 20 50
0 65 108 0 23 55 0 26 58 0 31 64 0 32 66 0 31 64 0 29 62 0 27 60 0 25 57 0 23 55 0 22 53 0 20 51 0 19 50 0 18 48 0 18 48 0 18 48 0 19 49 0 19 50 0 20 50 0 20 50 0 20 51 0 20 51 0 20 51 0 20 51 0 20 51 0 20 51 0 20 51 0 20 51 0 20 51 0 20 50 0 20 50 0 20 50 0 19 50 0 19 50 0 19 50 0 19 50 0 19 49 0 19 49 0 19 49 0 19 49 0 19 49 0 18 49 0 18 48 0 18 48 0 18 48 0 18 48 0 18 48 0 18 48 0 18 48 0 18 48 0 18 48 0 18 48 0 18 48 0 18 48 0 18 48 0 18 48 0 18 49 0 18 49 0 18 49 0 19 49 0 19 49 0 19 49 0 19 49 0 19 49 0 19 49 0 19 49 0 19 49 0 19 49 0 19 49 0 19 49 0 19 49 0 19 49 0 19 49 0 19 49 0 19 49 0 19 49 0 19 49 0 19 49 0 19 49 0 19 49 0 19 49 0 18 49 0 18 49 0 18 49 0 18 49 0 18 49 0 18 48 0 18 48 0 18 48 0 18 48 0 18 48 0 18 48 0 18 48 0 18 48 0 18 48 0 18 48 0 18 48 0 18 48 0 18 48 0 18 48 0 18 48 0 18 48 0 18 48 0 18 48 0 18 48 0 18 48 0 18 48 0 18 48 0 18 48 0 18 48 0 18 48 0 18 49 0 18 49 0 19 49 0 19 49 0 19 49 0 19 49 0 19 49 0 19 50 0 19 50 0 19 50 0 19 50 0 19 50 0 20 50 0 20 50 0 20 50 0 20 50 0 20 50
0 66 110 0 23 55 0 26 59 0 31 65 0 32 67 0 31 65 0 30 63 0 28 60 0 25 58 0 24 55 0 22 53 0 20 51 0 19 50 0 18 48 0 18 48 0 18 49 0 19 49 0 19 50 0 20 50 0 20 51 0 20 51 0 20 51 0 20 51 0 20 51 0 20 51 0 20 51 0 20 51 0 20 51 0 20 51 0 20 51 0 20 50 0 20 50 0 20 50 0 19 50 0 19 50 0 19 50 0 19 49 0 19 49 0 19 49 0 19 49 0 19 49 0 18 49 0 18 48 0 18 48 0 18 48 0 18 48 0 18 48 0 18 48 0 18 48 0 18 48 0 18 48 0 18 48 0 18 48 0 18 48 0 18 48 0 18 49 0 18 49 0 18 49 0 19 49 0 19 49 0 19 49 0 19 49 0 19 49 0 19 49 0 19 49 0 19 49 0 19 49 0 19 49 0 19 49 0 19 49 0 19 49 0 19 49 0 19 49 0 19 49 0 19 49 0 19 49 0 19 49 0 19 49 0 19 49 0 19 49 0 19 49 0 19 49 0 18 49 0 18 49 0 18 49 0 18 49 0 18 48 0 18 48 0 18 48 0 18 48 0 18 48 0 18 48 0 18 48 0 18 48 0 18 48 0 18 48 0 18 48 0 18 48 0 18 48 0 18 48 0 18 48 0 18 48 0 18 48 0 18 48 0 18 48 0 18 48 0 18 48 0 18 48 0 18 48 0 18 48 0 18 49 0 18 49 0 19 49 0 19 49 0 19 49 0 19 49 0 19 49 0 19 50 0 19 50 0 19 50 0 19 50 0 20 50 0 20 50 0 20 50 0 20 50 0 20 50 0 20 50 0 20 50
0 67 111 0 23 55 0 27 59 0 32 66 0 33 67 0 32 65 0 30 63 0 28 60 0 25 58 0 23 55 0 22 53 0 20 51 0 19 49 0 18 48 0 18 48 0 19 49 0 19 50 0 20 50 0 20 51 0 20 51 0 20 51 0 20 51 0 20 51 0 20 51 0 20 51 0 20 51 0 20 51 0 20 51 0 20 51 0 20 51 0 20 50 0 20 50 0 20 50 0 19 50 0 19 50 0 19 50 0 19 49 0 19 49 0 19 49 0 19 49 0 18 49 0 18 49 0 18 48 0 18 48 0 18 48 0 18 48 0 18 48 0 18 48 0 18 48 0 18 48 0 18 48 0 18 48 0 18 48 0 18 48 0 18 49 0 18 49 0 19 49 0 19 49 0 19 49 0 19 49 0 19 49 0 19 49 0 19 49 0 19 49 0 19 49 0 19 49 0 19 49 0 19 49 0 19 49 0 19 49 0 19 49 0 19 49 0 19 49 0 19 49 0 19 49 0 19 49 0 19 49 0 19 49 0 19 49 0 19 49 0 19 49 0 19 49 0 18 49 0 18 49 0 18 49 0 18 49 0 18 48 0 18 48 0 18 48 0 18 48 0 18 48 0 18 48 0 18 48 0 18 48 0 18 48 0 18 48 0 18 48 0 18 48 0 18 48 0 18 48 0 18 48 0 18 48 0 18 48 0 18 48 0 18 48 0 18 48 0 18 48 0 18 48 0 18 48 0 18 49 0 18 49 0 19 49 0 19 49 0 19 49 0 19 49 0 19 49 0 19 50 0 19 50 0 19 50 0 19 50 0 20 50 0 20 50 0 20 50 0 20 50 0 20 51 0 20 51 0 20 51 0 20 51
0 67 110 0 23 54 0 27 60 0 32 66 0 33 67 0 32 65 0 30 63 0 27 60 0 25 57 0 23 55 0 21 53 0 20 51 0 19 49 0 18 48 0 18 48 0 19 49 0 19 50 0 20 50 0 20 51 0 20 51 0 20 51 0 20 51 0 20 51 0 20 51 0 20 51 0 20 51 0 20 51 0 20 51 0 20 51 0 20 51 0 20 50 0 20 50 0 20 50 0 19 50 0 19 50 0 19 49 0 19 49 0 19 49 0 19 49 0 19 49 0 18 49 0 18 48 0 18 48 0 18 48 0 18 48 0 18 48 0 18 48 0 18 48 0 18 48 0 18 48 0 18 48 0 18 48 0 18 48 0 18 49 0 18 49 0 19 49 0 19 49 0 19 49 0 19 49 0 19 49 0 19 49 0 19 49 0 19 49 0 19 49 0 19 49 0 19 49 0 19 49 0 19 50 0 19 50 0 19 49 0 19 49 0 19 49 0 19 49 0 19 49 0 19 49 0 19 49 0 19 49 0 19 49 0 19 49 0 19 49 0 19 49 0 19 49 0 18 49 0 18 49 0 18 49 0 18 48 0 18 48 0 18 48 0 18 48 0 18 48 0 18 48 0 18 48 0 18 48 0 18 48 0 18 48 0 18 48 0 18 48 0 18 48 0 18 48 0 18 48 0 18 48 0 18 48 0 18 48 0 18 48 0 18 48 0 18 48 0 18 48 0 18 49 0 18 49 0 18 49 0 19 49 0 19 49 0 19 49 0 19 49 0 19 49 0 19 50 0 19 50 0 19 50 0 20 50 0 20 50 0 20 50 0 20 51 0 20 51 0 20 51 0 20 51 0 20 51 0 20 51 0 20 51
0 65 108 0 22 53 0 27 60 0 32 66 0 33 67 0 31 65 0 29 63 0 27 60 0 25 57 0 23 54 0 21 52 0 20 50 0 18 49 0 18 48 0 18 49 0 19 49 0 20 50 0 20 50 0 20 51 0 20 51 0 20 51 0 21 51 0 20 51 0 20 51 0 20 51 0 20 51 0 20 51 0 20 51 0 20 51 0 20 50 0 20 50 0 20 50 0 19 50 0 19 50 0 19 50 0 19 49 0 19 49 0 19 49 0 18 49 0 18 49 0 18 48 0 18 48 0 18 48 0 18 48 0 18 48 0 18 48 0 18 48 0 18 48 0 18 48 0 18 48 0 18 48 0 18 48 0 18 49 0 18 49 0 19 49 0 19 49 0 19 49 0 19 49 0 19 49 0 19 49 0 19 49 0 19 49 0 19 50 0 19 50 0 19 50 0 19 50 0 19 50 0 19 50 0 19 50 0 19 50 0 19 50 0 19 49 0 19 49 0 19 49 0 19 49 0 19 49 0 19 49 0 19 49 0 19 49 0 19 49 0 19 49 0 19 49 0 18 49 0 18 49 0 18 49 0 18 48 0 18 48 0 18 48 0 18 48 0 18 48 0 18 48 0 18 48 0 18 48 0 18 48 0 18 48 0 18 48 0 18 48 0 18 48 0 18 48 0 18 48 0 18 48 0 18 48 0 18 48 0 18 48 0 18 48 0 18 48 0 18 49 0 18 49 0 19 49 0 19 49 0 19 49 0 19 49 0 19 49 0 19 50 0 19 50 0 19 50 0 19 50 0 20 50 0 20 50 0 20 50 0 20 51 0 20 51 0 20 51 0 20 51 0 20 51 0 20 51 0 20 51 0 20 51
0 63 105 0 21 52 0 27 60 0 31 65 0 32 66 0 31 64 0 29 62 0 26 59 0 24 56 0 22 54 0 21 52 0 19 50 0 18 48 0 18 48 0 19 49 0 19 50 0 20 50 0 20 51 0 20 51 0 20 51 0 20 51 0 21 51 0 20 51 0 20 51 0 20 51 0 20 51 0 20 51 0 20 51 0 20 50 0 20 50 0 19 50 0 19 50 0 19 50 0 19 50 0 19 49 0 19 49 0 19 49 0 18 49 0 18 49 0 18 48 0 18 48 0 18 48 0 18 48 0 18 48 0 18 48 0 18 48 0 18 48 0 18 48 0 18 48 0 18 48 0 18 49 0 18 49 0 19 49 0 19 49 0 19 49 0 19 49 0 19 49 0 19 49 0 19 49 0 19 49 0 19 50 0 19 50 0 19 50 0 19 50 0 19 50 0 19 50 0 19 50 0 19 50 0 19 50 0 19 50 0 19 50 0 19 50 0 19 49 0 19 49 0 19 49 0 19 49 0 19 49 0 19 49 0 19 49 0 19 49 0 19 49 0 19 49 0 18 49 0 18 49 0 18 48 0 18 48 0 18 48 0 18 48 0 18 48 0 18 48 0 18 48 0 18 48 0 18 48 0 18 48 0 18 48 0 18 48 0 18 48 0 18 48 0 18 48 0 18 48 0 18 48 0 18 48 0 18 48 0 18 48 0 18 49 0 18 49 0 18 49 0 19 49 0 19 49 0 19 49 0 19 49 0 19 49 0 19 50 0 19 50 0 19 50 0 20 50 0 20 50 0 20 50 0 20 51 0 20 51 0 20 51 0 20 51 0 20 51 0 20 51 0 20 51 0 21 51 0 21 51 0 20 51
0 59 101 0 20 51 0 27 60 0 31 65 0 31 65 0 30 63 0 28 60 0 26 58 0 24 55 0 22 53 0 20 51 0 19 49 0 18 48 0 18 48 0 19 49 0 19 50 0 20 50 0 20 51 0 20 51 0 20 51 0 20 51 0 21 51 0 20 51 0 20 51 0 20 51 0 20 51 0 20 51 0 20 50 0 20 50 0 19 50 0 19 50 0 19 50 0 19 49 0 19 49 0 19 49 0 19 49 0 18 49 0 18 48 0 18 48 0 18 48 0 18 48 0 18 48 0 18 48 0 18 48 0 18 48 0 18 48 0 18 48 0 18 48 0 18 49 0 18 49 0 19 49 0 19 49 0 19 49 0 19 49 0 19 49 0 19 49 0 19 49 0 19 50 0 19 50 0 19 50 0 19 50 0 19 50 0 19 50 0 19 50 0 19 50 0 19 50 0 19 50 0 19 50 0 19 50 0 19 50 0 19 50 0 19 50 0 19 49 0 19 49 0 19 49 0 19 49 0 19 49 0 19 49 0 19 49 0 19 49 0 19 49 0 18 49 0 18 49 0 18 48 0 18 48 0 18 48 0 18 48 0 18 48 0 18 48 0 18 48 0 18 48 0 18 48 0 18 48 0 18 48 0 18 48 0 18 48 0 18 48 0 18 48 0 18 48 0 18 48 0 18 48 0 18 48 0 18 49 0 18 49 0 18 49 0 19 49 0 19 49 0 19 49 0 19 49 0 19 49 0 19 50 0 19 50 0 19 50 0 19 50 0 20 50 0 20 50 0 20 51 0 20 51 0 20 51 0 20 51 0 20 51 0 20 51 0 21 51 0 21 51 0 21 52 0 21 52 0 21 52 0 21 52
0 55 95 0 19 50 0 27 59 0 30 63 0 30 64 0 28 62 0 27 59 0 25 57 0 23 54 0 21 52 0 19 50 0 18 48 0 18 48 0 19 49 0 19 50 0 20 50 0 20 51 0 20 51 0 20 51 0 20 51 0 20 51 0 20 51 0 20 51 0 20 51 0 20 51 0 20 51 0 20 50 0 20 50 0 19 50 0 19 50 0 19 49 0 19 49 0 19 49 0 19 49 0 18 49 0 18 48 0 18 48 0 18 48 0 18 48 0 18 48 0 18 48 0 18 48 0 18 48 0 18 48 0 18 48 0 18 48 0 18 49 0 18 49 0 19 49 0 19 49 0 19 49 0 19 49 0 19 49 0 19 49 0 19 49 0 19 50 0 19 50 0 19 50 0 19 50 0 19 50 0 19 50 0 19 50 0 19 50 0 19 50 0 19 50 0 19 50 0 19 50 0 19 50 0 19 50 0 19 50 0 19 50 0 19 50 0 19 49 0 19 49 0 19 49 0 19 49 0 19 49 0 19 49 0 19 49 0 19 49 0 18 49 0 18 49 0 18 49 0 18 48 0 18 48 0 18 48 0 18 48 0 18 48 0 18 48 0 18 48 0 18 48 0 18 48 0 18 48 0 18 48 0 18 48 0 18 48 0 18 48 0 18 48 0 18 48 0 18 48 0 18 49 0 18 49 0 18 49 0 19 49 0 19 49 0 19 49 0 19 49 0 19 49 0 19 50 0 19 50 0 19 50 0 19 50 0 20 50 0 20 50 0 20 50 0 20 51 0 20 51 0 20 51 0 20 51 0 20 51 0 21 51 0 21 52 0 21 52 0 21 52 0 21 52 0 21 52 0 21 52 0 21 52
0 50 89 0 18 49 0 26 59 0 29 62 0 29 62 0 27 60 0 25 57 0 23 55 0 22 53 0 20 51 0 19 49 0 18 48 0 18 49 0 19 50 0 20 50 0 20 51 0 20 51 0 20 51 0 20 51 0 20 51 0 20 51 0 20 51 0 20 51 0 20 51 0 20 50 0 20 50 0 20 50 0 19 50 0 19 50 0 19 49 0 19 49 0 19 49 0 18 49 0 18 48 0 18 48 0 18 48 0 18 48 0 18 48 0 18 48 0 18 48 0 18 48 0 18 48 0 18 48 0 18 48 0 18 49 0 18 49 0 19 49 0 19 49 0 19 49 0 19 49 0 19 49 0 19 49 0 19 50 0 19 50 0 19 50 0 19 50 0 19 50 0 19 50 0 19 50 0 19 50 0 19 50 0 19 50 0 19 50 0 19 50 0 19 50 0 19 50 0 19 50 0 19 50 0 19 50 0 19 50 0 19 50 0 19 50 0 19 49 0 19 49 0 19 49 0 19 49 0 19 49 0 19 49 0 19 49 0 18 49 0 18 49 0 18 49 0 18 48 0 18 48 0 18 48 0 18 48 0 18 48 0 18 48 0 18 48 0 18 48 0 18 48 0 18 48 0 18 48 0 18 48 0 18 48 0 18 48 0 18 48 0 18 48 0 18 49 0 18 49 0 19 49 0 19 49 0 19 49 0 19 49 0 19 49 0 19 49 0 19 50 0 19 50 0 19 50 0 19 50 0 20 50 0 20 50 0 20 51 0 20 51 0 20 51 0 20 51 0 20 51 0 20 51 0 21 51 0 21 52 0 21 52 0 21 52 0 21 52 0 21 52 0 21 52 0 21 52 0 21 52 0 21 52
0 44 82 0 18 48 0 26 58 0 28 60 0 27 60 0 26 58 0 24 56 0 22 53 0 20 51 0 19 49 0 18 48 0 18 48 0 19 49 0 19 50 0 20 51 0 20 51 0 20 51 0 20 51 0 20 51 0 20 51 0 20 51 0 20 51 0 20 51 0 20 50 0 20 50 0 19 50 0 19 50 0 19 49 0 19 49 0 19 49 0 18 49 0 18 48 0 18 48 0 18 48 0 18 48 0 18 48 0 18 48 0 18 48 0 18 48 0 18 48 0 18 48 0 18 49 0 18 49 0 19 49 0 19 49 0 19 49 0 19 49 0 19 49 0 19 50 0 19 50 0 19 50 0 19 50 0 19 50 0 19 50 0 19 50 0 20 50 0 20 50 0 20 50 0 20 50 0 20 50 0 20 50 0 20 50 0 20 50 0 20 50 0 19 50 0 19 50 0 19 50 0 19 50 0 19 50 0 19 50 0 19 50 0 19 50 0 19 49 0 19 49 0 19 49 0 19 49 0 19 49 0 19 49 0 19 49 0 18 49 0 18 49 0 18 48 0 18 48 0 18 48 0 18 48 0 18 48 0 18 48 0 18 48 0 18 48 0 18 48 0 18 48 0 18 48 0 18 48 0 18 48 0 18 48 0 18 48 0 18 49 0 18 49 0 19 49 0 19 49 0 19 49 0 19 49 0 19 49 0 19 49 0 19 50 0 19 50 0 19 50 0 20 50 0 20 50 0 20 50 0 20 51 0 20 51 0 20 51 0 20 51 0 20 51 0 20 51 0 21 51 0 21 52 0 21 52 0 21 52 0 21 52 0 21 52 0 21 52 0 21 52 0 21 53 0 21 53 0 22 53 0 22 53
0 38 74 0 19 50 0 25 57 0 26 59 0 25 58 0 24 56 0 22 53 0 21 51 0 19 50 0 18 48 0 18 48 0 19 49 0 20 50 0 20 51 0 20 51 0 20 51 0 21 51 0 21 51 0 20 51 0 20 51 0 20 51 0 20 51 0 20 51 0 20 50 0 19 50 0 19 50 0 19 49 0 19 49 0 19 49 0 18 48 0 18 48 0 18 48 0 18 48 0 18 48 0 18 48 0 18 48 0 18 48 0 18 48 0 18 49 0 18 49 0 19 49 0 19 49 0 19 49 0 19 49 0 19 49 0 19 50 0 19 50 0 19 50 0 19 50 0 19 50 0 19 50 0 20 50 0 20 50 0 20 50 0 20 50 0 20 50 0 20 50 0 20 50 0 20 50 0 20 50 0 20 50 0 20 50 0 20 50 0 20 50 0 20 50 0 20 50 0 19 50 0 19 50 0 19 50 0 19 50 0 19 50 0 19 50 0 19 49 0 19 49 0 19 49 0 19 49 0 19 49 0 19 49 0 18 49 0 18 49 0 18 48 0 18 48 0 18 48 0 18 48 0 18 48 0 18 48 0 18 48 0 18 48 0 18 48 0 18 48 0 18 48 0 18 48 0 18 48 0 18 48 0 18 49 0 18 49 0 19 49 0 19 49 0 19 49 0 19 49 0 19 49 0 19 50 0 19 50 0 19 50 0 19 50 0 20 50 0 20 50 0 20 50 0 20 51 0 20 51 0 20 51 0 20 51 0 20 51 0 21 51 0 21 52 0 21 52 0 21 52 0 21 52 0 21 52 0 21 52 0 21 52 0 21 53 0 22 53 0 22 53 0 22 53 0 22 53 0 22 53 0 22 53
0 31 65 0 20 51 0 24 56 0 25 57 0 24 55 0 22 53 0 21 51 0 19 50 0 18 48 0 18 48 0 19 49 0 20 50 0 20 51 0 20 51 0 21 51 0 21 52 0 21 51 0 21 51 0 20 51 0 20 51 0 20 51 0 20 50 0 20 50 0 19 50 0 19 50 0 19 49 0 19 49 0 18 49 0 18 48 0 18 48 0 18 48 0 18 48 0 18 48 0 18 48 0 18 48 0 18 48 0 18 49 0 19 49 0 19 49 0 19 49 0 19 49 0 19 50 0 19 50 0 19 50 0 19 50 0 19 50 0 20 50 0 20 50 0 20 50 0 20 50 0 20 50 0 20 50 0 20 51 0 20 51 0 20 51 0 20 51 0 20 51 0 20 51 0 20 50 0 20 50 0 20 50 0 20 50 0 20 50 0 20 50 0 20 50 0 20 50 0 19 50 0 19 50 0 19 50 0 19 50 0 19 50 0 19 49 0 19 49 0 19 49 0 19 49 0 19 49 0 19 49 0 18 49 0 18 49 0 18 48 0 18 48 0 18 48 0 18 48 0 18 48 0 18 48 0 18 48 0 18 48 0 18 48 0 18 48 0 18 48 0 18 48 0 18 48 0 18 49 0 18 49 0 19 49 0 19 49 0 19 49 0 19 49 0 19 49 0 19 50 0 19 50 0 19 50 0 19 50 0 20 50 0 20 50 0 20 50 0 20 51 0 20 51 0 20 51 0 20 51 0 20 51 0 21 51 0 21 52 0 21 52 0 21 52 0 21 52 0 21 52 0 21 52 0 21 52 0 22 53 0 22 53 0 22 53 0 22 53 0 22 53 0 22 53 0 22 53 0 22 53 0 22 53
0 24 56 0 22 53 0 24 55 0 23 55 0 22 53 0 20 51 0 19 49 0 18 48 0 19 49 0 19 50 0 20 51 0 21 51 0 21 52 0 21 52 0 21 52 0 21 52 0 21 52 0 21 52 0 20 51 0 20 51 0 20 51 0 20 50 0 19 50 0 19 49 0 19 49 0 18 49 0 18 48 0 18 48 0 18 48 0 18 48 0 18 48 0 18 48 0 18 48 0 18 49 0 19 49 0 19 49 0 19 49 0 19 49 0 19 50 0 19 50 0 19 50 0 19 50 0 20 50 0 20 50 0 20 50 0 20 50 0 20 51 0 20 51 0 20 51 0 20 51 0 20 51 0 20 51 0 20 51 0 20 51 0 20 51 0 20 51 0 20 51 0 20 51 0 20 51 0 20 51 0 20 51 0 20 51 0 20 50 0 20 50 0 20 50 0 20 50 0 20 50 0 19 50 0 19 50 0 19 50 0 19 50 0 19 49 0 19 49 0 19 49 0 19 49 0 19 49 0 18 49 0 18 49 0 18 48 0 18 48 0 18 48 0 18 48 0 18 48 0 18 48 0 18 48 0 18 48 0 18 48 0 18 48 0 18 48 0 18 48 0 18 49 0 18 49 0 19 49 0 19 49 0 19 49 0 19 49 0 19 49 0 19 50 0 19 50 0 19 50 0 20 50 0 20 50 0 20 50 0 20 51 0 20 51 0 20 51 0 20 51 0 20 51 0 20 51 0 21 51 0 21 52 0 21 52 0 21 52 0 21 52 0 21 52 0 21 52 0 21 53 0 22 53 0 22 53 0 22 53 0 22 53 0 22 53 0 22 53 0 22 53 0 22 54 0 22 54 0 22 54 0 22 54
0 18 48 0 23 54 0 23 54 0 21 52 0 20 50 0 18 48 0 18 48 0 19 50 0 20 51 0 21 51 0 21 52 0 21 52 0 21 53 0 21 53 0 21 52 0 21 52 0 21 52 0 21 52 0 20 51 0 20 51 0 20 50 0 19 50 0 19 49 0 19 49 0 18 49 0 18 48 0 18 48 0 18 48 0 18 48 0 18 48 0 18 48 0 18 49 0 19 49 0 19 49 0 19 49 0 19 50 0 19 50 0 19 50 0 20 50 0 20 50 0 20 50 0 20 51 0 20 51 0 20 51 0 20 51 0 20 51 0 20 51 0 20 51 0 20 51 0 20 51 0 20 51 0 20 51 0 20 51 0 20 51 0 20 51 0 20 51 0 20 51 0 20 51 0 20 51 0 20 51 0 20 51 0 20 51 0 20 51 0 20 50 0 20 50 0 20 50 0 20 50 0 19 50 0 19 50 0 19 50 0 19 50 0 19 49 0 19 49 0 19 49 0 19 49 0 19 49 0 18 49 0 18 48 0 18 48 0 18 48 0 18 48 0 18 48 0 18 48 0 18 48 0 18 48 0 18 48 0 18 48 0 18 48 0 18 48 0 18 49 0 18 49 0 19 49 0 19 49 0 19 49 0 19 49 0 19 50 0 19 50 0 19 50 0 20 50 0 20 50 0 20 50 0 20 51 0 20 51 0 20 51 0 20 51 0 20 51 0 21 51 0 21 52 0 21 52 0 21 52 0 21 52 0 21 52 0 21 52 0 21 52 0 21 53 0 22 53 0 22 53 0 22 53 0 22 53 0 22 53 0 22 53 0 22 54 0 22 54 0 22 54 0 23 54 0 23 54 0 23 54 0 23 54
0 25 57 0 24 56 0 22 53 0 20 50 0 18 48 0 19 49 0 20 51 0 21 52 0 22 53 0 22 53 0 22 53 0 22 53 0 22 53 0 22 53 0 22 53 0 21 52 0 21 52 0 21 51 0 20 51 0 20 51 0 20 50 0 19 50 0 19 49 0 18 49 0 18 48 0 18 48 0 18 48 0 18 48 0 18 48 0 18 49 0 19 49 0 19 49 0 19 49 0 19 50 0 19 50 0 20 50 0 20 50 0 20 51 0 20 51 0 20 51 0 20 51 0 20 51 0 20 51 0 20 51 0 20 51 0 21 51 0 21 51 0 21 51 0 21 51 0 21 51 0 21 51 0 21 51 0 21 51 0 20 51 0 20 51 0 20 51 0 20 51 0 20 51 0 20 51 0 20 51 0 20 51 0 20 51 0 20 51 0 20 51 0 20 50 0 20 50 0 20 50 0 19 50 0 19 50 0 19 50 0 19 50 0 19 49 0 19 49 0 19 49 0 19 49 0 18 49 0 18 48 0 18 48 0 18 48 0 18 48 0 18 48 0 18 48 0 18 48 0 18 48 0 18 48 0 18 48 0 18 48 0 18 49 0 18 49 0 19 49 0 19 49 0 19 49 0 19 49 0 19 50 0 19 50 0 19 50 0 20 50 0 20 50 0 20 50 0 20 51 0 20 51 0 20 51 0 20 51 0 20 51 0 21 51 0 21 52 0 21 52 0 21 52 0 21 52 0 21 52 0 21 52 0 21 53 0 22 53 0 22 53 0 22 53 0 22 53 0 22 53 0 22 53 0 22 54 0 22 54 0 22 54 0 23 54 0 23 54 0 23 54 0 23 54 0 23 54 0 23 54 0 23 54
0 31 65 0 25 58 0 21 52 0 18 48 0 19 50 0 21 52 0 22 53 0 22 54 0 23 54 0 23 55 0 23 55 0 23 54 0 23 54 0 22 54 0 22 53 0 22 53 0 21 52 0 21 52 0 20 51 0 20 50 0 19 50 0 19 49 0 19 49 0 18 48 0 18 48 0 18 48 0 18 48 0 18 48 0 19 49 0 19 49 0 19 49 0 19 50 0 19 50 0 20 50 0 20 51 0 20 51 0 20 51 0 20 51 0 20 51 0 21 51 0 21 52 0 21 52 0 21 52 0 21 52 0 21 52 0 21 52 0 21 52 0 21 52 0 21 52 0 21 52 0 21 52 0 21 52 0 21 52 0 21 52 0 21 52 0 21 51 0 21 51 0 20 51 0 20 51 0 20 51 0 20 51 0 20 51 0 20 51 0 20 51 0 20 50 0 20 50 0 20 50 0 19 50 0 19 50 0 19 50 0 19 49 0 19 49 0 19 49 0 19 49 0 18 49 0 18 49 0 18 48 0 18 48 0 18 48 0 18 48 0 18 48 0 18 48 0 18 48 0 18 48 0 18 48 0 18 48 0 18 49 0 18 49 0 19 49 0 19 49 0 19 49 0 19 49 0 19 50 0 19 50 0 19 50 0 20 50 0 20 50 0 20 51 0 20 51 0 20 51 0 20 51 0 20 51 0 21 51 0 21 52 0 21 52 0 21 52 0 21 52 0 21 52 0 21 52 0 21 53 0 22 53 0 22 53 0 22 53 0 22 53 0 22 53 0 22 53 0 22 54 0 22 54 0 22 54 0 23 54 0 23 54 0 23 54 0 23 54 0 23 54 0 23 55 0 23 55 0 23 55 0 23 55
0 38 74 0 27 59 0 20 51 0 19 49 0 21 52 0 23 54 0 24 55 0 24 56 0 24 56 0 24 56 0 24 56 0 24 55 0 23 55 0 23 54 0 22 54 0 22 53 0 21 52 0 21 51 0 20 51 0 20 50 0 19 50 0 19 49 0 18 49 0 18 48 0 18 48 0 18 48 0 18 49 0 19 49 0 19 49 0 19 50 0 20 50 0 20 50 0 20 51 0 20 51 0 20 51 0 20 51 0 21 52 0 21 52 0 21 52 0 21 52 0 21 52 0 21 52 0 21 52 0 21 52 0 21 52 0 21 52 0 21 52 0 21 52 0 21 52 0 21 52 0 21 52 0 21 52 0 21 52 0 21 52 0 21 52 0 21 52 0 21 52 0 21 51 0 20 51 0 20 51 0 20 51 0 20 51 0 20 51 0 20 51 0 20 50 0 20 50 0 20 50 0 19 50 0 19 50 0 19 50 0 19 49 0 19 49 0 19 49 0 19 49 0 18 49 0 18 48 0 18 48 0 18 48 0 18 48 0 18 48 0 18 48 0 18 48 0 18 48 0 18 48 0 18 48 0 18 49 0 19 49 0 19 49 0 19 49 0 19 49 0 19 50 0 19 50 0 19 50 0 20 50 0 20 50 0 20 51 0 20 51 0 20 51 0 20 51 0 20 51 0 21 51 0 21 52 0 21 52 0 21 52 0 21 52 0 21 52 0 21 52 0 21 53 0 22 53 0 22 53 0 22 53 0 22 53 0 22 53 0 22 53 0 22 54 0 22 54 0 23 54 0 23 54 0 23 54 0 23 54 0 23 54 0 23 55 0 23 55 0 23 55 0 23 55 0 23 55 0 23 55 0 23 55
0 44 82 0 28 61 0 19 50 0 20 51 0 23 55 0 25 57 0 25 58 0 26 58 0 26 58 0 25 57 0 25 57 0 24 56 0 24 55 0 23 55 0 23 54 0 22 53 0 21 52 0 21 52 0 20 51 0 20 50 0 19 49 0 18 49 0 18 48 0 18 48 0 18 48 0 18 49 0 19 49 0 19 49 0 19 50 0 20 50 0 20 51 0 20 51 0 20 51 0 21 51 0 21 52 0 21 52 0 21 52 0 21 52 0 21 52 0 21 52 0 21 52 0 21 53 0 22 53 0 22 53 0 22 53 0 22 53 0 22 53 0 21 53 0 21 53 0 21 53 0 21 52 0 21 52 0 21 52 0 21 52 0 21 52 0 21 52 0 21 52 0 21 52 0 21 51 0 20 51 0 20 51 0 20 51 0 20 51 0 20 51 0 20 50 0 20 50 0 20 50 0 19 50 0 19 50 0 19 50 0 19 49 0 19 49 0 19 49 0 18 49 0 18 49 0 18 48 0 18 48 0 18 48 0 18 48 0 18 48 0 18 48 0 18 48 0 18 48 0 18 48 0 18 49 0 19 49 0 19 49 0 19 49 0 19 49 0 19 50 0 19 50 0 19 50 0 20 50 0 20 50 0 20 51 0 20 51 0 20 51 0 20 51 0 21 51 0 21 52 0 21 52 0 21 52 0 21 52 0 21 52 0 21 52 0 21 53 0 22 53 0 22 53 0 22 53 0 22 53 0 22 53 0 22 54 0 22 54 0 22 54 0 23 54 0 23 54 0 23 54 0 23 54 0 23 54 0 23 55 0 23 55 0 23 55 0 23 55 0 23 55 0 23 55 0 24 55 0 24 55 0 24 55
0 50 89 0 29 62 0 19 49 0 22 53 0 25 57 0 26 59 0 27 60 0 27 60 0 27 59 0 26 59 0 26 58 0 25 57 0 24 56 0 23 55 0 23 54 0 22 53 0 21 52 0 21 51 0 20 51 0 19 50 0 19 49 0 18 48 0 18 48 0 18 48 0 18 48 0 19 49 0 19 50 0 19 50 0 20 50 0 20 51 0 20 51 0 21 51 0 21 52 0 21 52 0 21 52 0 21 52 0 21 53 0 22 53 0 22 53 0 22 53 0 22 53 0 22 53 0 22 53 0 22 53 0 22 53 0 22 53 0 22 53 0 22 53 0 22 53 0 22 53 0 22 53 0 22 53 0 21 52 0 21 52 0 21 52 0 21 52 0 21 52 0 21 52 0 21 52 0 21 51 0 20 51 0 20 51 0 20 51 0 20 51 0 20 50 0 20 50 0 20 50 0 19 50 0 19 50 0 19 49 0 19 49 0 19 49 0 19 49 0 18 49 0 18 48 0 18 48 0 18 48 0 18 48 0 18 48 0 18 48 0 18 48 0 18 48 0 18 48 0 18 49 0 19 49 0 19 49 0 19 49 0 19 49 0 19 50 0 19 50 0 20 50 0 20 50 0 20 50 0 20 51 0 20 51 0 20 51 0 20 51 0 21 51 0 21 52 0 21 52 0 21 52 0 21 52 0 21 52 0 21 53 0 22 53 0 22 53 0 22 53 0 22 53 0 22 53 0 22 54 0 22 54 0 22 54 0 23 54 0 23 54 0 23 54 0 23 54 0 23 54 0 23 55 0 23 55 0 23 55 0 23 55 0 23 55 0 23 55 0 24 55 0 24 55 0 24 55 0 24 56 0 24 56
0 55 95 0 29 63 0 18 48 0 23 55 0 26 59 0 28 61 0 28 61 0 28 61 0 28 61 0 27 60 0 26 59 0 26 58 0 25 57 0 24 56 0 23 54 0 22 53 0 21 52 0 21 51 0 20 51 0 19 50 0 19 49 0 18 48 0 18 48 0 18 48 0 19 49 0 19 49 0 19 50 0 20 50 0 20 51 0 20 51 0 21 52 0 21 52 0 21 52 0 21 52 0 21 53 0 22 53 0 22 53 0 22 53 0 22 53 0 22 53 0 22 53 0 22 53 0 22 53 0 22 53 0 22 53 0 22 53 0 22 53 0 22 53 0 22 53 0 22 53 0 22 53 0 22 53 0 22 53 0 21 53 0 21 52 0 21 52 0 21 52 0 21 52 0 21 52 0 21 52 0 20 51 0 20 51 0 20 51 0 20 51 0 20 50 0 20 50 0 19 50 0 19 50 0 19 50 0 19 49 0 19 49 0 19 49 0 18 49 0 18 48 0 18 48 0 18 48 0 18 48 0 18 48 0 18 48 0 18 48 0 18 48 0 18 48 0 18 49 0 18 49 0 19 49 0 19 49 0 19 49 0 19 50 0 19 50 0 20 50 0 20 50 0 20 51 0 20 51 0 20 51 0 20 51 0 21 51 0 21 52 0 21 52 0 21 52 0 21 52 0 21 52 0 21 53 0 22 53 0 22 53 0 22 53 0 22 53 0 22 53 0 22 54 0 22 54 0 22 54 0 23 54 0 23 54 0 23 54 0 23 54 0 23 54 0 23 55 0 23 55 0 23 55 0 23 55 0 23 55 0 23 55 0 24 55 0 24 55 0 24 55 0 24 56 0 24 56 0 24 56 0 24 56
0 59 101 0 30 64 0 18 48 0 24 56 0 28 60 0 29 62 0 30 63 0 29 63 0 29 62 0 28 61 0 27 60 0 26 58 0 25 57 0 24 56 0 23 55 0 22 53 0 21 52 0 21 51 0 20 50 0 19 50 0 18 49 0 18 48 0 18 48 0 18 49 0 19 49 0 19 50 0 20 50 0 20 51 0 20 51 0 21 52 0 21 52 0 21 52 0 22 53 0 22 53 0 22 53 0 22 53 0 22 53 0 22 54 0 22 54 0 22 54 0 22 54 0 22 54 0 22 54 0 22 54 0 22 54 0 22 54 0 22 54 0 22 54 0 22 53 0 22 53 0 22 53 0 22 53 0 22 53 0 22 53 0 21 53 0 21 52 0 21 52 0 21 52 0 21 52 0 21 52 0 21 51 0 20 51 0 20 51 0 20 51 0 20 50 0 20 50 0 19 50 0 19 50 0 19 50 0 19 49 0 19 49 0 19 49 0 18 49 0 18 48 0 18 48 0 18 48 0 18 48 0 18 48 0 18 48 0 18 48 0 18 48 0 18 49 0 18 49 0 19 49 0 19 49 0 19 49 0 19 50 0 19 50 0 20 50 0 20 50 0 20 51 0 20 51 0 20 51 0 20 51 0 21 51 0 21 52 0 21 52 0 21 52 0 21 52 0 21 52 0 21 53 0 22 53 0 22 53 0 22 53 0 22 53 0 22 53 0 22 54 0 22 54 0 23 54 0 23 54 0 23 54 0 23 54 0 23 54 0 23 55 0 23 55 0 23 55 0 23 55 0 23 55 0 23 55 0 24 55 0 24 55 0 24 55 0 24 56 0 24 56 0 24 56 0 24 56 0 24 56 0 24 56
0 62 105 0 31 64 0 18 49 0 25 57 0 29 62 0 30 64 0 30 64 0 30 64 0 30 63 0 29 62 0 28 60 0 26 59 0 25 58 0 24 56 0 23 55 0 22 54 0 21 52 0 21 51 0 20 50 0 19 49 0 18 48 0 18 48 0 18 48 0 19 49 0 19 49 0 20 50 0 20 51 0 20 51 0 21 52 0 21 52 0 21 52 0 22 53 0 22 53 0 22 53 0 22 53 0 22 54 0 22 54 0 23 54 0 23 54 0 23 54 0 23 54 0 23 54 0 23 54 0 23 54 0 23 54 0 23 54 0 22 54 0 22 54 0 22 54 0 22 54 0 22 53 0 22 53 0 22 53 0 22 53 0 22 53 0 21 52 0 21 52 0 21 52 0 21 52 0 21 52 0 21 51 0 20 51 0 20 51 0 20 51 0 20 50 0 20 50 0 19 50 0 19 50 0 19 50 0 19 49 0 19 49 0 18 49 0 18 48 0 18 48 0 18 48 0 18 48 0 18 48 0 18 48 0 18 48 0 18 48 0 18 48 0 18 49 0 19 49 0 19 49 0 19 49 0 19 50 0 19 50 0 20 50 0 20 50 0 20 51 0 20 51 0 20 51 0 20 51 0 21 51 0 21 52 0 21 52 0 21 52 0 21 52 0 21 52 0 22 53 0 22 53 0 22 53 0 22 53 0 22 53 0 22 54 0 22 54 0 22 54 0 23 54 0 23 54 0 23 54 0 23 54 0 23 55 0 23 55 0 23 55 0 23 55 0 23 55 0 23 55 0 24 55 0 24 55 0 24 55 0 24 55 0 24 56 0 24 56 0 24 56 0 24 56 0 24 56 0 24 56 0 24 56
0 65 108 0 31 65 0 19 49 0 26 58 0 29 63 0 31 65 0 31 65 0 31 64 0 30 63 0 29 62 0 28 61 0 27 59 0 26 58 0 24 56 0 23 55 0 22 54 0 21 52 0 21 51 0 20 50 0 19 49 0 18 48 0 18 48 0 18 48 0 19 49 0 19 50 0 20 50 0 20 51 0 21 51 0 21 52 0 21 52 0 22 53 0 22 53 0 22 53 0 22 54 0 22 54 0 23 54 0 23 54 0 23 54 0 23 54 0 23 54 0 23 54 0 23 54 0 23 54 0 23 54 0 23 54 0 23 54 0 23 54 0 23 54 0 22 54 0 22 54 0 22 54 0 22 53 0 22 53 0 22 53 0 22 53 0 21 53 0 21 52 0 21 52 0 21 52 0 21 52 0 21 51 0 20 51 0 20 51 0 20 51 0 20 50 0 20 50 0 19 50 0 19 50 0 19 49 0 19 49 0 19 49 0 18 49 0 18 48 0 18 48 0 18 48 0 18 48 0 18 48 0 18 48 0 18 48 0 18 48 0 18 49 0 19 49 0 19 49 0 19 49 0 19 50 0 19 50 0 19 50 0 20 50 0 20 50 0 20 51 0 20 51 0 20 51 0 21 51 0 21 52 0 21 52 0 21 52 0 21 52 0 21 52 0 21 53 0 22 53 0 22 53 0 22 53 0 22 53 0 22 54 0 22 54 0 22 54 0 23 54 0 23 54 0 23 54 0 23 54 0 23 55 0 23 55 0 23 55 0 23 55 0 23 55 0 23 55 0 24 55 0 24 55 0 24 55 0 24 55 0 24 56 0 24 56 0 24 56 0 24 56 0 24 56 0 24 56 0 24 56 0 24 56
0 66 110 0 31 65 0 19 50 0 27 59 0 30 63 0 32 66 0 32 66 0 31 65 0 30 64 0 29 63 0 28 61 0 27 59 0 26 58 0 25 57 0 23 55 0 22 54 0 21 52 0 20 51 0 20 50 0 19 49 0 18 48 0 18 48 0 18 49 0 19 49 0 20 50 0 20 51 0 20 51 0 21 52 0 21 52 0 21 53 0 22 53 0 22 53 0 22 54 0 22 54 0 23 54 0 23 54 0 23 54 0 23 54 0 23 55 0 23 55 0 23 55 0 23 55 0 23 55 0 23 55 0 23 54 0 23 54 0 23 54 0 23 54 0 23 54 0 22 54 0 22 54 0 22 53 0 22 53 0 22 53 0 22 53 0 22 53 0 21 52 0 21 52 0 21 52 0 21 52 0 21 51 0 20 51 0 20 51 0 20 51 0 20 50 0 20 50 0 19 50 0 19 50 0 19 49 0 19 49 0 19 49 0 18 49 0 18 48 0 18 48 0 18 48 0 18 48 0 18 48 0 18 48 0 18 48 0 18 48 0 18 49 0 19 49 0 19 49 0 19 49 0 19 50 0 19 50 0 20 50 0 20 50 0 20 51 0 20 51 0 20 51 0 20 51 0 21 52 0 21 52 0 21 52 0 21 52 0 21 52 0 21 53 0 22 53 0 22 53 0 22 53 0 22 53 0 22 53 0 22 54 0 22 54 0 23 54 0 23 54 0 23 54 0 23 54 0 23 55 0 23 55 0 23 55 0 23 55 0 23 55 0 23 55 0 24 55 0 24 55 0 24 55 0 24 55 0 24 56 0 24 56 0 24 56 0 24 56 0 24 56 0 24 56 0 24 56 0 24 56 0 24 56
0 66 110 0 31 65 0 19 50 0 27 59 0 30 64 0 32 66 0 32 66 0 31 65 0 31 64 0 29 63 0 28 61 0 27 60 0 26 58 0 25 57 0 23 55 0 22 54 0 21 52 0 20 51 0 20 50 0 19 49 0 18 48 0 18 48 0 18 49 0 19 50 0 20 50 0 20 51 0 21 51 0 21 52 0 21 52 0 22 53 0 22 53 0 22 53 0 22 54 0 23 54 0 23 54 0 23 54 0 23 54 0 23 55 0 23 55 0 23 55 0 23 55 0 23 55 0 23 55 0 23 55 0 23 55 0 23 54 0 23 54 0 23 54 0 23 54 0 23 54 0 22 54 0 22 53 0 22 53 0 22 53 0 22 53 0 21 53 0 21 52 0 21 52 0 21 52 0 21 52 0 21 51 0 20 51 0 20 51 0 20 51 0 20 50 0 20 50 0 19 50 0 19 50 0 19 49 0 19 49 0 18 49 0 18 48 0 18 48 0 18 48 0 18 48 0 18 48 0 18 48 0 18 48 0 18 48 0 18 49 0 19 49 0 19 49 0 19 49 0 19 50 0 19 50 0 20 50 0 20 50 0 20 51 0 20 51 0 20 51 0 20 51 0 21 51 0 21 52 0 21 52 0 21 52 0 21 52 0 21 52 0 22 53 0 22 53 0 22 53 0 22 53 0 22 53 0 22 54 0 22 54 0 23 54 0 23 54 0 23 54 0 23 54 0 23 54 0 23 55 0 23 55 0 23 55 0 23 55 0 23 55 0 23 55 0 24 55 0 24 55 0 24 55 0 24 55 0 24 56 0 24 56 0 24 56 0 24 56 0 24 56 0 24 56 0 24 56 0 24 56 0 24 56
0 66 109 0 31 65 0 19 50 0 27 59 0 30 64 0 32 66 0 32 66 0 31 65 0 31 64 0 29 63 0 28 61 0 27 60 0 26 58 0 25 56 0 23 55 0 22 54 0 21 52 0 20 51 0 19 50 0 19 49 0 18 48 0 18 48 0 18 49 0 19 50 0 20 50 0 20 51 0 21 51 0 21 52 0 21 52 0 22 53 0 22 53 0 22 54 0 22 54 0 23 54 0 23 54 0 23 54 0 23 55 0 23 55 0 23 55 0 23 55 0 23 55 0 23 55 0 23 55 0 23 55 0 23 55 0 23 54 0 23 54 0 23 54 0 23 54 0 23 54 0 22 54 0 22 54 0 22 53 0 22 53 0 22 53 0 22 53 0 21 52 0 21 52 0 21 52 0 21 52 0 21 51 0 20 51 0 20 51 0 20 51 0 20 50 0 19 50 0 19 50 0 19 50 0 19 49 0 19 49 0 18 49 0 18 48 0 18 48 0 18 48 0 18 48 0 18 48 0 18 48 0 18 48 0 18 48 0 18 49 0 19 49 0 19 49 0 19 49 0 19 50 0 19 50 0 20 50 0 20 50 0 20 51 0 20 51 0 20 51 0 20 51 0 21 52 0 21 52 0 21 52 0 21 52 0 21 52 0 21 53 0 22 53 0 22 53 0 22 53 0 22 53 0 22 53 0 22 54 0 22 54 0 23 54 0 23 54 0 23 54 0 23 54 0 23 55 0 23 55 0 23 55 0 23 55 0 23 55 0 23 55 0 23 55 0 24 55 0 24 55 0 24 55 0 24 55 0 24 55 0 24 56 0 24 56 0 24 56 0 24 56 0 24 56 0 24 56 0 24 56 0 24 56
0 64 106 0 31 64 0 19 50 0 26 59 0 30 63 0 31 65 0 31 65 0 31 65 0 30 64 0 29 63 0 28 61 0 27 60 0 26 58 0 24 56 0 23 55 0 22 54 0 21 52 0 20 51 0 19 50 0 19 49 0 18 48 0 18 48 0 19 49 0 19 50 0 20 50 0 20 51 0 21 52 0 21 52 0 21 52 0 22 53 0 22 53 0 22 54 0 22 54 0 23 54 0 23 54 0 23 54 0 23 55 0 23 55 0 23 55 0 23 55 0 23 55 0 23 55 0 23 55 0 23 55 0 23 55 0 23 54 0 23 54 0 23 54 0 23 54 0 22 54 0 22 54 0 22 53 0 22 53 0 22 53 0 22 53 0 21 53 0 21 52 0 21 52 0 21 52 0 21 52 0 20 51 0 20 51 0 20 51 0 20 51 0 20 50 0 19 50 0 19 50 0 19 49 0 19 49 0 19 49 0 18 49 0 18 48 0 18 48 0 18 48 0 18 48 0 18 48 0 18 48 0 18 48 0 18 49 0 19 49 0 19 49 0 19 49 0 19 49 0 19 50 0 19 50 0 20 50 0 20 50 0 20 51 0 20 51 0 20 51 0 21 51 0 21 52 0 21 52 0 21 52 0 21 52 0 21 52 0 21 53 0 22 53 0 22 53 0 22 53 0 22 53 0 22 53 0 22 54 0 22 54 0 23 54 0 23 54 0 23 54 0 23 54 0 23 54 0 23 55 0 23 55 0 23 55 0 23 55 0 23 55 0 23 55 0 23 55 0 24 55 0 24 55 0 24 55 0 24 55 0 24 55 0 24 55 0 24 55 0 24 56 0 24 56 0 24 56 0 24 56 0 24 56
0 61 103 0 30 63 0 19 49 0 26 58 0 29 62 0 31 64 0 31 65 0 30 64 0 30 63 0 29 62 0 28 61 0 27 59 0 25 58 0 24 56 0 23 55 0 22 53 0 21 52 0 20 51 0 19 50 0 18 49 0 18 48 0 18 48 0 19 49 0 19 50 0 20 50 0 20 51 0 21 51 0 21 52 0 21 52 0 22 53 0 22 53 0 22 54 0 22 54 0 23 54 0 23 54 0 23 54 0 23 55 0 23 55 0 23 55 0 23 55 0 23 55 0 23 55 0 23 55 0 23 55 0 23 54 0 23 54 0 23 54 0 23 54 0 23 54 0 22 54 0 22 54 0 22 53 0 22 53 0 22 53 0 22 53 0 21 53 0 21 52 0 21 52 0 21 52 0 21 51 0 20 51 0 20 51 0 20 51 0 20 50 0 20 50 0 19 50 0 19 50 0 19 49 0 19 49 0 19 49 0 18 49 0 18 48 0 18 48 0 18 48 0 18 48 0 18 48 0 18 48 0 18 48 0 18 49 0 19 49 0 19 49 0 19 49 0 19 50 0 19 50 0 19 50 0 20 50 0 20 51 0 20 51 0 20 51 0 20 51 0 21 51 0 21 52 0 21 52 0 21 52 0 21 52 0 21 52 0 21 53 0 22 53 0 22 53 0 22 53 0 22 53 0 22 53 0 22 54 0 22 54 0 22 54 0 23 54 0 23 54 0 23 54 0 23 54 0 23 54 0 23 55 0 23 55 0 23 55 0 23 55 0 23 55 0 23 55 0 23 55 0 23 55 0 23 55 0 24 55 0 24 55 0 24 55 0 24 55 0 24 55 0 24 55 0 24 55 0 24 55 0 24 56
0 57 97 0 29 62 0 18 49 0 25 57 0 28 61 0 30 63 0 30 63 0 30 63 0 29 62 0 28 61 0 27 60 0 26 59 0 25 57 0 24 56 0 23 55 0 22 53 0 21 52 0 20 51 0 19 50 0 19 49 0 18 48 0 18 48 0 18 49 0 19 49 0 20 50 0 20 51 0 20 51 0 21 52 0 21 52 0 22 53 0 22 53 0 22 53 0 22 54 0 22 54 0 23 54 0 23 54 0 23 54 0 23 54 0 23 55 0 23 55 0 23 55 0 23 54 0 23 54 0 23 54 0 23 54 0 23 54 0 23 54 0 23 54 0 22 54 0 22 54 0 22 53 0 22 53 0 22 53 0 22 53 0 21 53 0 21 52 0 21 52 0 21 52 0 21 52 0 21 51 0 20 51 0 20 51 0 20 51 0 20 50 0 19 50 0 19 50 0 19 50 0 19 49 0 19 49 0 18 49 0 18 48 0 18 48 0 18 48 0 18 48 0 18 48 0 18 48 0 18 48 0 18 48 0 18 49 0 19 49 0 19 49 0 19 49 0 19 50 0 19 50 0 20 50 0 20 50 0 20 51 0 20 51 0 20 51 0 20 51 0 21 51 0 21 52 0 21 52 0 21 52 0 21 52 0 21 52 0 21 53 0 22 53 0 22 53 0 22 53 0 22 53 0 22 53 0 22 53 0 22 54 0 22 54 0 22 54 0 23 54 0 23 54 0 23 54 0 23 54 0 23 54 0 23 54 0 23 55 0 23 55 0 23 55 0 23 55 0 23 55 0 23 55 0 23 55 0 23 55 0 23 55 0 23 55 0 23 55 0 23 55 0 23 55 0 23 55 0 23 55 0 23 55
0 52 91 0 28 61 0 18 48 0 24 55 0 27 59 0 28 61 0 29 62 0 29 62 0 28 61 0 28 60 0 27 59 0 26 58 0 25 57 0 24 56 0 23 54 0 22 53 0 21 52 0 20 51 0 19 50 0 19 49 0 18 48 0 18 48 0 18 49 0 19 49 0 20 50 0 20 51 0 20 51 0 21 52 0 21 52 0 21 52 0 22 53 0 22 53 0 22 53 0 22 54 0 22 54 0 23 54 0 23 54 0 23 54 0 23 54 0 23 54 0 23 54 0 23 54 0 23 54 0 23 54 0 23 54 0 23 54 0 22 54 0 22 54 0 22 54 0 22 53 0 22 53 0 22 53 0 22 53 0 22 53 0 21 52 0 21 52 0 21 52 0 21 52 0 21 51 0 20 51 0 20 51 0 20 51 0 20 50 0 20 50 0 19 50 0 19 50 0 19 49 0 19 49 0 19 49 0 18 49 0 18 48 0 18 48 0 18 48 0 18 48 0 18 48 0 18 48 0 18 48 0 18 48 0 18 49 0 19 49 0 19 49 0 19 49 0 19 50 0 19 50 0 20 50 0 20 50 0 20 51 0 20 51 0 20 51 0 20 51 0 20 51 0 21 52 0 21 52 0 21 52 0 21 52 0 21 52 0 21 52 0 21 53 0 22 53 0 22 53 0 22 53 0 22 53 0 22 53 0 22 53 0 22 54 0 22 54 0 22 54 0 22 54 0 23 54 0 23 54 0 23 54 0 23 54 0 23 54 0 23 54 0 23 54 0 23 54 0 23 55 0 23 55 0 23 55 0 23 55 0 23 55 0 23 55 0 23 55 0 23 55 0 23 55 0 23 55 0 23 55 0 23 55
0 45 83 0 27 60 0 18 48 0 22 54 0 25 57 0 27 59 0 27 60 0 27 60 0 27 60 0 27 59 0 26 58 0 25 57 0 24 56 0 23 55 0 23 54 0 22 53 0 21 52 0 20 51 0 19 50 0 19 49 0 18 48 0 18 48 0 18 48 0 19 49 0 19 50 0 20 50 0 20 51 0 21 51 0 21 52 0 21 52 0 21 53 0 22 53 0 22 53 0 22 53 0 22 54 0 22 54 0 22 54 0 23 54 0 23 54 0 23 54 0 23 54 0 23 54 0 23 54 0 22 54 0 22 54 0 22 54 0 22 54 0 22 53 0 22 53 0 22 53 0 22 53 0 22 53 0 22 53 0 21 52 0 21 52 0 21 52 0 21 52 0 21 52 0 20 51 0 20 51 0 20 51 0 20 51 0 20 50 0 20 50 0 19 50 0 19 50 0 19 49 0 19 49 0 19 49 0 18 49 0 18 48 0 18 48 0 18 48 0 18 48 0 18 48 0 18 48 0 18 48 0 18 48 0 18 49 0 19 49 0 19 49 0 19 49 0 19 50 0 19 50 0 20 50 0 20 50 0 20 50 0 20 51 0 20 51 0 20 51 0 20 51 0 21 51 0 21 52 0 21 52 0 21 52 0 21 52 0 21 52 0 21 52 0 21 53 0 22 53 0 22 53 0 22 53 0 22 53 0 22 53 0 22 53 0 22 53 0 22 54 0 22 54 0 22 54 0 22 54 0 22 54 0 23 54 0 23 54 0 23 54 0 23 54 0 23 54 0 23 54 0 23 54 0 23 54 0 23 54 0 23 54 0 23 54 0 23 54 0 23 54 0 23 54 0 23 54 0 23 54 0 23 54
0 39 74 0 26 58 0 19 49 0 21 51 0 23 55 0 25 57 0 26 58 0 26 58 0 26 58 0 26 58 0 25 57 0 25 57 0 24 56 0 23 55 0 22 54 0 22 53 0 21 52 0 20 51 0 19 50 0 19 49 0 18 48 0 18 48 0 18 48 0 19 49 0 19 49 0 19 50 0 20 51 0 20 51 0 21 52 0 21 52 0 21 52 0 21 53 0 22 53 0 22 53 0 22 53 0 22 53 0 22 53 0 22 54 0 22 54 0 22 54 0 22 54 0 22 54 0 22 54 0 22 54 0 22 53 0 22 53 0 22 53 0 22 53 0 22 53 0 22 53 0 22 53 0 21 53 0 21 52 0 21 52 0 21 52 0 21 52 0 21 52 0 21 51 0 20 51 0 20 51 0 20 51 0 20 50 0 20 50 0 19 50 0 19 50 0 19 49 0 19 49 0 19 49 0 18 49 0 18 48 0 18 48 0 18 48 0 18 48 0 18 48 0 18 48 0 18 48 0 18 48 0 18 48 0 18 49 0 19 49 0 19 49 0 19 49 0 19 50 0 19 50 0 19 50 0 20 50 0 20 50 0 20 51 0 20 51 0 20 51 0 20 51 0 20 51 0 21 51 0 21 52 0 21 52 0 21 52 0 21 52 0 21 52 0 21 52 0 21 52 0 21 53 0 22 53 0 22 53 0 22 53 0 22 53 0 22 53 0 22 53 0 22 53 0 22 53 0 22 53 0 22 53 0 22 54 0 22 54 0 22 54 0 22 54 0 22 54 0 22 54 0 22 54 0 22 54 0 22 54 0 22 54 0 22 54 0 22 54 0 22 54 0 22 54 0 22 54 0 22 54 0 22 54
0 31 64 0 25 57 0 20 50 0 19 49 0 21 52 0 23 54 0 24 56 0 24 56 0 25 57 0 25 56 0 24 56 0 24 56 0 23 55 0 23 54 0 22 53 0 21 52 0 21 52 0 20 51 0 20 50 0 19 49 0 18 48 0 18 48 0 18 48 0 18 49 0 19 49 0 19 50 0 20 50 0 20 51 0 20 51 0 21 51 0 21 52 0 21 52 0 21 52 0 21 52 0 22 53 0 22 53 0 22 53 0 22 53 0 22 53 0 22 53 0 22 53 0 22 53 0 22 53 0 22 53 0 22 53 0 22 53 0 22 53 0 22 53 0 22 53 0 21 53 0 21 52 0 21 52 0 21 52 0 21 52 0 21 52 0 21 52 0 21 51 0 20 51 0 20 51 0 20 51 0 20 50 0 20 50 0 19 50 0 19 50 0 19 50 0 19 49 0 19 49 0 19 49 0 18 49 0 18 48 0 18 48 0 18 48 0 18 48 0 18 48 0 18 48 0 18 48 0 18 48 0 18 48 0 18 49 0 19 49 0 19 49 0 19 49 0 19 50 0 19 50 0 19 50 0 20 50 0 20 50 0 20 50 0 20 51 0 20 51 0 20 51 0 20 51 0 20 51 0 21 51 0 21 52 0 21 52 0 21 52 0 21 52 0 21 52 0 21 52 0 21 52 0 21 52 0 21 52 0 21 53 0 22 53 0 22 53 0 22 53 0 22 53 0 22 53 0 22 53 0 22 53 0 22 53 0 22 53 0 22 53 0 22 53 0 22 53 0 22 53 0 22 53 0 22 53 0 22 53 0 22 53 0 22 53 0 22 53 0 22 53 0 22 53 0 22 53 0 22 53 0 22 53
0 22 54 0 23 55 0 21 52 0 18 49 0 19 49 0 21 51 0 22 53 0 22 54 0 23 55 0 23 55 0 23 55 0 23 55 0 23 54 0 22 54 0 22 53 0 21 52 0 21 52 0 20 51 0 20 50 0 19 49 0 18 49 0 18 48 0 18 48 0 18 48 0 18 49 0 19 49 0 19 50 0 20 50 0 20 51 0 20 51 0 20 51 0 21 52 0 21 52 0 21 52 0 21 52 0 21 52 0 21 52 0 21 53 0 22 53 0 22 53 0 22 53 0 22 53 0 22 53 0 22 53 0 21 53 0 21 53 0 21 52 0 21 52 0 21 52 0 21 52 0 21 52 0 21 52 0 21 52 0 21 52 0 21 51 0 20 51 0 20 51 0 20 51 0 20 51 0 20 50 0 20 50 0 20 50 0 19 50 0 19 50 0 19 49 0 19 49 0 19 49 0 18 49 0 18 49 0 18 48 0 18 48 0 18 48 0 18 48 0 18 48 0 18 48 0 18 48 0 18 48 0 18 48 0 18 49 0 19 49 0 19 49 0 19 49 0 19 49 0 19 50 0 19 50 0 19 50 0 20 50 0 20 50 0 20 50 0 20 51 0 20 51 0 20 51 0 20 51 0 20 51 0 20 51 0 21 51 0 21 52 0 21 52 0 21 52 0 21 52 0 21 52 0 21 52 0 21 52 0 21 52 0 21 52 0 21 52 0 21 52 0 21 52 0 21 52 0 21 53 0 21 53 0 22 53 0 22 53 0 22 53 0 22 53 0 22 53 0 22 53 0 22 53 0 22 53 0 22 53 0 22 53 0 22 53 0 22 53 0 22 53 0 22 53 0 21 53 0 21 53 0 21 52
0 21 52 0 22 53 0 22 53 0 21 51 0 19 49 0 18 48 0 20 50 0 21 51 0 21 52 0 22 53 0 22 53 0 22 53 0 22 53 0 22 53 0 21 52 0 21 52 0 21 51 0 20 51 0 20 50 0 19 50 0 19 49 0 18 48 0 18 48 0 18 48 0 18 48 0 19 49 0 19 49 0 19 50 0 20 50 0 20 50 0 20 51 0 20 51 0 20 51 0 21 51 0 21 52 0 21 52 0 21 52 0 21 52 0 21 52 0 21 52 0 21 52 0 21 52 0 21 52 0 21 52 0 21 52 0 21 52 0 21 52 0 21 52 0 21 52 0 21 52 0 21 52 0 21 51 0 20 51 0 20 51 0 20 51 0 20 51 0 20 51 0 20 51 0 20 50 0 20 50 0 19 50 0 19 50 0 19 50 0 19 49 0 19 49 0 19 49 0 19 49 0 18 49 0 18 48 0 18 48 0 18 48 0 18 48 0 18 48 0 18 48 0 18 48 0 18 48 0 18 48 0 18 48 0 18 49 0 19 49 0 19 49 0 19 49 0 19 49 0 19 50 0 19 50 0 19 50 0 19 50 0 20 50 0 20 50 0 20 50 0 20 51 0 20 51 0 20 51 0 20 51 0 20 51 0 20 51 0 20 51 0 20 51 0 21 51 0 21 51 0 21 52 0 21 52 0 21 52 0 21 52 0 21 52 0 21 52 0 21 52 0 21 52 0 21 52 0 21 52 0 21 52 0 21 52 0 21 52 0 21 52 0 21 52 0 21 52 0 21 52 0 21 52 0 21 52 0 21 52 0 21 52 0 21 52 0 21 52 0 21 52 0 21 52 0 21 52 0 21 52 0 21 52
0 30 64 0 21 51 0 23 55 0 23 54 0 21 52 0 19 50 0 18 48 0 19 49 0 20 50 0 20 51 0 21 52 0 21 52 0 21 52 0 21 52 0 21 52 0 21 52 0 20 51 0 20 51 0 20 50 0 19 50 0 19 49 0 18 49 0 18 48 0 18 48 0 18 48 0 18 48 0 18 49 0 19 49 0 19 50 0 19 50 0 20 50 0 20 50 0 20 51 0 20 51 0 20 51 0 20 51 0 20 51 0 21 51 0 21 51 0 21 51 0 21 52 0 21 52 0 21 52 0 21 52 0 21 52 0 21 51 0 21 51 0 21 51 0 21 51 0 20 51 0 20 51 0 20 51 0 20 51 0 20 51 0 20 51 0 20 51 0 20 50 0 20 50 0 20 50 0 19 50 0 19 50 0 19 50 0 19 49 0 19 49 0 19 49 0 19 49 0 18 49 0 18 49 0 18 48 0 18 48 0 18 48 0 18 48 0 18 48 0 18 48 0 18 48 0 18 48 0 18 48 0 18 48 0 18 49 0 18 49 0 19 49 0 19 49 0 19 49 0 19 49 0 19 50 0 19 50 0 19 50 0 19 50 0 20 50 0 20 50 0 20 50 0 20 50 0 20 51 0 20 51 0 20 51 0 20 51 0 20 51 0 20 51 0 20 51 0 20 51 0 20 51 0 20 51 0 20 51 0 20 51 0 20 51 0 20 51 0 21 51 0 21 51 0 21 51 0 21 51 0 21 51 0 21 52 0 21 52 0 21 52 0 21 52 0 21 52 0 21 52 0 21 52 0 21 52 0 21 52 0 21 52 0 21 52 0 21 51 0 21 51 0 20 51 0 20 51 0 20 51 0 20 51
0 40 76 0 19 49 0 25 57 0 25 57 0 24 56 0 22 53 0 20 51 0 19 49 0 18 48 0 19 49 0 20 50 0 20 51 0 21 51 0 21 52 0 21 52 0 21 51 0 20 51 0 20 51 0 20 50 0 19 50 0 19 49 0 19 49 0 18 49 0 18 48 0 18 48 0 18 48 0 18 48 0 18 49 0 19 49 0 19 49 0 19 50 0 19 50 0 19 50 0 20 50 0 20 50 0 20 50 0 20 51 0 20 51 0 20 51 0 20 51 0 20 51 0 20 51 0 20 51 0 20 51 0 20 51 0 20 51 0 20 51 0 20 51 0 20 51 0 20 51 0 20 51 0 20 51 0 20 50 0 20 50 0 20 50 0 20 50 0 20 50 0 19 50 0 19 50 0 19 50 0 19 49 0 19 49 0 19 49 0 19 49 0 19 49 0 18 49 0 18 49 0 18 48 0 18 48 0 18 48 0 18 48 0 18 48 0 18 48 0 18 48 0 18 48 0 18 48 0 18 48 0 18 48 0 18 48 0 18 49 0 19 49 0 19 49 0 19 49 0 19 49 0 19 49 0 19 50 0 19 50 0 19 50 0 19 50 0 19 50 0 19 50 0 20 50 0 20 50 0 20 50 0 20 50 0 20 50 0 20 50 0 20 51 0 20 51 0 20 51 0 20 51 0 20 51 0 20 51 0 20 51 0 20 51 0 20 51 0 20 51 0 20 51 0 20 51 0 20 51 0 20 51 0 20 51 0 20 51 0 20 51 0 20 51 0 20 51 0 20 51 0 20 51 0 20 51 0 20 51 0 20 51 0 20 51 0 20 51 0 20 51 0 20 51 0 20 50 0 20 50 0 20 50
0 49 88 0 18 48 0 26 58 0 27 60 0 27 59 0 25 57 0 23 54 0 21 51 0 19 49 0 18 48 0 18 49 0 19 50 0 20 50 0 20 51 0 20 51 0 20 51 0 20 51 0 20 51 0 20 50 0 19 50 0 19 50 0 19 49 0 19 49 0 18 48 0 18 48 0 18 48 0 18 48 0 18 48 0 18 48 0 18 49 0 19 49 0 19 49 0 19 49 0 19 49 0 19 50 0 19 50 0 19 50 0 19 50 0 20 50 0 20 50 0 20 50 0 20 50 0 20 50 0 20 50 0 20 50 0 20 50 0 20 50 0 20 50 0 20 50 0 20 50 0 20 50 0 20 50 0 19 50 0 19 50 0 19 50 0 19 50 0 19 50 0 19 50 0 19 49 0 19 49 0 19 49 0 19 49 0 19 49 0 19 49 0 18 49 0 18 49 0 18 48 0 18 48 0 18 48 0 18 48 0 18 48 0 18 48 0 18 48 0 18 48 0 18 48 0 18 48 0 18 48 0 18 48 0 18 48 0 18 49 0 18 49 0 19 49 0 19 49 0 19 49 0 19 49 0 19 49 0 19 49 0 19 49 0 19 50 0 19 50 0 19 50 0 19 50 0 19 50 0 19 50 0 19 50 0 19 50 0 19 50 0 20 50 0 20 50 0 20 50 0 20 50 0 20 50 0 20 50 0 20 50 0 20 50 0 20 50 0 20 50 0 20 50 0 20 50 0 20 50 0 20 50 0 20 50 0 20 50 0 20 50 0 20 50 0 20 50 0 20 50 0 20 50 0 20 50 0 20 50 0 20 50 0 19 50 0 19 50 0 19 50 0 19 50 0 19 50 0 19 49 0 19 49
0 58 99 0 19 49 0 27 60 0 30 63 0 29 62 0 27 60 0 25 57 0 23 54 0 21 51 0 19 49 0 18 48 0 18 49 0 19 50 0 20 50 0 20 51 0 20 51 0 20 51 0 20 51 0 20 51 0 20 50 0 19 50 0 19 50 0 19 49 0 19 49 0 18 49 0 18 48 0 18 48 0 18 48 0 18 48 0 18 48 0 18 48 0 18 48 0 18 49 0 18 49 0 19 49 0 19 49 0 19 49 0 19 49 0 19 49 0 19 49 0 19 49 0 19 50 0 19 50 0 19 50 0 19 50 0 19 50 0 19 50 0 19 50 0 19 50 0 19 50 0 19 50 0 19 50 0 19 49 0 19 49 0 19 49 0 19 49 0 19 49 0 19 49 0 19 49 0 19 49 0 19 49 0 19 49 0 18 49 0 18 49 0 18 49 0 18 48 0 18 48 0 18 48 0 18 48 0 18 48 0 18 48 0 18 48 0 18 48 0 18 48 0 18 48 0 18 48 0 18 48 0 18 48 0 18 48 0 18 48 0 18 49 0 18 49 0 19 49 0 19 49 0 19 49 0 19 49 0 19 49 0 19 49 0 19 49 0 19 49 0 19 49 0 19 49 0 19 49 0 19 50 0 19 50 0 19 50 0 19 50 0 19 50 0 19 50 0 19 50 0 19 50 0 19 50 0 19 50 0 19 50 0 19 50 0 19 50 0 19 50 0 19 50 0 19 50 0 19 49 0 19 49 0 19 49 0 19 49 0 19 49 0 19 49 0 19 49 0 19 49 0 19 49 0 19 49 0 19 49 0 19 49 0 19 49 0 19 49 0 19 49 0 19 49 0 19 49 0 18 49 0 18 48
0 66 110 0 20 51 0 28 61 0 32 66 0 32 66 0 30 63 0 27 60 0 25 57 0 22 54 0 20 51 0 19 49 0 18 48 0 18 49 0 19 49 0 19 50 0 20 50 0 20 51 0 20 51 0 20 51 0 20 50 0 20 50 0 19 50 0 19 50 0 19 49 0 19 49 0 19 49 0 18 48 0 18 48 0 18 48 0 18 48 0 18 48 0 18 48 0 18 48 0 18 48 0 18 48 0 18 48 0 18 48 0 18 49 0 18 49 0 18 49 0 19 49 0 19 49 0 19 49 0 19 49 0 19 49 0 19 49 0 19 49 0 19 49 0 19 49 0 19 49 0 19 49 0 19 49 0 19 49 0 19 49 0 19 49 0 19 49 0 19 49 0 19 49 0 18 49 0 18 49 0 18 49 0 18 49 0 18 48 0 18 48 0 18 48 0 18 48 0 18 48 0 18 48 0 18 48 0 18 48 0 18 48 0 18 48 0 18 48 0 18 48 0 18 48 0 18 48 0 18 48 0 18 48 0 18 48 0 18 48 0 18 48 0 18 49 0 18 49 0 18 49 0 19 49 0 19 49 0 19 49 0 19 49 0 19 49 0 19 49 0 19 49 0 19 49 0 19 49 0 19 49 0 19 49 0 19 49 0 19 49 0 19 49 0 19 49 0 19 49 0 19 49 0 19 49 0 19 49 0 19 49 0 19 49 0 19 49 0 19 49 0 19 49 0 19 49 0 18 49 0 18 49 0 18 49 0 18 49 0 18 49 0 18 49 0 18 49 0 18 49 0 18 49 0 18 49 0 18 49 0 18 49 0 18 48 0 18 48 0 18 48 0 18 48 0 18 48 0 18 48 0 18 48
0 74 120 0 22 53 0 30 63 0 34 69 0 34 69 0 32 66 0 29 62 0 27 59 0 24 56 0 22 53 0 20 51 0 18 49 0 18 48 0 19 49 0 19 50 0 19 50 0 20 50 0 20 51 0 20 51 0 20 51 0 20 50 0 20 50 0 19 50 0 19 50 0 19 50 0 19 49 0 19 49 0 19 49 0 18 49 0 18 48 0 18 48 0 18 48 0 18 48 0 18 48 0 18 48 0 18 48 0 18 48 0 18 48 0 18 48 0 18 48 0 18 48 0 18 48 0 18 48 0 18 48 0 18 48 0 18 48 0 18 48 0 18 48 0 18 48 0 18 48 0 18 48 0 18 48 0 18 48 0 18 48 0 18 48 0 18 48 0 18 48 0 18 48 0 18 48 0 18 48 0 18 48 0 18 48 0 18 48 0 18 48 0 18 48 0 18 48 0 18 48 0 18 48 0 18 48 0 18 48 0 18 48 0 18 48 0 18 48 0 18 48 0 18 48 0 18 48 0 18 48 0 18 48 0 18 48 0 18 48 0 18 48 0 18 48 0 18 48 0 18 48 0 18 49 0 18 49 0 18 49 0 18 49 0 18 49 0 18 49 0 18 49 0 18 49 0 18 49 0 18 49 0 18 49 0 18 49 0 18 49 0 18 49 0 18 49 0 18 48 0 18 48 0 18 48 0 18 48 0 18 48 0 18 48 0 18 48 0 18 48 0 18 48 0 18 48 0 18 48 0 18 48 0 18 48 0 18 48 0 18 48 0 18 48 0 18 48 0 18 48 0 18 48 0 18 48 0 18 48 0 18 48 0 18 48 0 18 48 0 18 48 0 18 48 0 18 48 0 18 48 0 18 48
0 81 128 0 23 54 0 31 64 0 36 71 0 36 71 0 34 68 0 31 65 0 28 61 0 25 58 0 23 55 0 21 52 0 19 50 0 18 48 0 18 48 0 19 49 0 19 50 0 20 50 0 20 50 0 20 51 0 20 51 0 20 51 0 20 51 0 20 50 0 20 50 0 19 50 0 19 50 0 19 50 0 19 49 0 19 49 0 19 49 0 18 49 0 18 49 0 18 48 0 18 48 0 18 48 0 18 48 0 18 48 0 18 48 0 18 48 0 18 48 0 18 48 0 18 48 0 18 48 0 18 48 0 18 48 0 18 48 0 18 48 0 18 48 0 18 48 0 18 48 0 18 48 0 18 48 0 18 48 0 18 48 0 18 48 0 18 48 0 18 48 0 18 48 0 18 48 0 18 48 0 18 48 0 18 48 0 18 48 0 18 48 0 18 48 0 18 48 0 18 48 0 18 48 0 18 48 0 18 48 0 18 48 0 18 48 0 18 48 0 18 48 0 18 48 0 18 48 0 18 48 0 18 48 0 18 48 0 18 48 0 18 48 0 18 48 0 18 48 0 18 48 0 18 48 0 18 48 0 18 48 0 18 48 0 18 48 0 18 48 0 18 48 0 18 48 0 18 48 0 18 48 0 18 48 0 18 48 0 18 48 0 18 48 0 18 48 0 18 48 0 18 48 0 18 48 0 18 48 0 18 48 0 18 48 0 18 48 0 18 48 0 18 48 0 18 48 0 18 48 0 18 48 0 18 48 0 18 48 0 18 48 0 18 48 0 18 48 0 18 48 0 18 48 0 18 48 0 18 48 0 18 48 0 18 48 0 18 48 0 18 48 0 18 48 0 18 48 0 18 48 0 18 48
0 86 136 0 24 55 0 31 65 0 37 73 0 38 74 0 36 71 0 33 67 0 30 63 0 27 59 0 24 56 0 22 53 0 20 51 0 19 49 0 18 48 0 18 49 0 19 49 0 19 50 0 20 50 0 20 51 0 20 51 0 20 51 0 20 51 0 20 51 0 20 50 0 20 50 0 20 50 0 19 50 0 19 50 0 19 50 0 19 49 0 19 49 0 19 49 0 19 49 0 19 49 0 19 49 0 19 49 0 18 49 0 18 49 0 18 48 0 18 48 0 18 48 0 18 48 0 18 48 0 18 48 0 18 48 0 18 48 0 18 48 0 18 48 0 18 48 0 18 48 0 18 48 0 18 48 0 18 48 0 18 48 0 18 48 0 18 48 0 18 48 0 18 48 0 18 48 0 18 48 0 18 48 0 18 48 0 18 48 0 18 48 0 18 48 0 18 48 0 18 48 0 18 48 0 18 48 0 18 48 0 18 48 0 18 48 0 18 48 0 18 48 0 18 48 0 18 48 0 18 48 0 18 48 0 18 48 0 18 48 0 18 48 0 18 48 0 18 48 0 18 48 0 18 48 0 18 48 0 18 48 0 18 48 0 18 48 0 18 48 0 18 48 0 18 48 0 18 48 0 18 48 0 18 48 0 18 48 0 18 48 0 18 48 0 18 48 0 18 48 0 18 48 0 18 48 0 18 48 0 18 48 0 18 48 0 18 48 0 18 48 0 18 48 0 18 48 0 18 48 0 18 49 0 18 49 0 18 49 0 18 49 0 18 49 0 18 49 0 18 49 0 19 49 0 19 49 0 19 49 0 19 49 0 18 49 0 18 48 0 18 48 0 18 48 0 18 48 0 18 48 0 18 48
0 91 141 0 24 56 0 32 66 0 39 75 0 39 75 0 37 73 0 34 69 0 31 65 0 28 61 0 25 57 0 23 54 0 21 52 0 19 50 0 18 48 0 18 48 0 19 49 0 19 50 0 20 50 0 20 51 0 20 51 0 20 51 0 20 51 0 20 51 0 20 51 0 20 51 0 20 51 0 20 50 0 20 50 0 19 50 0 19 50 0 19 50 0 19 50 0 19 50 0 19 50 0 19 49 0 19 49 0 19 49 0 19 49 0 19 49 0 19 49 0 19 49 0 19 49 0 19 49 0 19 49 0 19 49 0 18 49 0 18 49 0 18 49 0 18 48 0 18 48 0 18 48 0 18 48 0 18 48 0 18 48 0 18 48 0 18 48 0 18 48 0 18 48 0 18 48 0 18 48 0 18 48 0 18 48 0 18 48 0 18 48 0 18 48 0 18 48 0 18 48 0 18 48 0 18 48 0 18 48 0 18 48 0 18 48 0 18 48 0 18 48 0 18 48 0 18 48 0 18 48 0 18 48 0 18 48 0 18 48 0 18 48 0 18 48 0 18 48 0 18 48 0 18 48 0 18 48 0 18 48 0 18 48 0 18 48 0 18 48 0 18 48 0 18 48 0 18 48 0 18 48 0 18 48 0 18 48 0 18 48 0 18 48 0 18 48 0 18 48 0 18 48 0 18 49 0 18 49 0 18 49 0 19 49 0 19 49 0 19 49 0 19 49 0 19 49 0 19 49 0 19 49 0 19 49 0 19 49 0 19 49 0 19 49 0 19 49 0 19 49 0 19 49 0 19 49 0 18 49 0 18 49 0 18 48 0 18 48 0 18 48 0 18 48 0 18 48 0 18 48 0 18 48
0 94 145 0 25 57 0 32 66 0 39 75 0 40 76 0 38 74 0 35 70 0 32 66 0 29 62 0 26 58 0 24 55 0 21 53 0 20 50 0 18 49 0 18 48 0 18 49 0 19 49 0 19 50 0 20 50 0 20 51 0 20 51 0 20 51 0 20 51 0 20 51 0 20 51 0 20 51 0 20 51 0 20 51 0 20 51 0 20 50 0 20 50 0 20 50 0 20 50 0 20 50 0 19 50 0 19 50 0 19 50 0 19 50 0 19 50 0 19 50 0 19 50 0 19 50 0 19 49 0 19 49 0 19 49 0 19 49 0 19 49 0 19 49 0 19 49 0 19 49 0 19 49 0 19 49 0 18 49 0 18 49 0 18 49 0 18 48 0 18 48 0 18 48 0 18 48 0 18 48 0 18 48 0 18 48 0 18 48 0 18 48 0 18 48 0 18 48 0 18 48 0 18 48 0 18 48 0 18 48 0 18 48 0 18 48 0 18 48 0 18 48 0 18 48 0 18 48 0 18 48 0 18 48 0 18 48 0 18 48 0 18 48 0 18 48 0 18 48 0 18 48 0 18 48 0 18 48 0 18 48 0 18 48 0 18 48 0 18 48 0 18 48 0 18 48 0 18 48 0 18 48 0 18 48 0 18 48 0 18 48 0 18 49 0 18 49 0 19 49 0 19 49 0 19 49 0 19 49 0 19 49 0 19 49 0 19 50 0 19 50 0 19 50 0 19 50 0 19 50 0 19 50 0 19 50 0 19 50 0 19 49 0 19 49 0 19 49 0 19 49 0 19 49 0 18 49 0 18 49 0 18 48 0 18 48 0 18 48 0 18 48 0 18 48 0 18 48 0 18 48 0 18 48
0 95 146 0 25 57 0 32 67 0 40 76 0 41 77 0 39 74 0 36 71 0 33 67 0 29 63 0 27 59 0 24 56 0 22 53 0 20 51 0 19 49 0 18 48 0 18 48 0 19 49 0 19 50 0 20 50 0 20 50 0 20 51 0 20 51 0 20 51 0 20 51 0 20 51 0 20 51 0 20 51 0 20 51 0 20 51 0 20 51 0 20 51 0 20 51 0 20 51 0 20 51 0 20 51 0 20 51 0 20 50 0 20 50 0 20 50 0 20 50 0 20 50 0 20 50 0 20 50 0 19 50 0 19 50 0 19 50 0 19 50 0 19 50 0 19 50 0 19 49 0 19 49 0 19 49 0 19 49 0 19 49 0 19 49 0 19 49 0 19 49 0 19 49 0 19 49 0 18 49 0 18 49 0 18 49 0 18 48 0 18 48 0 18 48 0 18 48 0 18 48 0 18 48 0 18 48 0 18 48 0 18 48 0 18 48 0 18 48 0 18 48 0 18 48 0 18 48 0 18 48 0 18 48 0 18 48 0 18 48 0 18 48 0 18 48 0 18 48 0 18 48 0 18 48 0 18 48 0 18 48 0 18 48 0 18 48 0 18 48 0 18 48 0 18 48 0 18 48 0 18 49 0 18 49 0 19 49 0 19 49 0 19 49 0 19 49 0 19 49 0 19 50 0 19 50 0 19 50 0 19 50 0 20 50 0 20 50 0 20 50 0 20 50 0 20 50 0 19 50 0 19 50 0 19 50 0 19 49 0 19 49 0 19 49 0 19 49 0 18 49 0 18 49 0 18 48 0 18 48 0 18 48 0 18 48 0 18 48 0 18 48 0 18 48 0 18 48 0 18 48 0 18 48
0 94 146 0 25 58 0 32 67 0 40 76 0 41 77 0 39 75 0 36 71 0 33 67 0 29 63 0 27 60 0 24 56 0 22 54 0 21 51 0 19 50 0 18 48 0 18 48 0 18 49 0 19 49 0 20 50 0 20 50 0 20 51 0 20 51 0 20 51 0 20 51 0 20 51 0 20 51 0 20 51 0 20 51 0 20 51 0 20 51 0 20 51 0 20 51 0 20 51 0 20 51 0 20 51 0 20 51 0 20 51 0 20 51 0 20 51 0 20 51 0 20 51 0 20 51 0 20 51 0 20 51 0 20 51 0 20 50 0 20 50 0 20 50 0 20 50 0 19 50 0 19 50 0 19 50 0 19 50 0 19 50 0 19 50 0 19 49 0 19 49 0 19 49 0 19 49 0 19 49 0 19 49 0 19 49 0 19 49 0 18 49 0 18 49 0 18 49 0 18 49 0 18 48 0 18 48 0 18 48 0 18 48 0 18 48 0 18 48 0 18 48 0 18 48 0 18 48 0 18 48 0 18 48 0 18 48 0 18 48 0 18 48 0 18 48 0 18 48 0 18 48 0 18 48 0 18 48 0 18 48 0 18 48 0 18 48 0 18 48 0 18 49 0 18 49 0 19 49 0 19 49 0 19 49 0 19 49 0 19 50 0 19 50 0 19 50 0 19 50 0 20 50 0 20 50 0 20 50 0 20 51 0 20 51 0 20 50 0 20 50 0 19 50 0 19 50 0 19 50 0 19 49 0 19 49 0 19 49 0 19 49 0 18 49 0 18 49 0 18 48 0 18 48 0 18 48 0 18 48 0 18 48 0 18 48 0 18 48 0 18 48 0 18 48 0 18 48 0 18 48 0 18 48
0 92 142 0 25 57 0 32 66 0 39 75 0 40 77 0 38 74 0 36 71 0 33 67 0 29 63 0 27 60 0 25 57 0 23 54 0 21 52 0 20 50 0 18 49 0 18 48 0 18 48 0 19 49 0 19 50 0 19 50 0 20 50 0 20 51 0 20 51 0 20 51 0 20 51 0 20 51 0 20 51 0 20 51 0 20 51 0 20 51 0 20 51 0 20 51 0 20 51 0 21 51 0 21 51 0 20 51 0 20 51 0 20 51 0 20 51 0 20 51 0 20 51 0 20 51 0 20 51 0 20 51 0 20 51 0 20 51 0 20 51 0 20 51 0 20 51 0 20 51 0 20 50 0 20 50 0 20 50 0 20 50 0 20 50 0 19 50 0 19 50 0 19 50 0 19 50 0 19 50 0 19 49 0 19 49 0 19 49 0 19 49 0 19 49 0 19 49 0 18 49 0 18 49 0 18 49 0 18 48 0 18 48 0 18 48 0 18 48 0 18 48 0 18 48 0 18 48 0 18 48 0 18 48 0 18 48 0 18 48 0 18 48 0 18 48 0 18 48 0 18 48 0 18 48 0 18 48 0 18 48 0 18 48 0 18 49 0 19 49 0 19 49 0 19 49 0 19 49 0 19 49 0 19 50 0 19 50 0 19 50 0 20 50 0 20 50 0 20 51 0 20 51 0 20 51 0 20 51 0 20 50 0 20 50 0 19 50 0 19 50 0 19 50 0 19 49 0 19 49 0 19 49 0 19 49 0 18 49 0 18 49 0 18 49 0 18 48 0 18 48 0 18 48 0 18 48 0 18 48 0 18 48 0 18 48 0 18 48 0 18 48 0 18 48 0 18 48 0 18 48 0 18 48
0 87 136 0 25 57 0 31 65 0 38 73 0 39 75 0 37 73 0 35 69 0 32 66 0 29 62 0 27 59 0 25 57 0 23 54 0 21 52 0 20 50 0 19 49 0 18 48 0 18 48 0 18 49 0 19 49 0 19 50 0 19 50 0 20 50 0 20 50 0 20 51 0 20 51 0 20 51 0 20 51 0 20 51 0 20 51 0 20 51 0 20 51 0 21 51 0 21 51 0 21 52 0 21 52 0 21 52 0 21 52 0 21 52 0 21 52 0 21 52 0 21 52 0 21 52 0 21 52 0 21 52 0 21 52 0 21 51 0 21 51 0 20 51 0 20 51 0 20 51 0 20 51 0 20 51 0 20 51 0 20 51 0 20 51 0 20 50 0 20 50 0 20 50 0 20 50 0 19 50 0 19 50 0 19 50 0 19 50 0 19 49 0 19 49 0 19 49 0 19 49 0 19 49 0 19 49 0 18 49 0 18 49 0 18 48 0 18 48 0 18 48 0 18 48 0 18 48 0 18 48 0 18 48 0 18 48 0 18 48 0 18 48 0 18 48 0 18 48 0 18 48 0 18 48 0 18 48 0 18 49 0 18 49 0 19 49 0 19 49 0 19 49 0 19 49 0 19 50 0 19 50 0 19 50 0 20 50 0 20 50 0 20 51 0 20 51 0 20 51 0 20 51 0 20 50 0 20 50 0 19 50 0 19 50 0 19 50 0 19 49 0 19 49 0 19 49 0 19 49 0 18 49 0 18 49 0 18 49 0 18 48 0 18 48 0 18 48 0 18 48 0 18 48 0 18 48 0 18 48 0 18 48 0 18 48 0 18 48 0 18 48 0 18 48 0 18 48 0 18 48 0 18 48
0 80 128 0 24 56 0 30 63 0 36 71 0 37 72 0 35 70 0 34 68 0 31 65 0 29 62 0 26 59 0 24 56 0 23 54 0 21 52 0 20 51 0 19 49 0 18 49 0 18 48 0 18 48 0 18 49 0 19 49 0 19 49 0 19 50 0 20 50 0 20 50 0 20 51 0 20 51 0 20 51 0 20 51 0 20 51 0 20 51 0 20 51 0 21 51 0 21 52 0 21 52 0 21 52 0 21 52 0 21 52 0 21 52 0 21 52 0 21 52 0 21 52 0 21 52 0 21 52 0 21 52 0 21 52 0 21 52 0 21 52 0 21 52 0 21 52 0 21 52 0 21 51 0 21 51 0 20 51 0 20 51 0 20 51 0 20 51 0 20 51 0 20 51 0 20 50 0 20 50 0 20 50 0 19 50 0 19 50 0 19 50 0 19 50 0 19 49 0 19 49 0 19 49 0 19 49 0 19 49 0 18 49 0 18 49 0 18 48 0 18 48 0 18 48 0 18 48 0 18 48 0 18 48 0 18 48 0 18 48 0 18 48 0 18 48 0 18 48 0 18 48 0 18 48 0 18 49 0 19 49 0 19 49 0 19 49 0 19 49 0 19 50 0 19 50 0 19 50 0 20 50 0 20 50 0 20 51 0 20 51 0 20 51 0 20 51 0 20 50 0 20 50 0 19 50 0 19 50 0 19 50 0 19 49 0 19 49 0 19 49 0 19 49 0 18 49 0 18 49 0 18 49 0 18 48 0 18 48 0 18 48 0 18 48 0 18 48 0 18 48 0 18 48 0 18 48 0 18 48 0 18 48 0 18 48 0 18 48 0 18 48 0 18 48 0 18 48 0 18 48 0 18 48
0 71 116 0 23 55 0 28 61 0 33 68 0 35 69 0 33 67 0 32 66 0 30 63 0 28 60 0 26 58 0 24 56 0 22 54 0 21 52 0 20 51 0 19 50 0 19 49 0 18 48 0 18 48 0 18 48 0 18 48 0 19 49 0 19 49 0 19 50 0 19 50 0 19 50 0 20 50 0 20 50 0 20 51 0 20 51 0 20 51 0 20 51 0 21 51 0 21 51 0 21 52 0 21 52 0 21 52 0 21 52 0 21 52 0 21 52 0 21 52 0 21 52 0 21 52 0 21 52 0 21 52 0 21 52 0 21 52 0 21 52 0 21 52 0 21 52 0 21 52 0 21 52 0 21 52 0 21 52 0 21 52 0 21 51 0 20 51 0 20 51 0 20 51 0 20 51 0 20 51 0 20 51 0 20 50 0 20 50 0 20 50 0 19 50 0 19 50 0 19 50 0 19 49 0 19 49 0 19 49 0 19 49 0 18 49 0 18 49 0 18 48 0 18 48 0 18 48 0 18 48 0 18 48 0 18 48 0 18 48 0 18 48 0 18 48 0 18 48 0 18 48 0 18 49 0 19 49 0 19 49 0 19 49 0 19 49 0 19 50 0 19 50 0 20 50 0 20 50 0 20 51 0 20 51 0 20 51 0 20 51 0 20 50 0 20 50 0 19 50 0 19 50 0 19 50 0 19 49 0 19 49 0 19 49 0 19 49 0 18 49 0 18 49 0 18 49 0 18 48 0 18 48 0 18 48 0 18 48 0 18 48 0 18 48 0 18 48 0 18 48 0 18 48 0 18 48 0 18 48 0 18 48 0 18 48 0 18 48 0 18 48 0 18 48 0 18 48 0 18 48 0 18 48
0 60 102 0 22 53 0 26 58 0 30 64 0 31 65 0 30 64 0 29 62 0 28 61 0 26 58 0 25 57 0 23 55 0 22 54 0 21 52 0 20 51 0 20 50 0 19 50 0 18 49 0 18 48 0 18 48 0 18 48 0 18 48 0 18 49 0 19 49 0 19 49 0 19 49 0 19 50 0 19 50 0 20 50 0 20 51 0 20 51 0 20 51 0 20 51 0 21 51 0 21 52 0 21 52 0 21 52 0 21 52 0 21 52 0 21 52 0 21 52 0 21 52 0 21 52 0 21 52 0 21 53 0 21 53 0 21 53 0 21 53 0 21 52 0 21 52 0 21 52 0 21 52 0 21 52 0 21 52 0 21 52 0 21 52 0 21 52 0 21 52 0 21 51 0 20 51 0 20 51 0 20 51 0 20 51 0 20 51 0 20 50 0 20 50 0 20 50 0 19 50 0 19 50 0 19 49 0 19 49 0 19 49 0 19 49 0 18 49 0 18 49 0 18 48 0 18 48 0 18 48 0 18 48 0 18 48 0 18 48 0 18 48 0 18 48 0 18 48 0 18 49 0 19 49 0 19 49 0 19 49 0 19 50 0 19 50 0 19 50 0 20 50 0 20 50 0 20 51 0 20 51 0 20 51 0 20 50 0 20 50 0 19 50 0 19 50 0 19 50 0 19 49 0 19 49 0 19 49 0 19 49 0 18 49 0 18 49 0 18 48 0 18 48 0 18 48 0 18 48 0 18 48 0 18 48 0 18 48 0 18 48 0 18 48 0 18 48 0 18 48 0 18 48 0 18 48 0 18 48 0 18 48 0 18 48 0 18 48 0 18 48 0 18 48 0 18 48 0 18 48 0 18 48
0 48 86 0 21 52 0 23 55 0 26 59 0 27 60 0 27 60 0 26 59 0 26 58 0 24 56 0 23 55 0 22 54 0 22 53 0 21 52 0 21 51 0 20 51 0 20 50 0 19 50 0 19 49 0 18 49 0 18 48 0 18 48 0 18 48 0 18 48 0 18 49 0 19 49 0 19 49 0 19 49 0 19 50 0 20 50 0 20 50 0 20 51 0 20 51 0 20 51 0 21 51 0 21 52 0 21 52 0 21 52 0 21 52 0 21 52 0 21 52 0 21 53 0 21 53 0 22 53 0 22 53 0 22 53 0 22 53 0 22 53 0 22 53 0 22 53 0 22 53 0 21 53 0 21 52 0 21 52 0 21 52 0 21 52 0 21 52 0 21 52 0 21 52 0 21 52 0 21 51 0 20 51 0 20 51 0 20 51 0 20 51 0 20 51 0 20 50 0 20 50 0 19 50 0 19 50 0 19 49 0 19 49 0 19 49 0 19 49 0 18 49 0 18 48 0 18 48 0 18 48 0 18 48 0 18 48 0 18 48 0 18 48 0 18 48 0 18 49 0 18 49 0 19 49 0 19 49 0 19 49 0 19 50 0 19 50 0 20 50 0 20 50 0 20 51 0 20 51 0 20 50 0 20 50 0 19 50 0 19 50 0 19 49 0 19 49 0 19 49 0 19 49 0 19 49 0 18 49 0 18 49 0 18 48 0 18 48 0 18 48 0 18 48 0 18 48 0 18 48 0 18 48 0 18 48 0 18 48 0 18 48 0 18 48 0 18 48 0 18 48 0 18 48 0 18 48 0 18 48 0 18 48 0 18 48 0 18 48 0 18 48 0 18 48 0 18 48 0 18 48 0 18 48
0 33 67 0 20 50 0 20 51 0 22 53 0 23 55 0 23 54 0 23 54 0 23 54 0 22 54 0 22 53 0 22 53 0 21 53 0 21 52 0 21 52 0 20 51 0 20 51 0 20 50 0 19 50 0 19 49 0 19 49 0 18 49 0 18 48 0 18 48 0 18 48 0 18 48 0 18 48 0 18 49 0 19 49 0 19 50 0 19 50 0 20 50 0 20 50 0 20 51 0 20 51 0 21 51 0 21 52 0 21 52 0 21 52 0 21 52 0 21 52 0 21 53 0 22 53 0 22 53 0 22 53 0 22 53 0 22 53 0 22 53 0 22 53 0 22 53 0 22 53 0 22 53 0 22 53 0 22 53 0 21 53 0 21 52 0 21 52 0 21 52 0 21 52 0 21 52 0 21 52 0 21 52 0 21 51 0 20 51 0 20 51 0 20 51 0 20 51 0 20 50 0 20 50 0 19 50 0 19 50 0 19 49 0 19 49 0 19 49 0 18 49 0 18 48 0 18 48 0 18 48 0 18 48 0 18 48 0 18 48 0 18 48 0 18 48 0 18 49 0 19 49 0 19 49 0 19 49 0 19 50 0 19 50 0 20 50 0 20 50 0 20 50 0 20 50 0 19 50 0 19 50 0 19 50 0 19 49 0 19 49 0 19 49 0 19 49 0 18 49 0 18 49 0 18 49 0 18 48 0 18 48 0 18 48 0 18 48 0 18 48 0 18 48 0 18 48 0 18 48 0 18 48 0 18 48 0 18 48 0 18 48 0 18 48 0 18 48 0 18 48 0 18 48 0 18 48 0 18 48 0 18 48 0 18 48 0 18 48 0 18 48 0 18 48 0 18 48 0 18 48 0 18 48
0 19 49 0 18 48 0 18 49 0 18 48 0 18 48 0 18 49 0 19 50 0 20 50 0 20 51 0 20 51 0 21 52 0 21 52 0 21 52 0 21 52 0 21 52 0 21 52 0 20 51 0 20 51 0 20 50 0 20 50 0 19 50 0 19 49 0 18 49 0 18 48 0 18 48 0 18 48 0 18 48 0 18 49 0 19 49 0 19 49 0 19 50 0 19 50 0 20 50 0 20 51 0 20 51 0 21 51 0 21 52 0 21 52 0 21 52 0 21 52 0 21 52 0 22 53 0 22 53 0 22 53 0 22 53 0 22 53 0 22 53 0 22 53 0 22 53 0 22 53 0 22 53 0 22 53 0 22 53 0 22 53 0 22 53 0 22 53 0 21 52 0 21 52 0 21 52 0 21 52 0 21 52 0 21 52 0 21 51 0 20 51 0 20 51 0 20 51 0 20 51 0 20 50 0 20 50 0 19 50 0 19 50 0 19 49 0 19 49 0 19 49 0 18 48 0 18 48 0 18 48 0 18 48 0 18 48 0 18 48 0 18 48 0 18 48 0 18 49 0 19 49 0 19 49 0 19 49 0 19 50 0 19 50 0 20 50 0 20 50 0 19 50 0 19 50 0 19 49 0 19 49 0 19 49 0 19 49 0 19 49 0 18 49 0 18 49 0 18 48 0 18 48 0 18 48 0 18 48 0 18 48 0 18 48 0 18 48 0 18 48 0 18 48 0 18 48 0 18 48 0 18 48 0 18 48 0 18 48 0 18 48 0 18 48 0 18 48 0 18 48 0 18 48 0 18 48 0 18 48 0 18 48 0 18 48 0 18 48 0 18 48 0 18 48 0 18 48 0 18 48 0 18 48
0 36 71 0 18 48 0 22 54 0 23 55 0 22 54 0 21 53 0 20 51 0 18 49 0 18 48 0 19 49 0 20 50 0 20 51 0 21 52 0 21 52 0 21 52 0 21 52 0 21 52 0 21 52 0 21 52 0 21 51 0 20 51 0 20 50 0 19 50 0 19 49 0 19 49 0 18 48 0 18 48 0 18 48 0 18 48 0 18 49 0 19 49 0 19 49 0 19 50 0 20 50 0 20 51 0 20 51 0 21 51 0 21 52 0 21 52 0 21 52 0 21 52 0 21 53 0 22 53 0 22 53 0 22 53 0 22 53 0 22 53 0 22 53 0 22 53 0 22 53 0 22 53 0 22 53 0 22 53 0 22 53 0 22 53 0 22 53 0 22 53 0 21 53 0 21 52 0 21 52 0 21 52 0 21 52 0 21 52 0 21 51 0 20 51 0 20 51 0 20 51 0 20 50 0 20 50 0 19 50 0 19 50 0 19 49 0 19 49 0 19 49 0 18 49 0 18 48 0 18 48 0 18 48 0 18 48 0 18 48 0 18 48 0 18 48 0 18 49 0 19 49 0 19 49 0 19 50 0 19 50 0 19 50 0 19 50 0 19 50 0 19 49 0 19 49 0 19 49 0 19 49 0 18 49 0 18 49 0 18 49 0 18 48 0 18 48 0 18 48 0 18 48 0 18 48 0 18 48 0 18 48 0 18 48 0 18 48 0 18 48 0 18 48 0 18 48 0 18 48 0 18 48 0 18 48 0 18 48 0 18 48 0 18 48 0 18 48 0 18 48 0 18 48 0 18 48 0 18 48 0 18 48 0 18 48 0 18 48 0 18 48 0 18 48 0 18 48 0 18 48 0 18 48
0 54 95 0 19 50 0 26 59 0 29 62 0 28 61 0 27 59 0 24 56 0 22 53 0 20 50 0 18 48 0 19 49 0 20 50 0 21 52 0 21 52 0 22 53 0 22 53 0 22 53 0 22 53 0 22 53 0 21 53 0 21 52 0 21 51 0 20 51 0 20 51 0 19 50 0 19 49 0 18 49 0 18 48 0 18 48 0 18 48 0 18 48 0 19 49 0 19 49 0 19 50 0 20 50 0 20 51 0 20 51 0 21 51 0 21 52 0 21 52 0 21 52 0 21 52 0 22 53 0 22 53 0 22 53 0 22 53 0 22 53 0 22 53 0 22 53 0 22 53 0 22 53 0 22 53 0 22 53 0 22 53 0 22 53 0 22 53 0 22 53 0 22 53 0 22 53 0 21 52 0 21 52 0 21 52 0 21 52 0 21 52 0 21 51 0 20 51 0 20 51 0 20 51 0 20 50 0 19 50 0 19 50 0 19 49 0 19 49 0 19 49 0 18 49 0 18 48 0 18 48 0 18 48 0 18 48 0 18 48 0 18 48 0 18 49 0 19 49 0 19 49 0 19 49 0 19 50 0 19 50 0 19 49 0 19 49 0 19 49 0 19 49 0 19 49 0 18 49 0 18 49 0 18 48 0 18 48 0 18 48 0 18 48 0 18 48 0 18 48 0 18 48 0 18 48 0 18 48 0 18 48 0 18 48 0 18 48 0 18 48 0 18 48 0 18 48 0 18 48 0 18 48 0 18 48 0 18 48 0 18 48 0 18 48 0 18 48 0 18 48 0 18 48 0 18 48 0 18 48 0 18 48 0 18 48 0 18 48 0 18 48 0 18 48 0 18 48 0 18 48 0 18 48
0 74 119 0 20 51 0 31 65 0 35 70 0 34 69 0 32 66 0 29 62 0 25 57 0 22 54 0 20 50 0 18 48 0 19 50 0 21 51 0 22 53 0 22 54 0 23 54 0 23 54 0 23 54 0 23 54 0 22 54 0 22 53 0 22 53 0 21 52 0 21 52 0 20 51 0 20 50 0 19 50 0 19 49 0 18 48 0 18 48 0 18 48 0 18 48 0 19 49 0 19 49 0 19 50 0 20 50 0 20 51 0 20 51 0 21 51 0 21 52 0 21 52 0 21 52 0 21 53 0 22 53 0 22 53 0 22 53 0 22 53 0 22 53 0 22 53 0 22 53 0 22 53 0 22 53 0 22 53 0 22 53 0 22 53 0 22 53 0 22 53 0 22 53 0 22 53 0 21 53 0 21 52 0 21 52 0 21 52 0 21 52 0 21 51 0 20 51 0 20 51 0 20 51 0 20 50 0 20 50 0 19 50 0 19 50 0 19 49 0 19 49 0 18 49 0 18 48 0 18 48 0 18 48 0 18 48 0 18 48 0 18 48 0 18 49 0 19 49 0 19 49 0 19 49 0 19 49 0 19 49 0 19 49 0 19 49 0 18 49 0 18 49 0 18 48 0 18 48 0 18 48 0 18 48 0 18 48 0 18 48 0 18 48 0 18 48 0 18 48 0 18 48 0 18 48 0 18 48 0 18 48 0 18 48 0 18 48 0 18 48 0 18 48 0 18 48 0 18 48 0 18 48 0 18 48 0 18 48 0 18 48 0 18 48 0 18 48 0 18 48 0 18 48 0 18 48 0 18 48 0 18 48 0 18 48 0 18 48 0 18 48 0 18 48 0 18 48 0 18 48 0 18 48
0 92 143 0 21 52 0 35 70 0 41 78 0 41 77 0 38 73 0 33 67 0 28 61 0 25 57 0 21 52 0 19 49 0 19 49 0 21 52 0 22 53 0 23 54 0 23 55 0 24 55 0 24 56 0 24 55 0 24 55 0 23 55 0 23 54 0 22 53 0 22 53 0 21 52 0 20 51 0 20 51 0 19 50 0 19 49 0 18 48 0 18 48 0 18 48 0 18 48 0 19 49 0 19 50 0 19 50 0 20 50 0 20 51 0 20 51 0 21 52 0 21 52 0 21 52 0 21 52 0 21 53 0 22 53 0 22 53 0 22 53 0 22 53 0 22 53 0 22 53 0 22 53 0 22 53 0 22 53 0 22 53 0 22 53 0 22 53 0 22 53 0 22 53 0 22 53 0 22 53 0 21 52 0 21 52 0 21 52 0 21 52 0 21 52 0 20 51 0 20 51 0 20 51 0 20 50 0 20 50 0 19 50 0 19 50 0 19 49 0 19 49 0 18 49 0 18 48 0 18 48 0 18 48 0 18 48 0 18 48 0 18 48 0 18 49 0 19 49 0 19 49 0 19 49 0 19 49 0 18 49 0 18 49 0 18 48 0 18 48 0 18 48 0 18 48 0 18 48 0 18 48 0 18 48 0 18 48 0 18 48 0 18 48 0 18 48 0 18 48 0 18 48 0 18 48 0 18 48 0 18 48 0 18 48 0 18 48 0 18 48 0 18 48 0 18 48 0 18 48 0 18 48 0 18 48 0 18 48 0 18 48 0 18 48 0 18 48 0 18 48 0 18 48 0 18 48 0 18 48 0 18 48 0 18 48 0 18 48 0 18 48 0 18 48 0 18 48 0 18 48 0 18 48
0 110 166 0 22 53 0 40 77 0 48 86 0 47 85 0 43 80 0 37 73 0 32 66 0 27 60 0 23 54 0 19 50 0 18 49 0 21 52 0 22 54 0 24 55 0 24 56 0 25 57 0 25 57 0 25 57 0 25 56 0 24 56 0 23 55 0 23 54 0 22 54 0 22 53 0 21 52 0 21 51 0 20 51 0 19 50 0 19 49 0 18 48 0 18 48 0 18 48 0 18 49 0 19 49 0 19 50 0 19 50 0 20 50 0 20 51 0 21 51 0 21 52 0 21 52 0 21 52 0 21 52 0 21 53 0 22 53 0 22 53 0 22 53 0 22 53 0 22 53 0 22 53 0 22 53 0 22 53 0 22 53 0 22 53 0 22 53 0 22 53 0 22 53 0 22 53 0 21 53 0 21 52 0 21 52 0 21 52 0 21 52 0 21 51 0 20 51 0 20 51 0 20 51 0 20 50 0 19 50 0 19 50 0 19 49 0 19 49 0 19 49 0 18 48 0 18 48 0 18 48 0 18 48 0 18 48 0 18 48 0 18 48 0 18 49 0 19 49 0 18 49 0 18 49 0 18 48 0 18 48 0 18 48 0 18 48 0 18 48 0 18 48 0 18 48 0 18 48 0 18 48 0 18 48 0 18 48 0 18 48 0 18 48 0 18 48 0 18 48 0 18 48 0 18 48 0 18 48 0 18 48 0 18 48 0 18 48 0 18 48 0 18 48 0 18 48 0 18 48 0 18 48 0 18 48 0 18 48 0 18 48 0 18 48 0 18 48 0 18 48 0 18 48 0 18 48 0 18 48 0 18 48 0 18 48 0 18 48 0 18 48 0 18 48 0 18 48 0 18 48 0 18 48
0 125 185 0 21 52 0 45 83 0 53 93 0 52 92 0 48 86 0 41 78 0 35 69 0 29 62 0 24 56 0 20 51 0 18 49 0 21 52 0 23 54 0 24 56 0 25 57 0 26 58 0 26 58 0 25 58 0 25 58 0 25 57 0 24 56 0 24 55 0 23 55 0 22 54 0 22 53 0 21 52 0 20 51 0 20 50 0 19 50 0 19 49 0 18 48 0 18 48 0 18 48 0 19 49 0 19 49 0 19 50 0 20 50 0 20 51 0 20 51 0 21 51 0 21 52 0 21 52 0 21 52 0 21 52 0 21 53 0 22 53 0 22 53 0 22 53 0 22 53 0 22 53 0 22 53 0 22 53 0 22 53 0 22 53 0 22 53 0 22 53 0 22 53 0 21 53 0 21 52 0 21 52 0 21 52 0 21 52 0 21 52 0 20 51 0 20 51 0 20 51 0 20 50 0 20 50 0 19 50 0 19 50 0 19 49 0 19 49 0 18 49 0 18 48 0 18 48 0 18 48 0 18 48 0 18 48 0 18 48 0 18 48 0 18 49 0 18 48 0 18 48 0 18 48 0 18 48 0 18 48 0 18 48 0 18 48 0 18 48 0 18 48 0 18 48 0 18 48 0 18 48 0 18 48 0 18 48 0 18 48 0 18 48 0 18 48 0 18 48 0 18 48 0 18 48 0 18 48 0 18 48 0 18 48 0 18 48 0 18 48 0 18 48 0 18 48 0 18 48 0 18 48 0 18 48 0 18 48 0 18 48 0 18 48 0 18 48 0 18 48 0 18 48 0 18 48 0 18 48 0 18 48 0 18 48 0 18 48 0 18 48 0 18 48 0 18 48 0 18 48 0 18 48
0 134 196 0 18 48 0 50 89 0 59 100 0 57 98 0 52 91 0 44 82 0 37 72 0 31 64 0 25 57 0 20 51 0 18 49 0 21 52 0 24 55 0 25 57 0 26 58 0 26 59 0 26 59 0 26 59 0 26 59 0 26 58 0 25 57 0 24 56 0 24 55 0 23 54 0 22 53 0 22 53 0 21 52 0 20 51 0 19 50 0 19 49 0 18 48 0 18 48 0 18 48 0 18 49 0 19 49 0 19 50 0 19 50 0 20 50 0 20 51 0 20 51 0 20 51 0 21 52 0 21 52 0 21 52 0 21 52 0 21 52 0 21 52 0 21 53 0 21 53 0 22 53 0 22 53 0 22 53 0 22 53 0 21 53 0 21 52 0 21 52 0 21 52 0 21 52 0 21 52 0 21 52 0 21 52 0 21 51 0 20 51 0 20 51 0 20 51 0 20 51 0 20 50 0 19 50 0 19 50 0 19 49 0 19 49 0 19 49 0 18 49 0 18 48 0 18 48 0 18 48 0 18 48 0 18 48 0 18 48 0 18 48 0 18 48 0 18 48 0 18 48 0 18 48 0 18 48 0 18 48 0 18 48 0 18 48 0 18 48 0 18 48 0 18 48 0 18 48 0 18 48 0 18 48 0 18 48 0 18 48 0 18 48 0 18 48 0 18 48 0 18 48 0 18 48 0 18 48 0 18 48 0 18 48 0 18 48 0 18 48 0 18 48 0 18 48 0 18 48 0 18 48 0 18 48 0 18 48 0 18 48 0 18 48 0 18 48 0 18 48 0 18 48 0 18 48 0 18 48 0 18 48 0 18 48 0 18 48 0 18 48 0 18 48 0 18 48 0 18 48 0 18 48
0 137 201 0 23 55 0 55 95 0 63 106 0 61 103 0 55 95 0 46 84 0 38 74 0 32 65 0 25 57 0 20 51 0 19 49 0 22 53 0 24 56 0 26 58 0 27 59 0 27 60 0 27 60 0 27 60 0 27 59 0 26 59 0 25 58 0 25 57 0 24 56 0 23 55 0 22 54 0 22 53 0 21 52 0 20 51 0 19 50 0 19 49 0 18 49 0 18 48 0 18 48 0 18 48 0 19 49 0 19 49 0 19 50 0 20 50 0 20 51 0 20 51 0 20 51 0 20 51 0 21 51 0 21 52 0 21 52 0 21 52 0 21 52 0 21 52 0 21 52 0 21 52 0 21 52 0 21 52 0 21 52 0 21 52 0 21 52 0 21 52 0 21 52 0 21 52 0 21 52 0 21 51 0 20 51 0 20 51 0 20 51 0 20 51 0 20 50 0 20 50 0 19 50 0 19 50 0 19 49 0 19 49 0 19 49 0 18 49 0 18 48 0 18 48 0 18 48 0 18 48 0 18 48 0 18 48 0 18 48 0 18 48 0 18 48 0 18 48 0 18 48 0 18 48 0 18 48 0 18 48 0 18 48 0 18 48 0 18 48 0 18 48 0 18 48 0 18 48 0 18 48 0 18 48 0 18 48 0 18 48 0 18 48 0 18 48 0 18 48 0 18 48 0 18 48 0 18 48 0 18 48 0 18 48 0 18 48 0 18 48 0 18 48 0 18 48 0 18 48 0 18 48 0 18 48 0 18 48 0 18 48 0 18 48 0 18 48 0 18 48 0 18 48 0 18 48 0 18 48 0 18 48 0 18 48 0 18 48 0 18 48 0 18 48 0 18 48 0 18 48 0 18 48
0 134 197 0 31 65 0 59 101 0 67 110 0 63 106 0 57 98 0 48 86 0 39 75 0 32 66 0 25 57 0 20 50 0 19 50 0 23 54 0 25 57 0 26 59 0 27 60 0 28 61 0 28 60 0 27 60 0 27 60 0 26 59 0 26 58 0 25 57 0 24 56 0 23 55 0 22 54 0 22 53 0 21 52 0 20 51 0 19 50 0 19 49 0 18 48 0 18 48 0 18 48 0 18 48 0 19 49 0 19 49 0 19 50 0 19 50 0 20 50 0 20 51 0 20 51 0 20 51 0 20 51 0 20 51 0 20 51 0 21 51 0 21 52 0 21 52 0 21 52 0 21 52 0 21 52 0 21 52 0 21 52 0 21 51 0 21 51 0 20 51 0 20 51 0 20 51 0 20 51 0 20 51 0 20 51 0 20 50 0 20 50 0 20 50 0 19 50 0 19 50 0 19 49 0 19 49 0 19 49 0 18 49 0 18 49 0 18 48 0 18 48 0 18 48 0 18 48 0 18 48 0 18 48 0 18 48 0 18 48 0 18 48 0 18 48 0 18 48 0 18 48 0 18 48 0 18 48 0 18 48 0 18 48 0 18 48 0 18 48 0 18 48 0 18 48 0 18 48 0 18 48 0 18 48 0 18 48 0 18 48 0 18 48 0 18 48 0 18 48 0 18 48 0 18 48 0 18 48 0 18 48 0 18 48 0 18 48 0 18 48 0 18 48 0 18 48 0 18 48 0 18 48 0 18 48 0 18 48 0 18 48 0 18 48 0 18 48 0 18 48 0 18 48 0 18 48 0 18 48 0 18 48 0 18 48 0 18 48 0 18 48 0 18 48 0 18 48 0 18 48 0 18 48
0 123 183 0 41 77 0 63 105 0 68 112 0 64 107 0 57 98 0 47 85 0 38 74 0 31 64 0 24 56 0 19 49 0 20 51 0 23 55 0 26 58 0 27 59 0 28 61 0 28 61 0 28 61 0 27 60 0 27 60 0 26 59 0 25 58 0 24 56 0 24 55 0 23 54 0 22 53 0 21 52 0 20 51 0 20 50 0 19 49 0 19 49 0 18 48 0 18 48 0 18 48 0 18 48 0 19 49 0 19 49 0 19 49 0 19 50 0 20 50 0 20 50 0 20 50 0 20 50 0 20 51 0 20 51 0 20 51 0 20 51 0 20 51 0 20 51 0 20 51 0 20 51 0 20 51 0 20 51 0 20 51 0 20 51 0 20 51 0 20 50 0 20 50 0 20 50 0 20 50 0 20 50 0 19 50 0 19 50 0 19 50 0 19 49 0 19 49 0 19 49 0 19 49 0 18 49 0 18 49 0 18 48 0 18 48 0 18 48 0 18 48 0 18 48 0 18 48 0 18 48 0 18 48 0 18 48 0 18 48 0 18 48 0 18 48 0 18 48 0 18 48 0 18 48 0 18 48 0 18 48 0 18 48 0 18 48 0 18 48 0 18 48 0 18 48 0 18 48 0 18 48 0 18 48 0 18 48 0 18 48 0 18 48 0 18 48 0 18 48 0 18 48 0 18 48 0 18 48 0 18 48 0 18 48 0 18 48 0 18 48 0 18 48 0 18 48 0 18 48 0 18 48 0 18 48 0 18 48 0 18 48 0 18 48 0 18 48 0 18 48 0 18 48 0 18 48 0 18 48 0 18 48 0 18 48 0 18 48 0 18 48 0 18 48 0 18 48 0 18 48 0 18 48
0 104 158 0 52 91 0 65 108 0 67 111 0 63 105 0 55 96 0 45 83 0 36 71 0 29 62 0 22 54 0 18 48 0 21 52 0 24 56 0 26 59 0 27 60 0 28 61 0 28 61 0 27 60 0 27 60 0 27 59 0 26 58 0 25 57 0 24 55 0 23 54 0 22 53 0 21 52 0 21 51 0 20 50 0 19 50 0 18 49 0 18 48 0 18 48 0 18 48 0 18 48 0 18 49 0 19 49 0 19 49 0 19 49 0 19 50 0 19 50 0 19 50 0 19 50 0 19 50 0 19 50 0 19 50 0 19 50 0 19 50 0 19 50 0 19 50 0 19 50 0 19 50 0 19 50 0 19 50 0 19 50 0 19 50 0 19 50 0 19 50 0 19 49 0 19 49 0 19 49 0 19 49 0 19 49 0 19 49 0 19 49 0 18 49 0 18 49 0 18 48 0 18 48 0 18 48 0 18 48 0 18 48 0 18 48 0 18 48 0 18 48 0 18 48 0 18 48 0 18 48 0 18 48 0 18 48 0 18 48 0 18 48 0 18 48 0 18 48 0 18 48 0 18 48 0 18 48 0 18 48 0 18 48 0 18 48 0 18 48 0 18 48 0 18 48 0 18 48 0 18 48 0 18 48 0 18 48 0 18 48 0 18 48 0 18 48 0 18 48 0 18 48 0 18 48 0 18 48 0 18 48 0 18 48 0 18 48 0 18 48 0 18 48 0 18 48 0 18 48 0 18 48 0 18 48 0 18 48 0 18 48 0 18 48 0 18 48 0 18 48 0 18 48 0 18 48 0 18 48 0 18 48 0 18 48 0 18 48 0 18 48 0 18 48 0 18 48 0 18 48 0 18 48
0 76 122 0 65 108 0 65 109 0 64 107 0 58 100 0 51 90 0 41 78 0 32 66 0 26 58 0 20 50 0 19 50 0 23 54 0 25 57 0 27 59 0 27 60 0 28 60 0 27 60 0 27 59 0 26 58 0 25 58 0 24 56 0 23 55 0 22 54 0 22 53 0 21 52 0 20 51 0 19 50 0 19 49 0 18 48 0 18 48 0 18 48 0 18 48 0 18 49 0 19 49 0 19 49 0 19 49 0 19 49 0 19 49 0 19 49 0 19 49 0 19 49 0 19 49 0 19 49 0 19 49 0 19 49 0 19 49 0 19 49 0 19 49 0 19 49 0 18 49 0 18 49 0 18 49 0 18 49 0 18 49 0 18 49 0 18 48 0 18 48 0 18 48 0 18 48 0 18 48 0 18 48 0 18 48 0 18 48 0 18 48 0 18 48 0 18 48 0 18 48 0 18 48 0 18 48 0 18 48 0 18 48 0 18 48 0 18 48 0 18 48 0 18 48 0 18 48 0 18 48 0 18 48 0 18 48 0 18 48 0 18 48 0 18 48 0 18 48 0 18 48 0 18 48 0 18 48 0 18 48 0 18 48 0 18 48 0 18 48 0 18 48 0 18 48 0 18 48 0 18 48 0 18 48 0 18 48 0 18 48 0 18 48 0 18 48 0 18 48 0 18 48 0 18 48 0 18 48 0 18 48 0 18 48 0 18 48 0 18 48 0 18 48 0 18 48 0 18 48 0 18 48 0 18 48 0 18 48 0 18 48 0 18 48 0 18 48 0 18 48 0 18 48 0 18 48 0 18 48 0 18 48 0 18 48 0 18 48 0 18 48 0 18 48 0 18 48 0 18 49 0 19 49
0 38 73 0 78 125 0 64 107 0 58 100 0 51 91 0 44 81 0 35 70 0 27 60 0 22 53 0 18 49 0 22 53 0 24 56 0 26 58 0 27 59 0 27 59 0 27 59 0 26 58 0 25 57 0 24 56 0 24 55 0 23 54 0 21 52 0 20 51 0 20 50 0 19 50 0 18 49 0 18 48 0 18 48 0 18 48 0 18 49 0 19 49 0 19 49 0 19 49 0 19 49 0 19 49 0 19 49 0 19 49 0 19 49 0 19 49 0 19 49 0 18 49 0 18 49 0 18 48 0 18 48 0 18 48 0 18 48 0 18 48 0 18 48 0 18 48 0 18 48 0 18 48 0 18 48 0 18 48 0 18 48 0 18 48 0 18 48 0 18 48 0 18 48 0 18 48 0 18 48 0 18 48 0 18 48 0 18 48 0 18 48 0 18 48 0 18 48 0 18 48 0 18 48 0 18 48 0 18 48 0 18 48 0 18 48 0 18 48 0 18 48 0 18 48 0 18 48 0 18 48 0 18 48 0 18 48 0 18 48 0 18 48 0 18 48 0 18 48 0 18 48 0 18 48 0 18 48 0 18 48 0 18 48 0 18 48 0 18 48 0 18 48 0 18 48 0 18 48 0 18 48 0 18 48 0 18 48 0 18 48 0 18 48 0 18 48 0 18 48 0 18 49 0 18 49 0 18 49 0 19 49 0 19 49 0 19 49 0 19 49 0 19 49 0 19 49 0 19 49 0 19 49 0 19 49 0 19 49 0 19 49 0 19 49 0 19 49 0 18 49 0 18 49 0 18 49 0 18 49 0 18 49 0 18 49 0 18 49 0 18 49 0 19 49 0 19 49 0 19 50 0 20 50
0 46 84 0 92 143 0 59 101 0 48 87 0 40 77 0 34 68 0 26 58 0 20 51 0 19 49 0 22 54 0 24 56 0 25 58 0 26 58 0 26 58 0 25 58 0 25 57 0 24 56 0 23 54 0 22 53 0 21 52 0 20 51 0 19 49 0 18 48 0 18 48 0 18 48 0 19 49 0 19 49 0 19 50 0 19 50 0 20 50 0 20 50 0 19 50 0 19 50 0 19 50 0 19 50 0 19 49 0 19 49 0 18 49 0 18 48 0 18 48 0 18 48 0 18 48 0 18 48 0 18 48 0 18 48 0 18 48 0 18 49 0 18 49 0 19 49 0 19 49 0 19 49 0 19 49 0 19 49 0 18 49 0 18 48 0 18 48 0 18 48 0 18 48 0 18 48 0 18 48 0 18 48 0 18 48 0 18 48 0 18 48 0 18 48 0 18 48 0 18 48 0 18 48 0 18 48 0 18 48 0 18 48 0 18 48 0 18 48 0 18 48 0 18 48 0 18 48 0 18 48 0 18 48 0 18 48 0 18 48 0 18 48 0 18 48 0 18 48 0 18 48 0 18 48 0 18 48 0 18 48 0 18 48 0 18 48 0 18 48 0 18 48 0 18 48 0 18 48 0 18 48 0 18 48 0 18 49 0 18 49 0 19 49 0 19 49 0 19 49 0 19 49 0 19 49 0 19 50 0 19 50 0 19 50 0 19 50 0 19 50 0 19 50 0 19 50 0 19 50 0 19 50 0 19 50 0 19 50 0 19 50 0 19 50 0 19 50 0 19 50 0 19 50 0 19 50 0 19 50 0 19 50 0 19 50 0 19 50 0 19 50 0 19 50 0 20 50 0 20 51 0 20 51
0 105 159 0 106 160 0 51 91 0 33 68 0 26 58 0 21 52 0 20 51 0 24 56 0 25 57 0 27 59 0 27 59 0 26 58 0 25 58 0 25 57 0 23 55 0 22 53 0 21 51 0 19 50 0 18 48 0 18 48 0 19 49 0 20 50 0 20 51 0 20 51 0 21 52 0 21 52 0 21 52 0 21 52 0 21 52 0 21 52 0 20 51 0 20 51 0 20 50 0 20 50 0 19 50 0 19 49 0 18 49 0 18 48 0 18 48 0 18 48 0 18 48 0 18 49 0 19 49 0 19 49 0 19 50 0 19 50 0 19 49 0 19 49 0 19 49 0 18 49 0 18 48 0 18 48 0 18 48 0 18 48 0 18 48 0 18 48 0 18 48 0 18 48 0 18 48 0 18 48 0 18 48 0 18 48 0 18 48 0 18 48 0 18 48 0 18 48 0 18 48 0 18 48 0 18 48 0 18 48 0 18 48 0 18 48 0 18 48 0 18 48 0 18 48 0 18 48 0 18 48 0 18 48 0 18 48 0 18 48 0 18 48 0 18 48 0 18 48 0 18 48 0 18 48 0 18 48 0 18 48 0 18 48 0 18 48 0 18 48 0 18 49 0 18 49 0 19 49 0 19 49 0 19 49 0 19 49 0 19 49 0 19 50 0 19 50 0 19 50 0 19 50 0 20 50 0 20 50 0 20 50 0 20 50 0 20 51 0 20 51 0 20 51 0 20 51 0 20 51 0 20 51 0 20 51 0 20 51 0 20 51 0 20 51 0 20 51 0 20 51 0 20 51 0 20 51 0 20 51 0 20 51 0 20 51 0 20 51 0 20 51 0 20 51 0 20 51 0 21 51 0 21 52
0 175 248 0 118 176 0 39 75 0 21 51 0 29 62 0 31 65 0 33 68 0 34 69 0 32 66 0 31 64 0 28 61 0 26 58 0 24 55 0 22 53 0 19 50 0 18 48 0 19 49 0 20 51 0 22 53 0 22 53 0 23 54 0 23 55 0 24 55 0 24 55 0 23 55 0 23 55 0 23 54 0 23 54 0 22 53 0 22 53 0 21 52 0 20 51 0 20 51 0 19 50 0 19 49 0 18 48 0 18 48 0 18 48 0 18 48 0 19 49 0 19 49 0 19 50 0 19 50 0 19 49 0 19 49 0 18 49 0 18 48 0 18 48 0 18 48 0 18 48 0 18 48 0 18 48 0 18 48 0 18 48 0 18 48 0 18 48 0 18 48 0 18 48 0 18 48 0 18 48 0 18 48 0 18 48 0 18 48 0 18 48 0 18 48 0 18 48 0 18 48 0 18 48 0 18 48 0 18 48 0 18 48 0 18 48 0 18 48 0 18 48 0 18 48 0 18 48 0 18 48 0 18 48 0 18 48 0 18 48 0 18 48 0 18 48 0 18 48 0 18 48 0 18 48 0 18 48 0 18 48 0 18 49 0 19 49 0 19 49 0 19 49 0 19 49 0 19 49 0 19 50 0 19 50 0 19 50 0 19 50 0 20 50 0 20 50 0 20 50 0 20 51 0 20 51 0 20 51 0 20 51 0 20 51 0 20 51 0 20 51 0 20 51 0 20 51 0 21 51 0 21 51 0 21 51 0 21 51 0 21 51 0 21 51 0 21 51 0 21 51 0 21 51 0 21 51 0 21 51 0 21 51 0 21 51 0 21 52 0 21 52 0 21 52 0 21 52 0 21 52 0 21 52
114 207 193 0 128 189 0 21 52 0 44 82 0 51 91 0 50 88 0 48 86 0 45 82 0 38 74 0 34 69 0 29 62 0 24 56 0 20 51 0 18 48 0 21 52 0 23 54 0 25 56 0 26 58 0 27 59 0 27 59 0 27 60 0 27 60 0 27 60 0 27 59 0 26 58 0 25 57 0 24 56 0 24 55 0 23 54 0 22 53 0 21 52 0 20 51 0 20 50 0 19 49 0 18 48 0 18 48 0 18 48 0 19 49 0 19 50 0 19 49 0 19 49 0 18 49 0 18 48 0 18 48 0 18 48 0 18 48 0 18 48 0 18 48 0 18 48 0 18 48 0 18 48 0 18 48 0 18 48 0 18 48 0 18 48 0 18 48 0 18 48 0 18 48 0 18 48 0 18 48 0 18 48 0 18 48 0 18 48 0 18 48 0 18 48 0 18 48 0 18 48 0 18 48 0 18 48 0 18 48 0 18 48 0 18 48 0 18 48 0 18 48 0 18 48 0 18 48 0 18 48 0 18 48 0 18 48 0 18 48 0 18 48 0 18 48 0 18 48 0 18 48 0 18 49 0 19 49 0 19 49 0 19 49 0 19 49 0 19 49 0 19 50 0 19 50 0 19 50 0 20 50 0 20 50 0 20 50 0 20 50 0 20 51 0 20 51 0 20 51 0 20 51 0 20 51 0 20 51 0 20 51 0 20 51 0 21 51 0 21 51 0 21 52 0 21 52 0 21 52 0 21 52 0 21 52 0 21 52 0 21 52 0 21 52 0 21 52 0 21 52 0 21 52 0 21 52 0 21 52 0 21 52 0 21 52 0 21 52 0 21 52 0 21 52 0 21 52 0 21 52 0 21 52
245 238 123 0 133 195 0 37 72 0 73 118 0 77 124 0 70 114 0 63 105 0 54 94 0 43 80 0 35 70 0 27 60 0 20 51 0 20 51 0 24 55 0 27 60 0 29 63 0 31 65 0 32 66 0 32 67 0 32 66 0 31 65 0 31 65 0 30 63 0 29 62 0 28 60 0 26 59 0 25 57 0 24 56 0 23 54 0 22 53 0 20 51 0 19 50 0 19 49 0 18 48 0 18 48 0 19 49 0 18 49 0 18 48 0 18 48 0 18 48 0 18 48 0 18 48 0 18 48 0 18 48 0 18 48 0 18 48 0 18 48 0 18 48 0 18 48 0 18 48 0 18 48 0 18 48 0 18 48 0 18 48 0 18 48 0 18 48 0 18 48 0 18 48 0 18 48 0 18 48 0 18 48 0 18 48 0 18 48 0 18 48 0 18 48 0 18 48 0 18 48 0 18 48 0 18 48 0 18 48 0 18 48 0 18 48 0 18 48 0 18 48 0 18 48 0 18 48 0 18 48 0 18 48 0 18 48 0 18 48 0 18 48 0 18 48 0 18 49 0 19 49 0 19 49 0 19 49 0 19 49 0 19 50 0 19 50 0 19 50 0 20 50 0 20 50 0 20 50 0 20 50 0 20 51 0 20 51 0 20 51 0 20 51 0 20 51 0 20 51 0 20 51 0 20 51 0 20 51 0 20 51 0 21 51 0 21 51 0 21 51 0 21 52 0 21 52 0 21 52 0 21 52 0 21 52 0 21 52 0 21 52 0 21 52 0 21 52 0 21 52 0 21 52 0 21 53 0 21 53 0 22 53 0 22 53 0 22 53 0 22 53 0 21 53 0 21 52 0 21 52 0 21 52
255 152 85 0 130 191 0 66 110 0 104 158 0 103 157 0 88 138 0 75 121 0 60 102 0 44 81 0 33 67 0 22 53 0 22 53 0 28 61 0 32 66 0 35 70 0 37 72 0 38 73 0 38 73 0 37 73 0 36 71 0 34 69 0 33 67 0 31 65 0 29 63 0 28 60 0 26 58 0 24 56 0 23 54 0 21 52 0 20 51 0 19 49 0 18 48 0 18 48 0 18 48 0 18 48 0 18 48 0 18 48 0 18 48 0 18 48 0 18 48 0 18 48 0 18 48 0 18 48 0 18 48 0 18 48 0 18 48 0 18 48 0 18 48 0 18 48 0 18 48 0 18 48 0 18 48 0 18 48 0 18 48 0 18 48 0 18 48 0 18 48 0 18 48 0 18 48 0 18 48 0 18 48 0 18 48 0 18 48 0 18 48 0 18 48 0 18 48 0 18 48 0 18 48 0 18 48 0 18 48 0 18 48 0 18 48 0 18 48 0 18 48 0 18 48 0 18 48 0 18 48 0 18 48 0 18 48 0 18 48 0 18 48 0 18 49 0 19 49 0 19 49 0 19 49 0 19 50 0 19 50 0 19 50 0 20 50 0 20 50 0 20 50 0 20 50 0 20 51 0 20 51 0 20 51 0 20 51 0 20 51 0 20 51 0 20 51 0 20 51 0 20 51 0 20 51 0 20 51 0 20 51 0 20 51 0 20 51 0 20 51 0 20 51 0 20 51 0 20 51 0 21 51 0 21 52 0 21 52 0 21 52 0 21 52 0 21 52 0 21 52 0 21 52 0 22 53 0 22 53 0 22 53 0 22 53 0 22 53 0 22 53 0 21 53 0 21 52 0 21 52 0 20 51
255 76 56 0 116 174 0 98 150 0 134 196 0 125 184 0 101 154 0 80 127 0 59 101 0 38 74 0 25 56 0 23 54 0 32 66 0 37 73 0 40 77 0 43 80 0 43 80 0 42 79 0 41 78 0 39 75 0 37 72 0 34 69 0 32 66 0 30 63 0 27 60 0 25 57 0 23 55 0 22 53 0 20 51 0 19 49 0 18 48 0 18 48 0 18 48 0 18 48 0 18 48 0 18 48 0 18 48 0 18 48 0 18 48 0 18 48 0 18 48 0 18 48 0 18 48 0 18 48 0 18 48 0 18 48 0 18 48 0 18 48 0 18 48 0 18 48 0 18 48 0 18 48 0 18 48 0 18 48 0 18 48 0 18 48 0 18 48 0 18 48 0 18 48 0 18 48 0 18 48 0 18 48 0 18 48 0 18 48 0 18 48 0 18 48 0 18 48 0 18 48 0 18 48 0 18 48 0 18 48 0 18 48 0 18 48 0 18 48 0 18 48 0 18 48 0 18 48 0 18 48 0 18 48 0 18 48 0 18 48 0 18 49 0 19 49 0 19 49 0 19 49 0 19 50 0 19 50 0 19 50 0 20 50 0 20 50 0 20 50 0 20 50 0 20 51 0 20 51 0 20 51 0 20 51 0 20 51 0 20 50 0 20 50 0 20 50 0 20 50 0 20 50 0 20 50 0 20 50 0 20 50 0 20 50 0 20 50 0 20 50 0 20 50 0 20 50 0 20 50 0 20 51 0 20 51 0 20 51 0 20 51 0 21 51 0 21 52 0 21 52 0 21 52 0 21 52 0 21 53 0 22 53 0 22 53 0 22 53 0 21 52 0 21 52 0 21 52 0 20 51 0 19 50
255 45 45 0 90 140 0 128 189 0 152 220 0 130 191 0 97 149 0 70 114 0 46 83 0 23 55 0 25 57 0 36 71 0 42 79 0 46 84 0 46 84 0 46 84 0 44 82 0 42 79 0 39 75 0 36 71 0 33 67 0 30 63 0 27 60 0 25 57 0 22 54 0 20 51 0 19 49 0 18 48 0 18 48 0 18 48 0 18 48 0 18 48 0 18 48 0 18 48 0 18 48 0 18 48 0 18 48 0 18 48 0 18 48 0 18 48 0 18 48 0 18 48 0 18 48 0 18 48 0 18 48 0 18 48 0 18 48 0 18 48 0 18 48 0 18 48 0 18 48 0 18 48 0 18 48 0 18 48 0 18 48 0 18 48 0 18 48 0 18 48 0 18 48 0 18 48 0 18 48 0 18 48 0 18 48 0 18 48 0 18 48 0 18 48 0 18 48 0 18 48 0 18 48 0 18 48 0 18 48 0 18 48 0 18 48 0 18 48 0 18 48 0 18 48 0 18 48 0 18 48 0 18 48 0 18 48 0 18 49 0 19 49 0 19 49 0 19 49 0 19 50 0 19 50 0 19 50 0 20 50 0 20 50 0 20 50 0 20 50 0 20 50 0 20 50 0 20 50 0 20 50 0 20 50 0 19 50 0 19 50 0 19 50 0 19 50 0 19 49 0 19 49 0 19 49 0 19 49 0 19 49 0 19 49 0 19 49 0 19 49 0 19 49 0 19 49 0 19 49 0 19 49 0 19 49 0 19 50 0 19 50 0 20 50 0 20 51 0 20 51 0 20 51 0 21 52 0 21 52 0 21 52 0 21 52 0 21 52 0 21 52 0 20 51 0 20 50 0 19 49 0 18 48
255 120 73 0 53 92 0 134 196 0 134 197 0 99 151 0 61 103 0 36 71 0 19 49 0 35 70 0 41 78 0 46 84 0 47 85 0 45 83 0 42 79 0 39 75 0 36 71 0 32 66 0 29 62 0 26 58 0 23 54 0 20 51 0 18 49 0 18 48 0 18 48 0 18 48 0 18 48 0 18 48 0 18 48 0 18 48 0 18 48 0 18 48 0 18 48 0 18 48 0 18 48 0 18 48 0 18 48 0 18 48 0 18 48 0 18 48 0 18 48 0 18 48 0 18 48 0 18 48 0 18 48 0 18 48 0 18 48 0 18 48 0 18 48 0 18 48 0 18 48 0 18 48 0 18 48 0 18 48 0 18 48 0 18 48 0 18 48 0 18 48 0 18 48 0 18 48 0 18 48 0 18 48 0 18 48 0 18 48 0 18 48 0 18 48 0 18 48 0 18 48 0 18 48 0 18 48 0 18 48 0 18 48 0 18 48 0 18 48 0 18 48 0 18 48 0 18 48 0 18 48 0 18 48 0 18 48 0 18 49 0 19 49 0 19 49 0 19 49 0 19 50 0 19 50 0 19 50 0 19 50 0 19 50 0 19 50 0 19 50 0 19 50 0 19 50 0 19 50 0 19 49 0 19 49 0 19 49 0 18 49 0 18 48 0 18 48 0 18 48 0 18 48 0 18 48 0 18 48 0 18 48 0 18 48 0 18 48 0 18 48 0 18 48 0 18 48 0 18 48 0 18 48 0 18 48 0 18 48 0 18 48 0 18 49 0 19 49 0 19 49 0 19 50 0 20 50 0 20 51 0 20 51 0 20 51 0 20 51 0 20 50 0 19 50 0 18 48 0 18 48 0 18 48
11 182 248 0 39 74 0 52 91 0 24 56 0 43 80 0 58 100 0 59 101 0 54 95 0 51 90 0 42 79 0 36 71 0 29 63 0 24 56 0 20 51 0 18 48 0 18 48 0 18 48 0 18 48 0 18 48 0 18 48 0 18 48 0 18 48 0 18 48 0 18 48 0 18 48 0 18 48 0 18 48 0 18 48 0 18 48 0 18 48 0 18 48 0 18 48 0 18 48 0 18 48 0 18 48 0 18 48 0 18 48 0 18 49 0 19 50 0 20 50 0 20 51 0 21 52 0 21 52 0 21 52 0 21 52 0 21 52 0 21 52 0 21 52 0 21 52 0 21 52 0 21 52 0 20 51 0 20 51 0 20 50 0 19 50 0 19 49 0 19 49 0 18 49 0 18 48 0 18 48 0 18 48 0 18 48 0 18 48 0 18 48 0 18 48 0 18 48 0 18 48 0 18 48 0 18 48 0 18 48 0 18 48 0 18 48 0 18 48 0 18 48 0 18 48 0 18 48 0 18 48 0 18 48 0 18 48 0 18 49 0 19 49 0 19 49 0 19 49 0 19 49 0 19 50 0 19 50 0 19 50 0 19 49 0 19 49 0 19 49 0 19 49 0 18 49 0 18 48 0 18 48 0 18 48 0 18 48 0 18 48 0 18 48 0 18 48 0 18 48 0 18 48 0 18 48 0 18 48 0 18 48 0 18 48 0 18 48 0 18 48 0 18 48 0 18 48 0 18 48 0 18 48 0 18 48 0 18 48 0 18 48 0 18 48 0 18 48 0 18 48 0 18 48 0 18 48 0 19 49 0 19 49 0 19 49 0 19 49 0 18 48 0 18 48 0 18 48 0 18 48 0 18 48
255 45 45 128 210 185 255 226 112 209 230 142 99 203 201 0 156 224 0 90 140 0 43 81 0 19 49 0 18 48 0 18 48 0 18 48 0 18 48 0 18 48 0 18 48 0 18 48 0 18 48 0 18 48 0 18 48 0 18 48 0 18 48 0 18 48 0 18 48 0 18 48 0 18 48 0 18 48 0 18 48 0 18 48 0 18 48 0 18 48 0 18 48 0 18 48 0 18 48 0 18 48 0 19 50 0 21 52 0 22 53 0 23 55 0 24 56 0 25 57 0 26 58 0 26 58 0 26 59 0 27 59 0 27 59 0 27 59 0 27 59 0 26 59 0 26 58 0 26 58 0 25 57 0 25 57 0 24 56 0 24 55 0 23 54 0 22 54 0 22 53 0 21 52 0 20 51 0 20 51 0 19 50 0 19 49 0 19 49 0 18 48 0 18 48 0 18 48 0 18 48 0 18 48 0 18 48 0 18 48 0 18 48 0 18 48 0 18 48 0 18 48 0 18 48 0 18 48 0 18 48 0 18 48 0 18 48 0 18 49 0 18 49 0 19 49 0 19 49 0 19 49 0 19 49 0 19 49 0 19 49 0 18 49 0 18 48 0 18 48 0 18 48 0 18 48 0 18 48 0 18 48 0 18 48 0 18 48 0 18 48 0 18 48 0 18 48 0 18 48 0 18 48 0 18 48 0 18 48 0 18 48 0 18 48 0 18 48 0 18 48 0 18 48 0 18 48 0 18 48 0 18 48 0 18 48 0 18 48 0 18 48 0 18 48 0 18 48 0 18 48 0 18 48 0 18 48 0 18 48 0 18 48 0 18 48 0 18 48 0 18 48 0 18 48 0 18 48 0 18 48 0 18 48
