P3
128 128
255
255 255 255  255 255 255  255 255 255  255 255 255  116 116 116  43 43 43  14 14 14  5 5 5  1 1 1  0 0 0  0 0 0  0 0 0  0 0 0  0 0 0  0 0 0  0 0 0  0 0 0  0 0 0  0 0 0  0 0 0  0 0 0  0 0 0  0 0 0  0 0 0  0 0 0  0 0 0  0 0 0  0 0 0  0 0 0  0 0 0  0 0 0  0 0 0  0 0 0  0 0 0  0 0 0  0 0 0  0 0 0  0 0 0  0 0 0  0 0 0  0 0 0  0 0 0  0 0 0  0 0 0  0 0 0  0 0 0  0 0 0  0 0 0  0 0 0  0 0 0  0 0 0  0 0 0  0 0 0  0 0 0  0 0 0  0 0 0  0 0 0  0 0 0  0 0 0  0 0 0  0 0 0  0 0 0  0 0 0  0 0 0  0 0 0  0 0 0  0 0 0  0 0 0  0 0 0  0 0 0  0 0 0  0 0 0  0 0 0  0 0 0  0 0 0  0 0 0  0 0 0  0 0 0  0 0 0  0 0 0  0 0 0  0 0 0  0 0 0  0 0 0  0 0 0  0 0 0  0 0 0  0 0 0  0 0 0  0 0 0  0 0 0  0 0 0  0 0 0  0 0 0  0 0 0  0 0 0  0 0 0  0 0 0  0 0 0  0 0 0  0 0 0  0 0 0  0 0 0  0 0 0  0 0 0  0 0 0  0 0 0  0 0 0  0 0 0  0 0 0  0 0 0  0 0 0  0 0 0  0 0 0  0 0 0  0 0 0  0 0 0  0 0 0  0 0 0  0 0 0  0 0 0  0 0 0  0 0 0  0 0 0  0 0 0  0 0 0  0 0 0  0 0 0  
255 255 255  255 255 255  255 255 255  255 255 255  255 255 255  223 223 223  128 128 128  73 73 73  37 37 37  20 20 20  10 10 10  5 5 5  2 2 2  1 1 1  0 0 0  0 0 0  0 0 0  0 0 0  0 0 0  0 0 0  0 0 0  0 0 0  0 0 0  0 0 0  0 0 0  0 0 0  0 0 0  0 0 0  0 0 0  0 0 0  0 0 0  0 0 0  0 0 0  0 0 0  0 0 0  0 0 0  0 0 0  0 0 0  0 0 0  0 0 0  0 0 0  0 0 0  0 0 0  0 0 0  0 0 0  0 0 0  0 0 0  0 0 0  0 0 0  0 0 0  0 0 0  0 0 0  0 0 0  0 0 0  0 0 0  0 0 0  0 0 0  0 0 0  0 0 0  0 0 0  0 0 0  0 0 0  0 0 0  0 0 0  0 0 0  0 0 0  0 0 0  0 0 0  0 0 0  0 0 0  0 0 0  0 0 0  0 0 0  0 0 0  0 0 0  0 0 0  0 0 0  0 0 0  0 0 0  0 0 0  0 0 0  0 0 0  0 0 0  0 0 0  0 0 0  0 0 0  0 0 0  0 0 0  0 0 0  0 0 0  0 0 0  0 0 0  0 0 0  0 0 0  0 0 0  0 0 0  0 0 0  0 0 0  0 0 0  0 0 0  0 0 0  0 0 0  0 0 0  0 0 0  0 0 0  0 0 0  0 0 0  0 0 0  0 0 0  0 0 0  0 0 0  0 0 0  0 0 0  0 0 0  0 0 0  0 0 0  0 0 0  0 0 0  0 0 0  0 0 0  0 0 0  0 0 0  0 0 0  0 0 0  0 0 0  0 0 0  0 0 0  0 0 0  
255 255 255  255 255 255  255 255 255  255 255 255  255 255 255  255 255 255  255 255 255  176 176 176  115 115 115  78 78 78  50 50 50  32 32 32  20 20 20  13 13 13  8 8 8  5 5 5  3 3 3  1 1 1  1 1 1  0 0 0  0 0 0  0 0 0  0 0 0  0 0 0  0 0 0  0 0 0  0 0 0  0 0 0  0 0 0  0 0 0  0 0 0  0 0 0  0 0 0  0 0 0  0 0 0  0 0 0  0 0 0  0 0 0  0 0 0  0 0 0  0 0 0  0 0 0  0 0 0  0 0 0  0 0 0  0 0 0  0 0 0  0 0 0  0 0 0  0 0 0  0 0 0  0 0 0  0 0 0  0 0 0  0 0 0  0 0 0  0 0 0  0 0 0  0 0 0  0 0 0  0 0 0  0 0 0  0 0 0  0 0 0  0 0 0  0 0 0  0 0 0  0 0 0  0 0 0  0 0 0  0 0 0  0 0 0  0 0 0  0 0 0  0 0 0  0 0 0  0 0 0  0 0 0  0 0 0  0 0 0  0 0 0  0 0 0  0 0 0  0 0 0  0 0 0  0 0 0  0 0 0  0 0 0  0 0 0  0 0 0  0 0 0  0 0 0  0 0 0  0 0 0  0 0 0  0 0 0  0 0 0  0 0 0  0 0 0  0 0 0  0 0 0  0 0 0  0 0 0  0 0 0  0 0 0  0 0 0  0 0 0  0 0 0  0 0 0  0 0 0  0 0 0  0 0 0  0 0 0  0 0 0  0 0 0  0 0 0  0 0 0  0 0 0  0 0 0  0 0 0  0 0 0  0 0 0  0 0 0  0 0 0  0 0 0  0 0 0  0 0 0  0 0 0  
255 255 255  255 255 255  255 255 255  255 255 255  255 255 255  255 255 255  255 255 255  255 255 255  191 191 191  143 143 143  104 104 104  75 75 75  55 55 55  40 40 40  28 28 28  20 20 20  14 14 14  9 9 9  6 6 6  4 4 4  3 3 3  2 2 2  1 1 1  0 0 0  0 0 0  0 0 0  0 0 0  0 0 0  0 0 0  0 0 0  0 0 0  0 0 0  0 0 0  0 0 0  0 0 0  0 0 0  0 0 0  0 0 0  0 0 0  0 0 0  0 0 0  0 0 0  0 0 0  0 0 0  0 0 0  0 0 0  0 0 0  0 0 0  0 0 0  0 0 0  0 0 0  0 0 0  0 0 0  0 0 0  0 0 0  0 0 0  0 0 0  0 0 0  0 0 0  0 0 0  0 0 0  0 0 0  0 0 0  0 0 0  0 0 0  0 0 0  0 0 0  0 0 0  0 0 0  0 0 0  0 0 0  0 0 0  0 0 0  0 0 0  0 0 0  0 0 0  0 0 0  0 0 0  0 0 0  0 0 0  0 0 0  0 0 0  0 0 0  0 0 0  0 0 0  0 0 0  0 0 0  0 0 0  0 0 0  0 0 0  0 0 0  0 0 0  0 0 0  0 0 0  0 0 0  0 0 0  0 0 0  0 0 0  0 0 0  0 0 0  0 0 0  0 0 0  0 0 0  0 0 0  0 0 0  0 0 0  0 0 0  0 0 0  0 0 0  0 0 0  0 0 0  0 0 0  0 0 0  0 0 0  0 0 0  0 0 0  0 0 0  0 0 0  0 0 0  0 0 0  0 0 0  0 0 0  0 0 0  0 0 0  0 0 0  0 0 0  0 0 0  0 0 0  
255 255 255  255 255 255  255 255 255  255 255 255  255 255 255  255 255 255  255 255 255  255 255 255  250 250 250  197 197 197  154 154 154  119 119 119  93 93 93  72 72 72  55 55 55  42 42 42  32 32 32  24 24 24  18 18 18  14 14 14  10 10 10  7 7 7  5 5 5  4 4 4  3 3 3  2 2 2  1 1 1  1 1 1  0 0 0  0 0 0  0 0 0  0 0 0  0 0 0  0 0 0  0 0 0  0 0 0  0 0 0  0 0 0  0 0 0  0 0 0  0 0 0  0 0 0  0 0 0  0 0 0  0 0 0  0 0 0  0 0 0  0 0 0  0 0 0  0 0 0  0 0 0  0 0 0  0 0 0  0 0 0  0 0 0  0 0 0  0 0 0  0 0 0  0 0 0  0 0 0  0 0 0  0 0 0  0 0 0  0 0 0  0 0 0  0 0 0  0 0 0  0 0 0  0 0 0  0 0 0  0 0 0  0 0 0  0 0 0  0 0 0  0 0 0  0 0 0  0 0 0  0 0 0  0 0 0  0 0 0  0 0 0  0 0 0  0 0 0  0 0 0  0 0 0  0 0 0  0 0 0  0 0 0  0 0 0  0 0 0  0 0 0  0 0 0  0 0 0  0 0 0  0 0 0  0 0 0  0 0 0  0 0 0  0 0 0  0 0 0  0 0 0  0 0 0  0 0 0  0 0 0  0 0 0  0 0 0  0 0 0  0 0 0  0 0 0  0 0 0  0 0 0  0 0 0  0 0 0  0 0 0  0 0 0  0 0 0  0 0 0  0 0 0  0 0 0  0 0 0  0 0 0  0 0 0  0 0 0  0 0 0  0 0 0  0 0 0  0 0 0  0 0 0  
255 255 255  255 255 255  255 255 255  255 255 255  255 255 255  255 255 255  255 255 255  255 255 255  255 255 255  239 239 239  194 194 194  158 158 158  128 128 128  104 104 104  84 84 84  67 67 67  54 54 54  43 43 43  34 34 34  27 27 27  21 21 21  17 17 17  13 13 13  10 10 10  8 8 8  6 6 6  4 4 4  3 3 3  2 2 2  2 2 2  1 1 1  1 1 1  0 0 0  0 0 0  0 0 0  0 0 0  0 0 0  0 0 0  0 0 0  0 0 0  0 0 0  0 0 0  0 0 0  0 0 0  0 0 0  0 0 0  0 0 0  0 0 0  0 0 0  0 0 0  0 0 0  0 0 0  0 0 0  0 0 0  0 0 0  0 0 0  0 0 0  0 0 0  0 0 0  0 0 0  0 0 0  0 0 0  0 0 0  0 0 0  0 0 0  0 0 0  0 0 0  0 0 0  0 0 0  0 0 0  0 0 0  0 0 0  0 0 0  0 0 0  0 0 0  0 0 0  0 0 0  0 0 0  0 0 0  0 0 0  0 0 0  0 0 0  0 0 0  0 0 0  0 0 0  0 0 0  0 0 0  0 0 0  0 0 0  0 0 0  0 0 0  0 0 0  0 0 0  0 0 0  0 0 0  0 0 0  0 0 0  0 0 0  0 0 0  0 0 0  0 0 0  0 0 0  0 0 0  0 0 0  0 0 0  0 0 0  0 0 0  0 0 0  0 0 0  0 0 0  0 0 0  0 0 0  0 0 0  0 0 0  0 0 0  0 0 0  0 0 0  0 0 0  0 0 0  0 0 0  0 0 0  0 0 0  0 0 0  0 0 0  0 0 0  0 0 0  0 0 0  0 0 0  
255 255 255  255 255 255  255 255 255  255 255 255  255 255 255  255 255 255  255 255 255  255 255 255  255 255 255  255 255 255  225 225 225  188 188 188  158 158 158  132 132 132  110 110 110  92 92 92  76 76 76  63 63 63  52 52 52  43 43 43  35 35 35  29 29 29  23 23 23  19 19 19  15 15 15  12 12 12  10 10 10  8 8 8  6 6 6  5 5 5  4 4 4  3 3 3  2 2 2  2 2 2  1 1 1  1 1 1  1 1 1  0 0 0  0 0 0  0 0 0  0 0 0  0 0 0  0 0 0  0 0 0  0 0 0  0 0 0  0 0 0  0 0 0  0 0 0  0 0 0  0 0 0  0 0 0  0 0 0  0 0 0  0 0 0  0 0 0  0 0 0  0 0 0  0 0 0  0 0 0  0 0 0  0 0 0  0 0 0  0 0 0  0 0 0  0 0 0  0 0 0  0 0 0  0 0 0  0 0 0  0 0 0  0 0 0  0 0 0  0 0 0  0 0 0  0 0 0  0 0 0  0 0 0  0 0 0  0 0 0  0 0 0  0 0 0  0 0 0  0 0 0  0 0 0  0 0 0  0 0 0  0 0 0  0 0 0  0 0 0  0 0 0  0 0 0  0 0 0  0 0 0  0 0 0  0 0 0  0 0 0  0 0 0  0 0 0  0 0 0  0 0 0  0 0 0  0 0 0  0 0 0  0 0 0  0 0 0  0 0 0  0 0 0  0 0 0  0 0 0  0 0 0  0 0 0  0 0 0  0 0 0  0 0 0  0 0 0  0 0 0  0 0 0  0 0 0  0 0 0  0 0 0  0 0 0  0 0 0  0 0 0  0 0 0  0 0 0  0 0 0  0 0 0  
255 255 255  255 255 255  255 255 255  255 255 255  255 255 255  255 255 255  255 255 255  255 255 255  255 255 255  255 255 255  248 248 248  212 212 212  182 182 182  156 156 156  133 133 133  113 113 113  96 96 96  82 82 82  69 69 69  59 59 59  50 50 50  42 42 42  35 35 35  30 30 30  25 25 25  21 21 21  17 17 17  14 14 14  12 12 12  10 10 10  8 8 8  6 6 6  5 5 5  4 4 4  3 3 3  3 3 3  2 2 2  2 2 2  1 1 1  1 1 1  1 1 1  0 0 0  0 0 0  0 0 0  0 0 0  0 0 0  0 0 0  0 0 0  0 0 0  0 0 0  0 0 0  0 0 0  0 0 0  0 0 0  0 0 0  0 0 0  0 0 0  0 0 0  0 0 0  0 0 0  0 0 0  0 0 0  0 0 0  0 0 0  0 0 0  0 0 0  0 0 0  0 0 0  0 0 0  0 0 0  0 0 0  0 0 0  0 0 0  0 0 0  0 0 0  0 0 0  0 0 0  0 0 0  0 0 0  0 0 0  0 0 0  0 0 0  0 0 0  0 0 0  0 0 0  0 0 0  0 0 0  0 0 0  0 0 0  0 0 0  0 0 0  0 0 0  0 0 0  0 0 0  0 0 0  0 0 0  0 0 0  0 0 0  0 0 0  0 0 0  0 0 0  0 0 0  0 0 0  0 0 0  0 0 0  0 0 0  0 0 0  0 0 0  0 0 0  0 0 0  0 0 0  0 0 0  0 0 0  0 0 0  0 0 0  0 0 0  0 0 0  0 0 0  0 0 0  0 0 0  0 0 0  0 0 0  0 0 0  0 0 0  0 0 0  0 0 0  0 0 0  0 0 0  
255 255 255  255 255 255  255 255 255  255 255 255  255 255 255  255 255 255  255 255 255  255 255 255  255 255 255  255 255 255  255 255 255  230 230 230  201 201 201  175 175 175  152 152 152  132 132 132  115 115 115  99 99 99  86 86 86  75 75 75  64 64 64  55 55 55  47 47 47  41 41 41  35 35 35  30 30 30  26 26 26  22 22 22  18 18 18  16 16 16  13 13 13  11 11 11  9 9 9  8 8 8  6 6 6  5 5 5  4 4 4  4 4 4  3 3 3  2 2 2  2 2 2  1 1 1  1 1 1  1 1 1  1 1 1  0 0 0  0 0 0  0 0 0  0 0 0  0 0 0  0 0 0  0 0 0  0 0 0  0 0 0  0 0 0  0 0 0  0 0 0  0 0 0  0 0 0  0 0 0  0 0 0  0 0 0  0 0 0  0 0 0  0 0 0  0 0 0  0 0 0  0 0 0  0 0 0  0 0 0  0 0 0  0 0 0  0 0 0  0 0 0  0 0 0  0 0 0  0 0 0  0 0 0  0 0 0  0 0 0  0 0 0  0 0 0  0 0 0  0 0 0  0 0 0  0 0 0  0 0 0  0 0 0  0 0 0  0 0 0  0 0 0  0 0 0  0 0 0  0 0 0  0 0 0  0 0 0  0 0 0  0 0 0  0 0 0  0 0 0  0 0 0  0 0 0  0 0 0  0 0 0  0 0 0  0 0 0  0 0 0  0 0 0  0 0 0  0 0 0  0 0 0  0 0 0  0 0 0  0 0 0  0 0 0  0 0 0  0 0 0  0 0 0  0 0 0  0 0 0  0 0 0  0 0 0  0 0 0  0 0 0  0 0 0  0 0 0  0 0 0  0 0 0  
255 255 255  255 255 255  255 255 255  255 255 255  255 255 255  255 255 255  255 255 255  255 255 255  255 255 255  255 255 255  255 255 255  243 243 243  215 215 215  190 190 190  167 167 167  148 148 148  130 130 130  114 114 114  100 100 100  89 89 89  78 78 78  68 68 68  59 59 59  52 52 52  45 45 45  39 39 39  34 34 34  30 30 30  26 26 26  22 22 22  19 19 19  17 17 17  14 14 14  12 12 12  10 10 10  9 9 9  8 8 8  6 6 6  5 5 5  4 4 4  4 4 4  3 3 3  3 3 3  2 2 2  2 2 2  1 1 1  1 1 1  1 1 1  1 1 1  0 0 0  0 0 0  0 0 0  0 0 0  0 0 0  0 0 0  0 0 0  0 0 0  0 0 0  0 0 0  0 0 0  0 0 0  0 0 0  0 0 0  0 0 0  0 0 0  0 0 0  0 0 0  0 0 0  0 0 0  0 0 0  0 0 0  0 0 0  0 0 0  0 0 0  0 0 0  0 0 0  0 0 0  0 0 0  0 0 0  0 0 0  0 0 0  0 0 0  0 0 0  0 0 0  0 0 0  0 0 0  0 0 0  0 0 0  0 0 0  0 0 0  0 0 0  0 0 0  0 0 0  0 0 0  0 0 0  0 0 0  0 0 0  0 0 0  0 0 0  0 0 0  0 0 0  0 0 0  0 0 0  0 0 0  0 0 0  0 0 0  0 0 0  0 0 0  0 0 0  0 0 0  0 0 0  0 0 0  0 0 0  0 0 0  0 0 0  0 0 0  0 0 0  0 0 0  0 0 0  0 0 0  0 0 0  0 0 0  0 0 0  0 0 0  0 0 0  0 0 0  0 0 0  0 0 0  
255 255 255  255 255 255  255 255 255  255 255 255  255 255 255  255 255 255  255 255 255  255 255 255  255 255 255  255 255 255  255 255 255  253 253 253  226 226 226  202 202 202  180 180 180  160 160 160  143 143 143  127 127 127  113 113 113  101 101 101  90 90 90  80 80 80  71 71 71  63 63 63  56 56 56  49 49 49  43 43 43  38 38 38  34 34 34  30 30 30  26 26 26  23 23 23  20 20 20  17 17 17  15 15 15  13 13 13  11 11 11  10 10 10  9 9 9  7 7 7  6 6 6  5 5 5  5 5 5  4 4 4  3 3 3  3 3 3  2 2 2  2 2 2  1 1 1  1 1 1  1 1 1  1 1 1  1 1 1  0 0 0  0 0 0  0 0 0  0 0 0  0 0 0  0 0 0  0 0 0  0 0 0  0 0 0  0 0 0  0 0 0  0 0 0  0 0 0  0 0 0  0 0 0  0 0 0  0 0 0  0 0 0  0 0 0  0 0 0  0 0 0  0 0 0  0 0 0  0 0 0  0 0 0  0 0 0  0 0 0  0 0 0  0 0 0  0 0 0  0 0 0  0 0 0  0 0 0  0 0 0  0 0 0  0 0 0  0 0 0  0 0 0  0 0 0  0 0 0  0 0 0  0 0 0  0 0 0  0 0 0  0 0 0  0 0 0  0 0 0  0 0 0  0 0 0  0 0 0  0 0 0  0 0 0  0 0 0  0 0 0  0 0 0  0 0 0  0 0 0  0 0 0  0 0 0  0 0 0  0 0 0  0 0 0  0 0 0  0 0 0  0 0 0  0 0 0  0 0 0  0 0 0  0 0 0  0 0 0  0 0 0  0 0 0  0 0 0  0 0 0  0 0 0  
255 255 255  255 255 255  255 255 255  255 255 255  255 255 255  255 255 255  255 255 255  255 255 255  255 255 255  255 255 255  255 255 255  255 255 255  234 234 234  211 211 211  190 190 190  171 171 171  154 154 154  138 138 138  124 124 124  112 112 112  101 101 101  90 90 90  81 81 81  73 73 73  65 65 65  58 58 58  52 52 52  46 46 46  41 41 41  37 37 37  33 33 33  29 29 29  26 26 26  23 23 23  20 20 20  18 18 18  16 16 16  14 14 14  12 12 12  11 11 11  9 9 9  8 8 8  7 7 7  6 6 6  5 5 5  5 5 5  4 4 4  3 3 3  3 3 3  2 2 2  2 2 2  2 2 2  1 1 1  1 1 1  1 1 1  1 1 1  0 0 0  0 0 0  0 0 0  0 0 0  0 0 0  0 0 0  0 0 0  0 0 0  0 0 0  0 0 0  0 0 0  0 0 0  0 0 0  0 0 0  0 0 0  0 0 0  0 0 0  0 0 0  0 0 0  0 0 0  0 0 0  0 0 0  0 0 0  0 0 0  0 0 0  0 0 0  0 0 0  0 0 0  0 0 0  0 0 0  0 0 0  0 0 0  0 0 0  0 0 0  0 0 0  0 0 0  0 0 0  0 0 0  0 0 0  0 0 0  0 0 0  0 0 0  0 0 0  0 0 0  0 0 0  0 0 0  0 0 0  0 0 0  0 0 0  0 0 0  0 0 0  0 0 0  0 0 0  0 0 0  0 0 0  0 0 0  0 0 0  0 0 0  0 0 0  0 0 0  0 0 0  0 0 0  0 0 0  0 0 0  0 0 0  0 0 0  0 0 0  0 0 0  0 0 0  0 0 0  0 0 0  0 0 0  
255 255 255  255 255 255  255 255 255  255 255 255  255 255 255  255 255 255  255 255 255  255 255 255  255 255 255  255 255 255  255 255 255  255 255 255  239 239 239  218 218 218  197 197 197  179 179 179  163 163 163  148 148 148  134 134 134  122 122 122  110 110 110  100 100 100  90 90 90  82 82 82  74 74 74  67 67 67  60 60 60  54 54 54  49 49 49  44 44 44  40 40 40  36 36 36  32 32 32  28 28 28  26 26 26  23 23 23  20 20 20  18 18 18  16 16 16  14 14 14  13 13 13  11 11 11  10 10 10  9 9 9  8 8 8  7 7 7  6 6 6  5 5 5  4 4 4  4 4 4  3 3 3  3 3 3  2 2 2  2 2 2  2 2 2  1 1 1  1 1 1  1 1 1  1 1 1  1 1 1  0 0 0  0 0 0  0 0 0  0 0 0  0 0 0  0 0 0  0 0 0  0 0 0  0 0 0  0 0 0  0 0 0  0 0 0  0 0 0  0 0 0  0 0 0  0 0 0  0 0 0  0 0 0  0 0 0  0 0 0  0 0 0  0 0 0  0 0 0  0 0 0  0 0 0  0 0 0  0 0 0  0 0 0  0 0 0  0 0 0  0 0 0  0 0 0  0 0 0  0 0 0  0 0 0  0 0 0  0 0 0  0 0 0  0 0 0  0 0 0  0 0 0  0 0 0  0 0 0  0 0 0  0 0 0  0 0 0  0 0 0  0 0 0  0 0 0  0 0 0  0 0 0  0 0 0  0 0 0  0 0 0  0 0 0  0 0 0  0 0 0  0 0 0  0 0 0  0 0 0  0 0 0  0 0 0  0 0 0  0 0 0  0 0 0  0 0 0  0 0 0  0 0 0  
255 255 255  255 255 255  255 255 255  255 255 255  255 255 255  255 255 255  255 255 255  255 255 255  255 255 255  255 255 255  255 255 255  255 255 255  243 243 243  223 223 223  203 203 203  186 186 186  170 170 170  155 155 155  142 142 142  130 130 130  118 118 118  108 108 108  98 98 98  90 90 90  82 82 82  74 74 74  68 68 68  62 62 62  56 56 56  51 51 51  46 46 46  42 42 42  38 38 38  34 34 34  31 31 31  28 28 28  25 25 25  23 23 23  20 20 20  18 18 18  16 16 16  15 15 15  13 13 13  12 12 12  10 10 10  9 9 9  8 8 8  7 7 7  6 6 6  6 6 6  5 5 5  4 4 4  4 4 4  3 3 3  3 3 3  2 2 2  2 2 2  2 2 2  2 2 2  1 1 1  1 1 1  1 1 1  1 1 1  1 1 1  0 0 0  0 0 0  0 0 0  0 0 0  0 0 0  0 0 0  0 0 0  0 0 0  0 0 0  0 0 0  0 0 0  0 0 0  0 0 0  0 0 0  0 0 0  0 0 0  0 0 0  0 0 0  0 0 0  0 0 0  0 0 0  0 0 0  0 0 0  0 0 0  0 0 0  0 0 0  0 0 0  0 0 0  0 0 0  0 0 0  0 0 0  0 0 0  0 0 0  0 0 0  0 0 0  0 0 0  0 0 0  0 0 0  0 0 0  0 0 0  0 0 0  0 0 0  0 0 0  0 0 0  0 0 0  0 0 0  0 0 0  0 0 0  0 0 0  0 0 0  0 0 0  0 0 0  0 0 0  0 0 0  0 0 0  0 0 0  0 0 0  0 0 0  0 0 0  0 0 0  0 0 0  0 0 0  0 0 0  0 0 0  
255 255 255  255 255 255  255 255 255  255 255 255  255 255 255  255 255 255  255 255 255  255 255 255  255 255 255  255 255 255  255 255 255  255 255 255  246 246 246  226 226 226  208 208 208  191 191 191  176 176 176  161 161 161  148 148 148  137 137 137  126 126 126  115 115 115  106 106 106  97 97 97  89 89 89  82 82 82  75 75 75  68 68 68  63 63 63  57 57 57  52 52 52  48 48 48  44 44 44  40 40 40  36 36 36  33 33 33  30 30 30  27 27 27  25 25 25  22 22 22  20 20 20  18 18 18  17 17 17  15 15 15  13 13 13  12 12 12  11 11 11  10 10 10  9 9 9  8 8 8  7 7 7  6 6 6  5 5 5  5 5 5  4 4 4  4 4 4  3 3 3  3 3 3  2 2 2  2 2 2  2 2 2  2 2 2  1 1 1  1 1 1  1 1 1  1 1 1  1 1 1  0 0 0  0 0 0  0 0 0  0 0 0  0 0 0  0 0 0  0 0 0  0 0 0  0 0 0  0 0 0  0 0 0  0 0 0  0 0 0  0 0 0  0 0 0  0 0 0  0 0 0  0 0 0  0 0 0  0 0 0  0 0 0  0 0 0  0 0 0  0 0 0  0 0 0  0 0 0  0 0 0  0 0 0  0 0 0  0 0 0  0 0 0  0 0 0  0 0 0  0 0 0  0 0 0  0 0 0  0 0 0  0 0 0  0 0 0  0 0 0  0 0 0  0 0 0  0 0 0  0 0 0  0 0 0  0 0 0  0 0 0  0 0 0  0 0 0  0 0 0  0 0 0  0 0 0  0 0 0  0 0 0  0 0 0  0 0 0  0 0 0  0 0 0  0 0 0  0 0 0  0 0 0  
255 255 255  255 255 255  255 255 255  255 255 255  255 255 255  255 255 255  255 255 255  255 255 255  255 255 255  255 255 255  255 255 255  255 255 255  247 247 247  229 229 229  211 211 211  195 195 195  180 180 180  167 167 167  154 154 154  142 142 142  132 132 132  121 121 121  112 112 112  103 103 103  96 96 96  88 88 88  81 81 81  75 75 75  69 69 69  63 63 63  58 58 58  54 54 54  49 49 49  45 45 45  41 41 41  38 38 38  35 35 35  32 32 32  29 29 29  27 27 27  24 24 24  22 22 22  20 20 20  18 18 18  17 17 17  15 15 15  14 14 14  12 12 12  11 11 11  10 10 10  9 9 9  8 8 8  7 7 7  7 7 7  6 6 6  5 5 5  5 5 5  4 4 4  4 4 4  3 3 3  3 3 3  2 2 2  2 2 2  2 2 2  2 2 2  1 1 1  1 1 1  1 1 1  1 1 1  1 1 1  1 1 1  0 0 0  0 0 0  0 0 0  0 0 0  0 0 0  0 0 0  0 0 0  0 0 0  0 0 0  0 0 0  0 0 0  0 0 0  0 0 0  0 0 0  0 0 0  0 0 0  0 0 0  0 0 0  0 0 0  0 0 0  0 0 0  0 0 0  0 0 0  0 0 0  0 0 0  0 0 0  0 0 0  0 0 0  0 0 0  0 0 0  0 0 0  0 0 0  0 0 0  0 0 0  0 0 0  0 0 0  0 0 0  0 0 0  0 0 0  0 0 0  0 0 0  0 0 0  0 0 0  0 0 0  0 0 0  0 0 0  0 0 0  0 0 0  0 0 0  0 0 0  0 0 0  0 0 0  0 0 0  0 0 0  0 0 0  0 0 0  0 0 0  
255 255 255  255 255 255  255 255 255  255 255 255  255 255 255  255 255 255  255 255 255  255 255 255  255 255 255  255 255 255  255 255 255  255 255 255  248 248 248  230 230 230  213 213 213  198 198 198  184 184 184  171 171 171  159 159 159  147 147 147  137 137 137  127 127 127  118 118 118  109 109 109  101 101 101  94 94 94  87 87 87  80 80 80  75 75 75  69 69 69  64 64 64  59 59 59  55 55 55  50 50 50  46 46 46  43 43 43  39 39 39  36 36 36  33 33 33  31 31 31  28 28 28  26 26 26  24 24 24  22 22 22  20 20 20  18 18 18  17 17 17  15 15 15  14 14 14  13 13 13  11 11 11  10 10 10  9 9 9  9 9 9  8 8 8  7 7 7  6 6 6  6 6 6  5 5 5  4 4 4  4 4 4  4 4 4  3 3 3  3 3 3  2 2 2  2 2 2  2 2 2  2 2 2  1 1 1  1 1 1  1 1 1  1 1 1  1 1 1  1 1 1  0 0 0  0 0 0  0 0 0  0 0 0  0 0 0  0 0 0  0 0 0  0 0 0  0 0 0  0 0 0  0 0 0  0 0 0  0 0 0  0 0 0  0 0 0  0 0 0  0 0 0  0 0 0  0 0 0  0 0 0  0 0 0  0 0 0  0 0 0  0 0 0  0 0 0  0 0 0  0 0 0  0 0 0  0 0 0  0 0 0  0 0 0  0 0 0  0 0 0  0 0 0  0 0 0  0 0 0  0 0 0  0 0 0  0 0 0  0 0 0  0 0 0  0 0 0  0 0 0  0 0 0  0 0 0  0 0 0  0 0 0  0 0 0  0 0 0  0 0 0  0 0 0  0 0 0  0 0 0  0 0 0  
255 255 255  255 255 255  255 255 255  255 255 255  255 255 255  255 255 255  255 255 255  255 255 255  255 255 255  255 255 255  255 255 255  255 255 255  248 248 248  231 231 231  215 215 215  200 200 200  187 187 187  174 174 174  162 162 162  151 151 151  141 141 141  131 131 131  122 122 122  114 114 114  106 106 106  99 99 99  92 92 92  86 86 86  80 80 80  74 74 74  69 69 69  64 64 64  59 59 59  55 55 55  51 51 51  47 47 47  44 44 44  41 41 41  38 38 38  35 35 35  32 32 32  30 30 30  27 27 27  25 25 25  23 23 23  21 21 21  20 20 20  18 18 18  17 17 17  15 15 15  14 14 14  13 13 13  12 12 12  11 11 11  10 10 10  9 9 9  8 8 8  7 7 7  7 7 7  6 6 6  5 5 5  5 5 5  4 4 4  4 4 4  3 3 3  3 3 3  3 3 3  2 2 2  2 2 2  2 2 2  2 2 2  1 1 1  1 1 1  1 1 1  1 1 1  1 1 1  1 1 1  0 0 0  0 0 0  0 0 0  0 0 0  0 0 0  0 0 0  0 0 0  0 0 0  0 0 0  0 0 0  0 0 0  0 0 0  0 0 0  0 0 0  0 0 0  0 0 0  0 0 0  0 0 0  0 0 0  0 0 0  0 0 0  0 0 0  0 0 0  0 0 0  0 0 0  0 0 0  0 0 0  0 0 0  0 0 0  0 0 0  0 0 0  0 0 0  0 0 0  0 0 0  0 0 0  0 0 0  0 0 0  0 0 0  0 0 0  0 0 0  0 0 0  0 0 0  0 0 0  0 0 0  0 0 0  0 0 0  0 0 0  0 0 0  0 0 0  0 0 0  0 0 0  
255 255 255  255 255 255  255 255 255  255 255 255  255 255 255  255 255 255  255 255 255  255 255 255  255 255 255  255 255 255  255 255 255  255 255 255  247 247 247  231 231 231  216 216 216  202 202 202  189 189 189  177 177 177  165 165 165  155 155 155  145 145 145  135 135 135  127 127 127  119 119 119  111 111 111  104 104 104  97 97 97  90 90 90  85 85 85  79 79 79  74 74 74  69 69 69  64 64 64  60 60 60  56 56 56  52 52 52  48 48 48  45 45 45  42 42 42  39 39 39  36 36 36  33 33 33  31 31 31  29 29 29  27 27 27  25 25 25  23 23 23  21 21 21  19 19 19  18 18 18  16 16 16  15 15 15  14 14 14  13 13 13  12 12 12  11 11 11  10 10 10  9 9 9  8 8 8  7 7 7  7 7 7  6 6 6  6 6 6  5 5 5  5 5 5  4 4 4  4 4 4  3 3 3  3 3 3  3 3 3  2 2 2  2 2 2  2 2 2  2 2 2  1 1 1  1 1 1  1 1 1  1 1 1  1 1 1  1 1 1  0 0 0  0 0 0  0 0 0  0 0 0  0 0 0  0 0 0  0 0 0  0 0 0  0 0 0  0 0 0  0 0 0  0 0 0  0 0 0  0 0 0  0 0 0  0 0 0  0 0 0  0 0 0  0 0 0  0 0 0  0 0 0  0 0 0  0 0 0  0 0 0  0 0 0  0 0 0  0 0 0  0 0 0  0 0 0  0 0 0  0 0 0  0 0 0  0 0 0  0 0 0  0 0 0  0 0 0  0 0 0  0 0 0  0 0 0  0 0 0  0 0 0  0 0 0  0 0 0  0 0 0  0 0 0  0 0 0  0 0 0  0 0 0  
255 255 255  255 255 255  255 255 255  255 255 255  255 255 255  255 255 255  255 255 255  255 255 255  255 255 255  255 255 255  255 255 255  255 255 255  246 246 246  230 230 230  216 216 216  203 203 203  190 190 190  179 179 179  168 168 168  158 158 158  148 148 148  139 139 139  130 130 130  122 122 122  115 115 115  108 108 108  101 101 101  95 95 95  89 89 89  83 83 83  78 78 78  73 73 73  68 68 68  64 64 64  60 60 60  56 56 56  52 52 52  49 49 49  46 46 46  43 43 43  40 40 40  37 37 37  35 35 35  32 32 32  30 30 30  28 28 28  26 26 26  24 24 24  22 22 22  21 21 21  19 19 19  18 18 18  16 16 16  15 15 15  14 14 14  13 13 13  12 12 12  11 11 11  10 10 10  9 9 9  8 8 8  8 8 8  7 7 7  6 6 6  6 6 6  5 5 5  5 5 5  4 4 4  4 4 4  4 4 4  3 3 3  3 3 3  3 3 3  2 2 2  2 2 2  2 2 2  2 2 2  1 1 1  1 1 1  1 1 1  1 1 1  1 1 1  1 1 1  0 0 0  0 0 0  0 0 0  0 0 0  0 0 0  0 0 0  0 0 0  0 0 0  0 0 0  0 0 0  0 0 0  0 0 0  0 0 0  0 0 0  0 0 0  0 0 0  0 0 0  0 0 0  0 0 0  0 0 0  0 0 0  0 0 0  0 0 0  0 0 0  0 0 0  0 0 0  0 0 0  0 0 0  0 0 0  0 0 0  0 0 0  0 0 0  0 0 0  0 0 0  0 0 0  0 0 0  0 0 0  0 0 0  0 0 0  0 0 0  0 0 0  0 0 0  0 0 0  0 0 0  0 0 0  
255 255 255  255 255 255  255 255 255  255 255 255  255 255 255  255 255 255  255 255 255  255 255 255  255 255 255  255 255 255  255 255 255  255 255 255  244 244 244  230 230 230  216 216 216  203 203 203  191 191 191  180 180 180  170 170 170  160 160 160  151 151 151  142 142 142  133 133 133  126 126 126  118 118 118  111 111 111  105 105 105  98 98 98  93 93 93  87 87 87  82 82 82  77 77 77  72 72 72  68 68 68  64 64 64  60 60 60  56 56 56  53 53 53  49 49 49  46 46 46  43 43 43  41 41 41  38 38 38  35 35 35  33 33 33  31 31 31  29 29 29  27 27 27  25 25 25  23 23 23  22 22 22  20 20 20  19 19 19  17 17 17  16 16 16  15 15 15  14 14 14  13 13 13  12 12 12  11 11 11  10 10 10  9 9 9  9 9 9  8 8 8  7 7 7  7 7 7  6 6 6  6 6 6  5 5 5  5 5 5  4 4 4  4 4 4  3 3 3  3 3 3  3 3 3  2 2 2  2 2 2  2 2 2  2 2 2  2 2 2  1 1 1  1 1 1  1 1 1  1 1 1  1 1 1  1 1 1  0 0 0  0 0 0  0 0 0  0 0 0  0 0 0  0 0 0  0 0 0  0 0 0  0 0 0  0 0 0  0 0 0  0 0 0  0 0 0  0 0 0  0 0 0  0 0 0  0 0 0  0 0 0  0 0 0  0 0 0  0 0 0  0 0 0  0 0 0  0 0 0  0 0 0  0 0 0  0 0 0  0 0 0  0 0 0  0 0 0  0 0 0  0 0 0  0 0 0  0 0 0  0 0 0  0 0 0  0 0 0  0 0 0  0 0 0  0 0 0  0 0 0  0 0 0  
255 255 255  255 255 255  255 255 255  255 255 255  255 255 255  255 255 255  255 255 255  255 255 255  255 255 255  255 255 255  255 255 255  255 255 255  242 242 242  228 228 228  216 216 216  203 203 203  192 192 192  181 181 181  171 171 171  162 162 162  153 153 153  144 144 144  136 136 136  128 128 128  121 121 121  114 114 114  108 108 108  102 102 102  96 96 96  91 91 91  86 86 86  81 81 81  76 76 76  72 72 72  67 67 67  63 63 63  60 60 60  56 56 56  53 53 53  50 50 50  47 47 47  44 44 44  41 41 41  39 39 39  36 36 36  34 34 34  32 32 32  30 30 30  28 28 28  26 26 26  24 24 24  23 23 23  21 21 21  20 20 20  18 18 18  17 17 17  16 16 16  15 15 15  14 14 14  13 13 13  12 12 12  11 11 11  10 10 10  9 9 9  9 9 9  8 8 8  7 7 7  7 7 7  6 6 6  6 6 6  5 5 5  5 5 5  4 4 4  4 4 4  4 4 4  3 3 3  3 3 3  3 3 3  2 2 2  2 2 2  2 2 2  2 2 2  1 1 1  1 1 1  1 1 1  1 1 1  1 1 1  1 1 1  1 1 1  0 0 0  0 0 0  0 0 0  0 0 0  0 0 0  0 0 0  0 0 0  0 0 0  0 0 0  0 0 0  0 0 0  0 0 0  0 0 0  0 0 0  0 0 0  0 0 0  0 0 0  0 0 0  0 0 0  0 0 0  0 0 0  0 0 0  0 0 0  0 0 0  0 0 0  0 0 0  0 0 0  0 0 0  0 0 0  0 0 0  0 0 0  0 0 0  0 0 0  0 0 0  0 0 0  0 0 0  0 0 0  0 0 0  0 0 0  
255 255 255  255 255 255  255 255 255  255 255 255  255 255 255  255 255 255  255 255 255  255 255 255  255 255 255  255 255 255  255 255 255  254 254 254  240 240 240  227 227 227  215 215 215  203 203 203  192 192 192  182 182 182  172 172 172  163 163 163  154 154 154  146 146 146  138 138 138  131 131 131  124 124 124  117 117 117  111 111 111  105 105 105  99 99 99  94 94 94  89 89 89  84 84 84  79 79 79  75 75 75  71 71 71  67 67 67  63 63 63  60 60 60  56 56 56  53 53 53  50 50 50  47 47 47  44 44 44  42 42 42  39 39 39  37 37 37  35 35 35  33 33 33  31 31 31  29 29 29  27 27 27  25 25 25  24 24 24  22 22 22  21 21 21  19 19 19  18 18 18  17 17 17  16 16 16  15 15 15  14 14 14  13 13 13  12 12 12  11 11 11  10 10 10  9 9 9  9 9 9  8 8 8  7 7 7  7 7 7  6 6 6  6 6 6  5 5 5  5 5 5  4 4 4  4 4 4  4 4 4  3 3 3  3 3 3  3 3 3  2 2 2  2 2 2  2 2 2  2 2 2  2 2 2  1 1 1  1 1 1  1 1 1  1 1 1  1 1 1  1 1 1  1 1 1  0 0 0  0 0 0  0 0 0  0 0 0  0 0 0  0 0 0  0 0 0  0 0 0  0 0 0  0 0 0  0 0 0  0 0 0  0 0 0  0 0 0  0 0 0  0 0 0  0 0 0  0 0 0  0 0 0  0 0 0  0 0 0  0 0 0  0 0 0  0 0 0  0 0 0  0 0 0  0 0 0  0 0 0  0 0 0  0 0 0  0 0 0  0 0 0  0 0 0  0 0 0  0 0 0  0 0 0  
255 255 255  255 255 255  255 255 255  255 255 255  255 255 255  255 255 255  255 255 255  255 255 255  255 255 255  255 255 255  255 255 255  251 251 251  238 238 238  225 225 225  214 214 214  203 203 203  192 192 192  182 182 182  173 173 173  164 164 164  156 156 156  148 148 148  140 140 140  133 133 133  126 126 126  120 120 120  113 113 113  108 108 108  102 102 102  97 97 97  92 92 92  87 87 87  82 82 82  78 78 78  74 74 74  70 70 70  66 66 66  63 63 63  59 59 59  56 56 56  53 53 53  50 50 50  47 47 47  45 45 45  42 42 42  40 40 40  37 37 37  35 35 35  33 33 33  31 31 31  29 29 29  28 28 28  26 26 26  24 24 24  23 23 23  22 22 22  20 20 20  19 19 19  18 18 18  17 17 17  16 16 16  15 15 15  14 14 14  13 13 13  12 12 12  11 11 11  10 10 10  9 9 9  9 9 9  8 8 8  8 8 8  7 7 7  6 6 6  6 6 6  5 5 5  5 5 5  5 5 5  4 4 4  4 4 4  4 4 4  3 3 3  3 3 3  3 3 3  2 2 2  2 2 2  2 2 2  2 2 2  1 1 1  1 1 1  1 1 1  1 1 1  1 1 1  1 1 1  1 1 1  1 1 1  0 0 0  0 0 0  0 0 0  0 0 0  0 0 0  0 0 0  0 0 0  0 0 0  0 0 0  0 0 0  0 0 0  0 0 0  0 0 0  0 0 0  0 0 0  0 0 0  0 0 0  0 0 0  0 0 0  0 0 0  0 0 0  0 0 0  0 0 0  0 0 0  0 0 0  0 0 0  0 0 0  0 0 0  0 0 0  0 0 0  0 0 0  0 0 0  0 0 0  
255 255 255  255 255 255  255 255 255  255 255 255  255 255 255  255 255 255  255 255 255  255 255 255  255 255 255  255 255 255  255 255 255  248 248 248  236 236 236  224 224 224  213 213 213  202 202 202  192 192 192  182 182 182  173 173 173  165 165 165  157 157 157  149 149 149  142 142 142  135 135 135  128 128 128  122 122 122  116 116 116  110 110 110  105 105 105  99 99 99  94 94 94  90 90 90  85 85 85  81 81 81  77 77 77  73 73 73  69 69 69  66 66 66  62 62 62  59 59 59  56 56 56  53 53 53  50 50 50  47 47 47  45 45 45  42 42 42  40 40 40  38 38 38  36 36 36  34 34 34  32 32 32  30 30 30  28 28 28  27 27 27  25 25 25  24 24 24  22 22 22  21 21 21  20 20 20  19 19 19  17 17 17  16 16 16  15 15 15  14 14 14  13 13 13  12 12 12  12 12 12  11 11 11  10 10 10  9 9 9  9 9 9  8 8 8  8 8 8  7 7 7  7 7 7  6 6 6  6 6 6  5 5 5  5 5 5  4 4 4  4 4 4  4 4 4  3 3 3  3 3 3  3 3 3  2 2 2  2 2 2  2 2 2  2 2 2  2 2 2  1 1 1  1 1 1  1 1 1  1 1 1  1 1 1  1 1 1  1 1 1  0 0 0  0 0 0  0 0 0  0 0 0  0 0 0  0 0 0  0 0 0  0 0 0  0 0 0  0 0 0  0 0 0  0 0 0  0 0 0  0 0 0  0 0 0  0 0 0  0 0 0  0 0 0  0 0 0  0 0 0  0 0 0  0 0 0  0 0 0  0 0 0  0 0 0  0 0 0  0 0 0  0 0 0  0 0 0  0 0 0  0 0 0  
255 255 255  255 255 255  255 255 255  255 255 255  255 255 255  255 255 255  255 255 255  255 255 255  255 255 255  255 255 255  255 255 255  246 246 246  233 233 233  222 222 222  211 211 211  201 201 201  191 191 191  182 182 182  173 173 173  165 165 165  158 158 158  150 150 150  143 143 143  136 136 136  130 130 130  124 124 124  118 118 118  112 112 112  107 107 107  102 102 102  97 97 97  92 92 92  88 88 88  83 83 83  79 79 79  76 76 76  72 72 72  68 68 68  65 65 65  62 62 62  59 59 59  56 56 56  53 53 53  50 50 50  48 48 48  45 45 45  43 43 43  40 40 40  38 38 38  36 36 36  34 34 34  33 33 33  31 31 31  29 29 29  27 27 27  26 26 26  24 24 24  23 23 23  22 22 22  20 20 20  19 19 19  18 18 18  17 17 17  16 16 16  15 15 15  14 14 14  13 13 13  12 12 12  12 12 12  11 11 11  10 10 10  9 9 9  9 9 9  8 8 8  8 8 8  7 7 7  7 7 7  6 6 6  6 6 6  5 5 5  5 5 5  4 4 4  4 4 4  4 4 4  3 3 3  3 3 3  3 3 3  3 3 3  2 2 2  2 2 2  2 2 2  2 2 2  1 1 1  1 1 1  1 1 1  1 1 1  1 1 1  1 1 1  1 1 1  1 1 1  0 0 0  0 0 0  0 0 0  0 0 0  0 0 0  0 0 0  0 0 0  0 0 0  0 0 0  0 0 0  0 0 0  0 0 0  0 0 0  0 0 0  0 0 0  0 0 0  0 0 0  0 0 0  0 0 0  0 0 0  0 0 0  0 0 0  0 0 0  0 0 0  0 0 0  0 0 0  0 0 0  0 0 0  
255 255 255  255 255 255  255 255 255  255 255 255  255 255 255  255 255 255  255 255 255  255 255 255  255 255 255  255 255 255  255 255 255  243 243 243  231 231 231  220 220 220  210 210 210  200 200 200  191 191 191  182 182 182  174 174 174  166 166 166  158 158 158  151 151 151  144 144 144  137 137 137  131 131 131  125 125 125  119 119 119  114 114 114  109 109 109  104 104 104  99 99 99  94 94 94  90 90 90  86 86 86  82 82 82  78 78 78  74 74 74  71 71 71  67 67 67  64 64 64  61 61 61  58 58 58  55 55 55  53 53 53  50 50 50  48 48 48  45 45 45  43 43 43  41 41 41  39 39 39  37 37 37  35 35 35  33 33 33  31 31 31  30 30 30  28 28 28  27 27 27  25 25 25  24 24 24  22 22 22  21 21 21  20 20 20  19 19 19  18 18 18  17 17 17  16 16 16  15 15 15  14 14 14  13 13 13  12 12 12  11 11 11  11 11 11  10 10 10  9 9 9  9 9 9  8 8 8  8 8 8  7 7 7  7 7 7  6 6 6  6 6 6  5 5 5  5 5 5  4 4 4  4 4 4  4 4 4  3 3 3  3 3 3  3 3 3  3 3 3  2 2 2  2 2 2  2 2 2  2 2 2  2 2 2  1 1 1  1 1 1  1 1 1  1 1 1  1 1 1  1 1 1  1 1 1  0 0 0  0 0 0  0 0 0  0 0 0  0 0 0  0 0 0  0 0 0  0 0 0  0 0 0  0 0 0  0 0 0  0 0 0  0 0 0  0 0 0  0 0 0  0 0 0  0 0 0  0 0 0  0 0 0  0 0 0  0 0 0  0 0 0  0 0 0  0 0 0  0 0 0  0 0 0  
255 255 255  255 255 255  255 255 255  255 255 255  255 255 255  255 255 255  255 255 255  255 255 255  255 255 255  255 255 255  251 251 251  240 240 240  229 229 229  218 218 218  208 208 208  199 199 199  190 190 190  181 181 181  173 173 173  166 166 166  159 159 159  151 151 151  145 145 145  138 138 138  132 132 132  127 127 127  121 121 121  116 116 116  111 111 111  106 106 106  101 101 101  96 96 96  92 92 92  88 88 88  84 84 84  80 80 80  77 77 77  73 73 73  70 70 70  67 67 67  63 63 63  61 61 61  58 58 58  55 55 55  52 52 52  50 50 50  48 48 48  45 45 45  43 43 43  41 41 41  39 39 39  37 37 37  35 35 35  33 33 33  32 32 32  30 30 30  29 29 29  27 27 27  26 26 26  24 24 24  23 23 23  22 22 22  21 21 21  19 19 19  18 18 18  17 17 17  16 16 16  15 15 15  15 15 15  14 14 14  13 13 13  12 12 12  11 11 11  11 11 11  10 10 10  9 9 9  9 9 9  8 8 8  8 8 8  7 7 7  7 7 7  6 6 6  6 6 6  5 5 5  5 5 5  4 4 4  4 4 4  4 4 4  4 4 4  3 3 3  3 3 3  3 3 3  2 2 2  2 2 2  2 2 2  2 2 2  2 2 2  1 1 1  1 1 1  1 1 1  1 1 1  1 1 1  1 1 1  1 1 1  0 0 0  0 0 0  0 0 0  0 0 0  0 0 0  0 0 0  0 0 0  0 0 0  0 0 0  0 0 0  0 0 0  0 0 0  0 0 0  0 0 0  0 0 0  0 0 0  0 0 0  0 0 0  0 0 0  0 0 0  0 0 0  0 0 0  0 0 0  0 0 0  
255 255 255  255 255 255  255 255 255  255 255 255  255 255 255  255 255 255  255 255 255  255 255 255  255 255 255  255 255 255  248 248 248  237 237 237  226 226 226  216 216 216  207 207 207  198 198 198  189 189 189  181 181 181  173 173 173  166 166 166  159 159 159  152 152 152  145 145 145  139 139 139  133 133 133  128 128 128  122 122 122  117 117 117  112 112 112  107 107 107  103 103 103  98 98 98  94 94 94  90 90 90  86 86 86  82 82 82  79 79 79  75 75 75  72 72 72  69 69 69  66 66 66  63 63 63  60 60 60  57 57 57  55 55 55  52 52 52  50 50 50  47 47 47  45 45 45  43 43 43  41 41 41  39 39 39  37 37 37  36 36 36  34 34 34  32 32 32  31 31 31  29 29 29  28 28 28  26 26 26  25 25 25  24 24 24  22 22 22  21 21 21  20 20 20  19 19 19  18 18 18  17 17 17  16 16 16  15 15 15  14 14 14  13 13 13  13 13 13  12 12 12  11 11 11  10 10 10  10 10 10  9 9 9  9 9 9  8 8 8  8 8 8  7 7 7  7 7 7  6 6 6  6 6 6  5 5 5  5 5 5  5 5 5  4 4 4  4 4 4  4 4 4  3 3 3  3 3 3  3 3 3  2 2 2  2 2 2  2 2 2  2 2 2  2 2 2  1 1 1  1 1 1  1 1 1  1 1 1  1 1 1  1 1 1  1 1 1  0 0 0  0 0 0  0 0 0  0 0 0  0 0 0  0 0 0  0 0 0  0 0 0  0 0 0  0 0 0  0 0 0  0 0 0  0 0 0  0 0 0  0 0 0  0 0 0  0 0 0  0 0 0  0 0 0  0 0 0  0 0 0  0 0 0  
255 255 255  255 255 255  255 255 255  255 255 255  255 255 255  255 255 255  255 255 255  255 255 255  255 255 255  255 255 255  245 245 245  234 234 234  224 224 224  214 214 214  205 205 205  196 196 196  188 188 188  180 180 180  173 173 173  166 166 166  159 159 159  152 152 152  146 146 146  140 140 140  134 134 134  129 129 129  123 123 123  118 118 118  113 113 113  109 109 109  104 104 104  100 100 100  96 96 96  92 92 92  88 88 88  84 84 84  81 81 81  77 77 77  74 74 74  71 71 71  68 68 68  65 65 65  62 62 62  59 59 59  57 57 57  54 54 54  52 52 52  50 50 50  47 47 47  45 45 45  43 43 43  41 41 41  39 39 39  38 38 38  36 36 36  34 34 34  32 32 32  31 31 31  29 29 29  28 28 28  27 27 27  25 25 25  24 24 24  23 23 23  22 22 22  21 21 21  19 19 19  18 18 18  17 17 17  17 17 17  16 16 16  15 15 15  14 14 14  13 13 13  12 12 12  12 12 12  11 11 11  10 10 10  10 10 10  9 9 9  9 9 9  8 8 8  7 7 7  7 7 7  7 7 7  6 6 6  6 6 6  5 5 5  5 5 5  5 5 5  4 4 4  4 4 4  4 4 4  3 3 3  3 3 3  3 3 3  2 2 2  2 2 2  2 2 2  2 2 2  2 2 2  1 1 1  1 1 1  1 1 1  1 1 1  1 1 1  1 1 1  1 1 1  1 1 1  0 0 0  0 0 0  0 0 0  0 0 0  0 0 0  0 0 0  0 0 0  0 0 0  0 0 0  0 0 0  0 0 0  0 0 0  0 0 0  0 0 0  0 0 0  0 0 0  0 0 0  0 0 0  0 0 0  
255 255 255  255 255 255  255 255 255  255 255 255  255 255 255  255 255 255  255 255 255  255 255 255  255 255 255  252 252 252  241 241 241  231 231 231  221 221 221  212 212 212  203 203 203  195 195 195  187 187 187  179 179 179  172 172 172  165 165 165  159 159 159  152 152 152  146 146 146  140 140 140  135 135 135  129 129 129  124 124 124  119 119 119  115 115 115  110 110 110  106 106 106  101 101 101  97 97 97  93 93 93  90 90 90  86 86 86  83 83 83  79 79 79  76 76 76  73 73 73  70 70 70  67 67 67  64 64 64  61 61 61  59 59 59  56 56 56  54 54 54  52 52 52  49 49 49  47 47 47  45 45 45  43 43 43  41 41 41  39 39 39  38 38 38  36 36 36  34 34 34  33 33 33  31 31 31  30 30 30  28 28 28  27 27 27  26 26 26  25 25 25  23 23 23  22 22 22  21 21 21  20 20 20  19 19 19  18 18 18  17 17 17  16 16 16  15 15 15  14 14 14  14 14 14  13 13 13  12 12 12  11 11 11  11 11 11  10 10 10  10 10 10  9 9 9  8 8 8  8 8 8  7 7 7  7 7 7  6 6 6  6 6 6  6 6 6  5 5 5  5 5 5  5 5 5  4 4 4  4 4 4  4 4 4  3 3 3  3 3 3  3 3 3  2 2 2  2 2 2  2 2 2  2 2 2  2 2 2  1 1 1  1 1 1  1 1 1  1 1 1  1 1 1  1 1 1  1 1 1  1 1 1  0 0 0  0 0 0  0 0 0  0 0 0  0 0 0  0 0 0  0 0 0  0 0 0  0 0 0  0 0 0  0 0 0  0 0 0  0 0 0  0 0 0  0 0 0  0 0 0  0 0 0  
255 255 255  255 255 255  255 255 255  255 255 255  255 255 255  255 255 255  255 255 255  255 255 255  255 255 255  249 249 249  238 238 238  228 228 228  219 219 219  210 210 210  201 201 201  193 193 193  186 186 186  178 178 178  171 171 171  165 165 165  158 158 158  152 152 152  146 146 146  141 141 141  135 135 135  130 130 130  125 125 125  120 120 120  116 116 116  111 111 111  107 107 107  103 103 103  99 99 99  95 95 95  91 91 91  88 88 88  84 84 84  81 81 81  78 78 78  75 75 75  72 72 72  69 69 69  66 66 66  63 63 63  61 61 61  58 58 58  56 56 56  54 54 54  51 51 51  49 49 49  47 47 47  45 45 45  43 43 43  41 41 41  40 40 40  38 38 38  36 36 36  35 35 35  33 33 33  32 32 32  30 30 30  29 29 29  27 27 27  26 26 26  25 25 25  24 24 24  23 23 23  21 21 21  20 20 20  19 19 19  18 18 18  18 18 18  17 17 17  16 16 16  15 15 15  14 14 14  13 13 13  13 13 13  12 12 12  11 11 11  11 11 11  10 10 10  9 9 9  9 9 9  8 8 8  8 8 8  7 7 7  7 7 7  6 6 6  6 6 6  6 6 6  5 5 5  5 5 5  4 4 4  4 4 4  4 4 4  4 4 4  3 3 3  3 3 3  3 3 3  2 2 2  2 2 2  2 2 2  2 2 2  2 2 2  1 1 1  1 1 1  1 1 1  1 1 1  1 1 1  1 1 1  1 1 1  0 0 0  0 0 0  0 0 0  0 0 0  0 0 0  0 0 0  0 0 0  0 0 0  0 0 0  0 0 0  0 0 0  0 0 0  0 0 0  0 0 0  0 0 0  0 0 0  
255 255 255  255 255 255  255 255 255  255 255 255  255 255 255  255 255 255  255 255 255  255 255 255  255 255 255  245 245 245  235 235 235  225 225 225  216 216 216  208 208 208  200 200 200  192 192 192  185 185 185  178 178 178  171 171 171  164 164 164  158 158 158  152 152 152  146 146 146  141 141 141  136 136 136  131 131 131  126 126 126  121 121 121  117 117 117  112 112 112  108 108 108  104 104 104  100 100 100  96 96 96  93 93 93  89 89 89  86 86 86  83 83 83  79 79 79  76 76 76  73 73 73  71 71 71  68 68 68  65 65 65  63 63 63  60 60 60  58 58 58  55 55 55  53 53 53  51 51 51  49 49 49  47 47 47  45 45 45  43 43 43  41 41 41  40 40 40  38 38 38  36 36 36  35 35 35  33 33 33  32 32 32  30 30 30  29 29 29  28 28 28  26 26 26  25 25 25  24 24 24  23 23 23  22 22 22  21 21 21  20 20 20  19 19 19  18 18 18  17 17 17  16 16 16  15 15 15  15 15 15  14 14 14  13 13 13  12 12 12  12 12 12  11 11 11  10 10 10  10 10 10  9 9 9  9 9 9  8 8 8  8 8 8  7 7 7  7 7 7  6 6 6  6 6 6  6 6 6  5 5 5  5 5 5  4 4 4  4 4 4  4 4 4  4 4 4  3 3 3  3 3 3  3 3 3  2 2 2  2 2 2  2 2 2  2 2 2  2 2 2  1 1 1  1 1 1  1 1 1  1 1 1  1 1 1  1 1 1  1 1 1  0 0 0  0 0 0  0 0 0  0 0 0  0 0 0  0 0 0  0 0 0  0 0 0  0 0 0  0 0 0  0 0 0  0 0 0  0 0 0  0 0 0  
255 255 255  255 255 255  255 255 255  255 255 255  255 255 255  255 255 255  255 255 255  255 255 255  252 252 252  242 242 242  232 232 232  223 223 223  214 214 214  206 206 206  198 198 198  191 191 191  183 183 183  177 177 177  170 170 170  164 164 164  158 158 158  152 152 152  146 146 146  141 141 141  136 136 136  131 131 131  126 126 126  122 122 122  117 117 117  113 113 113  109 109 109  105 105 105  101 101 101  97 97 97  94 94 94  90 90 90  87 87 87  84 84 84  81 81 81  78 78 78  75 75 75  72 72 72  69 69 69  67 67 67  64 64 64  62 62 62  59 59 59  57 57 57  55 55 55  53 53 53  51 51 51  49 49 49  47 47 47  45 45 45  43 43 43  41 41 41  40 40 40  38 38 38  36 36 36  35 35 35  33 33 33  32 32 32  31 31 31  29 29 29  28 28 28  27 27 27  26 26 26  24 24 24  23 23 23  22 22 22  21 21 21  20 20 20  19 19 19  18 18 18  17 17 17  17 17 17  16 16 16  15 15 15  14 14 14  14 14 14  13 13 13  12 12 12  11 11 11  11 11 11  10 10 10  10 10 10  9 9 9  9 9 9  8 8 8  8 8 8  7 7 7  7 7 7  6 6 6  6 6 6  5 5 5  5 5 5  5 5 5  4 4 4  4 4 4  4 4 4  3 3 3  3 3 3  3 3 3  3 3 3  2 2 2  2 2 2  2 2 2  2 2 2  2 2 2  1 1 1  1 1 1  1 1 1  1 1 1  1 1 1  1 1 1  1 1 1  0 0 0  0 0 0  0 0 0  0 0 0  0 0 0  0 0 0  0 0 0  0 0 0  0 0 0  0 0 0  0 0 0  0 0 0  
255 255 255  255 255 255  255 255 255  255 255 255  255 255 255  255 255 255  255 255 255  255 255 255  248 248 248  238 238 238  229 229 229  220 220 220  212 212 212  204 204 204  196 196 196  189 189 189  182 182 182  176 176 176  169 169 169  163 163 163  157 157 157  152 152 152  146 146 146  141 141 141  136 136 136  131 131 131  127 127 127  122 122 122  118 118 118  114 114 114  110 110 110  106 106 106  102 102 102  99 99 99  95 95 95  92 92 92  88 88 88  85 85 85  82 82 82  79 79 79  76 76 76  74 74 74  71 71 71  68 68 68  66 66 66  63 63 63  61 61 61  59 59 59  57 57 57  54 54 54  52 52 52  50 50 50  48 48 48  47 47 47  45 45 45  43 43 43  41 41 41  40 40 40  38 38 38  36 36 36  35 35 35  34 34 34  32 32 32  31 31 31  30 30 30  28 28 28  27 27 27  26 26 26  25 25 25  24 24 24  23 23 23  22 22 22  21 21 21  20 20 20  19 19 19  18 18 18  17 17 17  16 16 16  15 15 15  15 15 15  14 14 14  13 13 13  13 13 13  12 12 12  11 11 11  11 11 11  10 10 10  9 9 9  9 9 9  8 8 8  8 8 8  7 7 7  7 7 7  7 7 7  6 6 6  6 6 6  5 5 5  5 5 5  5 5 5  4 4 4  4 4 4  4 4 4  3 3 3  3 3 3  3 3 3  3 3 3  2 2 2  2 2 2  2 2 2  2 2 2  2 2 2  1 1 1  1 1 1  1 1 1  1 1 1  1 1 1  1 1 1  1 1 1  0 0 0  0 0 0  0 0 0  0 0 0  0 0 0  0 0 0  0 0 0  0 0 0  0 0 0  0 0 0  
255 255 255  255 255 255  255 255 255  255 255 255  255 255 255  255 255 255  255 255 255  255 255 255  244 244 244  235 235 235  226 226 226  217 217 217  209 209 209  202 202 202  194 194 194  188 188 188  181 181 181  174 174 174  168 168 168  162 162 162  157 157 157  151 151 151  146 146 146  141 141 141  136 136 136  132 132 132  127 127 127  123 123 123  119 119 119  115 115 115  111 111 111  107 107 107  103 103 103  100 100 100  96 96 96  93 93 93  90 90 90  87 87 87  84 84 84  81 81 81  78 78 78  75 75 75  72 72 72  70 70 70  67 67 67  65 65 65  63 63 63  60 60 60  58 58 58  56 56 56  54 54 54  52 52 52  50 50 50  48 48 48  46 46 46  45 45 45  43 43 43  41 41 41  40 40 40  38 38 38  37 37 37  35 35 35  34 34 34  32 32 32  31 31 31  30 30 30  29 29 29  27 27 27  26 26 26  25 25 25  24 24 24  23 23 23  22 22 22  21 21 21  20 20 20  19 19 19  18 18 18  17 17 17  17 17 17  16 16 16  15 15 15  14 14 14  14 14 14  13 13 13  12 12 12  12 12 12  11 11 11  10 10 10  10 10 10  9 9 9  9 9 9  8 8 8  8 8 8  7 7 7  7 7 7  6 6 6  6 6 6  6 6 6  5 5 5  5 5 5  5 5 5  4 4 4  4 4 4  4 4 4  3 3 3  3 3 3  3 3 3  3 3 3  2 2 2  2 2 2  2 2 2  2 2 2  2 2 2  1 1 1  1 1 1  1 1 1  1 1 1  1 1 1  1 1 1  0 0 0  0 0 0  0 0 0  0 0 0  0 0 0  0 0 0  0 0 0  0 0 0  0 0 0  
255 255 255  255 255 255  255 255 255  255 255 255  255 255 255  255 255 255  255 255 255  251 251 251  241 241 241  232 232 232  223 223 223  215 215 215  207 207 207  200 200 200  193 193 193  186 186 186  180 180 180  173 173 173  167 167 167  162 162 162  156 156 156  151 151 151  146 146 146  141 141 141  136 136 136  132 132 132  127 127 127  123 123 123  119 119 119  115 115 115  111 111 111  108 108 108  104 104 104  100 100 100  97 97 97  94 94 94  91 91 91  88 88 88  85 85 85  82 82 82  79 79 79  76 76 76  74 74 74  71 71 71  69 69 69  66 66 66  64 64 64  62 62 62  60 60 60  58 58 58  55 55 55  53 53 53  52 52 52  50 50 50  48 48 48  46 46 46  44 44 44  43 43 43  41 41 41  40 40 40  38 38 38  37 37 37  35 35 35  34 34 34  32 32 32  31 31 31  30 30 30  29 29 29  28 28 28  26 26 26  25 25 25  24 24 24  23 23 23  22 22 22  21 21 21  20 20 20  19 19 19  19 19 19  18 18 18  17 17 17  16 16 16  15 15 15  15 15 15  14 14 14  13 13 13  13 13 13  12 12 12  11 11 11  11 11 11  10 10 10  10 10 10  9 9 9  9 9 9  8 8 8  8 8 8  7 7 7  7 7 7  6 6 6  6 6 6  6 6 6  5 5 5  5 5 5  4 4 4  4 4 4  4 4 4  4 4 4  3 3 3  3 3 3  3 3 3  2 2 2  2 2 2  2 2 2  2 2 2  2 2 2  1 1 1  1 1 1  1 1 1  1 1 1  1 1 1  1 1 1  1 1 1  0 0 0  0 0 0  0 0 0  0 0 0  0 0 0  0 0 0  0 0 0  
255 255 255  255 255 255  255 255 255  255 255 255  255 255 255  255 255 255  255 255 255  247 247 247  237 237 237  229 229 229  220 220 220  212 212 212  205 205 205  198 198 198  191 191 191  185 185 185  178 178 178  172 172 172  166 166 166  161 161 161  156 156 156  151 151 151  146 146 146  141 141 141  136 136 136  132 132 132  128 128 128  124 124 124  120 120 120  116 116 116  112 112 112  108 108 108  105 105 105  101 101 101  98 98 98  95 95 95  92 92 92  89 89 89  86 86 86  83 83 83  80 80 80  78 78 78  75 75 75  72 72 72  70 70 70  68 68 68  65 65 65  63 63 63  61 61 61  59 59 59  57 57 57  55 55 55  53 53 53  51 51 51  49 49 49  48 48 48  46 46 46  44 44 44  43 43 43  41 41 41  39 39 39  38 38 38  37 37 37  35 35 35  34 34 34  33 33 33  31 31 31  30 30 30  29 29 29  28 28 28  27 27 27  26 26 26  24 24 24  23 23 23  23 23 23  22 22 22  21 21 21  20 20 20  19 19 19  18 18 18  17 17 17  16 16 16  16 16 16  15 15 15  14 14 14  14 14 14  13 13 13  12 12 12  12 12 12  11 11 11  10 10 10  10 10 10  9 9 9  9 9 9  8 8 8  8 8 8  7 7 7  7 7 7  7 7 7  6 6 6  6 6 6  5 5 5  5 5 5  5 5 5  4 4 4  4 4 4  4 4 4  3 3 3  3 3 3  3 3 3  3 3 3  2 2 2  2 2 2  2 2 2  2 2 2  2 2 2  1 1 1  1 1 1  1 1 1  1 1 1  1 1 1  1 1 1  0 0 0  0 0 0  0 0 0  0 0 0  0 0 0  0 0 0  
255 255 255  255 255 255  255 255 255  255 255 255  255 255 255  255 255 255  253 253 253  243 243 243  234 234 234  226 226 226  218 218 218  210 210 210  203 203 203  196 196 196  189 189 189  183 183 183  177 177 177  171 171 171  166 166 166  160 160 160  155 155 155  150 150 150  145 145 145  141 141 141  136 136 136  132 132 132  128 128 128  124 124 124  120 120 120  116 116 116  112 112 112  109 109 109  105 105 105  102 102 102  99 99 99  96 96 96  93 93 93  90 90 90  87 87 87  84 84 84  81 81 81  79 79 79  76 76 76  74 74 74  71 71 71  69 69 69  67 67 67  64 64 64  62 62 62  60 60 60  58 58 58  56 56 56  54 54 54  52 52 52  51 51 51  49 49 49  47 47 47  46 46 46  44 44 44  42 42 42  41 41 41  39 39 39  38 38 38  37 37 37  35 35 35  34 34 34  33 33 33  31 31 31  30 30 30  29 29 29  28 28 28  27 27 27  26 26 26  25 25 25  24 24 24  23 23 23  22 22 22  21 21 21  20 20 20  19 19 19  18 18 18  18 18 18  17 17 17  16 16 16  15 15 15  15 15 15  14 14 14  13 13 13  13 13 13  12 12 12  11 11 11  11 11 11  10 10 10  10 10 10  9 9 9  9 9 9  8 8 8  8 8 8  7 7 7  7 7 7  6 6 6  6 6 6  6 6 6  5 5 5  5 5 5  5 5 5  4 4 4  4 4 4  4 4 4  3 3 3  3 3 3  3 3 3  3 3 3  2 2 2  2 2 2  2 2 2  2 2 2  1 1 1  1 1 1  1 1 1  1 1 1  1 1 1  1 1 1  0 0 0  0 0 0  0 0 0  0 0 0  0 0 0  
255 255 255  255 255 255  255 255 255  255 255 255  255 255 255  255 255 255  249 249 249  240 240 240  231 231 231  223 223 223  215 215 215  208 208 208  201 201 201  194 194 194  188 188 188  182 182 182  176 176 176  170 170 170  165 165 165  159 159 159  155 155 155  150 150 150  145 145 145  140 140 140  136 136 136  132 132 132  128 128 128  124 124 124  120 120 120  116 116 116  113 113 113  109 109 109  106 106 106  103 103 103  100 100 100  96 96 96  94 94 94  91 91 91  88 88 88  85 85 85  82 82 82  80 80 80  77 77 77  75 75 75  72 72 72  70 70 70  68 68 68  66 66 66  64 64 64  62 62 62  60 60 60  58 58 58  56 56 56  54 54 54  52 52 52  50 50 50  49 49 49  47 47 47  45 45 45  44 44 44  42 42 42  41 41 41  39 39 39  38 38 38  37 37 37  35 35 35  34 34 34  33 33 33  31 31 31  30 30 30  29 29 29  28 28 28  27 27 27  26 26 26  25 25 25  24 24 24  23 23 23  22 22 22  21 21 21  20 20 20  19 19 19  19 19 19  18 18 18  17 17 17  16 16 16  15 15 15  15 15 15  14 14 14  13 13 13  13 13 13  12 12 12  12 12 12  11 11 11  10 10 10  10 10 10  9 9 9  9 9 9  8 8 8  8 8 8  7 7 7  7 7 7  7 7 7  6 6 6  6 6 6  5 5 5  5 5 5  5 5 5  4 4 4  4 4 4  4 4 4  3 3 3  3 3 3  3 3 3  3 3 3  2 2 2  2 2 2  2 2 2  2 2 2  2 2 2  1 1 1  1 1 1  1 1 1  1 1 1  1 1 1  1 1 1  0 0 0  0 0 0  0 0 0  
255 255 255  255 255 255  255 255 255  255 255 255  255 255 255  255 255 255  245 245 245  236 236 236  228 228 228  220 220 220  212 212 212  205 205 205  199 199 199  192 192 192  186 186 186  180 180 180  174 174 174  169 169 169  164 164 164  159 159 159  154 154 154  149 149 149  145 145 145  140 140 140  136 136 136  132 132 132  128 128 128  124 124 124  120 120 120  117 117 117  113 113 113  110 110 110  107 107 107  103 103 103  100 100 100  97 97 97  94 94 94  91 91 91  89 89 89  86 86 86  83 83 83  81 81 81  78 78 78  76 76 76  74 74 74  71 71 71  69 69 69  67 67 67  65 65 65  63 63 63  61 61 61  59 59 59  57 57 57  55 55 55  53 53 53  52 52 52  50 50 50  48 48 48  47 47 47  45 45 45  44 44 44  42 42 42  41 41 41  39 39 39  38 38 38  37 37 37  35 35 35  34 34 34  33 33 33  32 32 32  30 30 30  29 29 29  28 28 28  27 27 27  26 26 26  25 25 25  24 24 24  23 23 23  22 22 22  21 21 21  20 20 20  20 20 20  19 19 19  18 18 18  17 17 17  16 16 16  16 16 16  15 15 15  14 14 14  14 14 14  13 13 13  12 12 12  12 12 12  11 11 11  11 11 11  10 10 10  10 10 10  9 9 9  9 9 9  8 8 8  8 8 8  7 7 7  7 7 7  6 6 6  6 6 6  6 6 6  5 5 5  5 5 5  5 5 5  4 4 4  4 4 4  4 4 4  3 3 3  3 3 3  3 3 3  3 3 3  2 2 2  2 2 2  2 2 2  2 2 2  1 1 1  1 1 1  1 1 1  1 1 1  1 1 1  1 1 1  0 0 0  0 0 0  
255 255 255  255 255 255  255 255 255  255 255 255  255 255 255  251 251 251  242 242 242  233 233 233  225 225 225  217 217 217  210 210 210  203 203 203  197 197 197  190 190 190  184 184 184  179 179 179  173 173 173  168 168 168  163 163 163  158 158 158  153 153 153  149 149 149  144 144 144  140 140 140  136 136 136  132 132 132  128 128 128  124 124 124  120 120 120  117 117 117  114 114 114  110 110 110  107 107 107  104 104 104  101 101 101  98 98 98  95 95 95  92 92 92  89 89 89  87 87 87  84 84 84  82 82 82  79 79 79  77 77 77  75 75 75  72 72 72  70 70 70  68 68 68  66 66 66  64 64 64  62 62 62  60 60 60  58 58 58  56 56 56  55 55 55  53 53 53  51 51 51  49 49 49  48 48 48  46 46 46  45 45 45  43 43 43  42 42 42  40 40 40  39 39 39  38 38 38  36 36 36  35 35 35  34 34 34  33 33 33  32 32 32  30 30 30  29 29 29  28 28 28  27 27 27  26 26 26  25 25 25  24 24 24  23 23 23  22 22 22  22 22 22  21 21 21  20 20 20  19 19 19  18 18 18  17 17 17  17 17 17  16 16 16  15 15 15  15 15 15  14 14 14  13 13 13  13 13 13  12 12 12  12 12 12  11 11 11  10 10 10  10 10 10  9 9 9  9 9 9  8 8 8  8 8 8  7 7 7  7 7 7  7 7 7  6 6 6  6 6 6  5 5 5  5 5 5  5 5 5  4 4 4  4 4 4  4 4 4  3 3 3  3 3 3  3 3 3  3 3 3  2 2 2  2 2 2  2 2 2  2 2 2  1 1 1  1 1 1  1 1 1  1 1 1  1 1 1  1 1 1  0 0 0  
255 255 255  255 255 255  255 255 255  255 255 255  255 255 255  247 247 247  238 238 238  230 230 230  222 222 222  215 215 215  208 208 208  201 201 201  195 195 195  189 189 189  183 183 183  177 177 177  172 172 172  167 167 167  162 162 162  157 157 157  152 152 152  148 148 148  144 144 144  139 139 139  135 135 135  131 131 131  128 128 128  124 124 124  121 121 121  117 117 117  114 114 114  111 111 111  107 107 107  104 104 104  101 101 101  98 98 98  96 96 96  93 93 93  90 90 90  88 88 88  85 85 85  83 83 83  80 80 80  78 78 78  76 76 76  73 73 73  71 71 71  69 69 69  67 67 67  65 65 65  63 63 63  61 61 61  59 59 59  57 57 57  56 56 56  54 54 54  52 52 52  51 51 51  49 49 49  47 47 47  46 46 46  44 44 44  43 43 43  42 42 42  40 40 40  39 39 39  38 38 38  36 36 36  35 35 35  34 34 34  33 33 33  32 32 32  30 30 30  29 29 29  28 28 28  27 27 27  26 26 26  25 25 25  24 24 24  23 23 23  23 23 23  22 22 22  21 21 21  20 20 20  19 19 19  18 18 18  18 18 18  17 17 17  16 16 16  16 16 16  15 15 15  14 14 14  14 14 14  13 13 13  12 12 12  12 12 12  11 11 11  11 11 11  10 10 10  10 10 10  9 9 9  9 9 9  8 8 8  8 8 8  7 7 7  7 7 7  6 6 6  6 6 6  6 6 6  5 5 5  5 5 5  5 5 5  4 4 4  4 4 4  4 4 4  3 3 3  3 3 3  3 3 3  2 2 2  2 2 2  2 2 2  2 2 2  2 2 2  1 1 1  1 1 1  1 1 1  1 1 1  1 1 1  
255 255 255  255 255 255  255 255 255  255 255 255  253 253 253  244 244 244  235 235 235  227 227 227  219 219 219  212 212 212  205 205 205  199 199 199  193 193 193  187 187 187  181 181 181  176 176 176  171 171 171  166 166 166  161 161 161  156 156 156  152 152 152  147 147 147  143 143 143  139 139 139  135 135 135  131 131 131  128 128 128  124 124 124  121 121 121  117 117 117  114 114 114  111 111 111  108 108 108  105 105 105  102 102 102  99 99 99  96 96 96  93 93 93  91 91 91  88 88 88  86 86 86  83 83 83  81 81 81  79 79 79  76 76 76  74 74 74  72 72 72  70 70 70  68 68 68  66 66 66  64 64 64  62 62 62  60 60 60  59 59 59  57 57 57  55 55 55  53 53 53  52 52 52  50 50 50  49 49 49  47 47 47  46 46 46  44 44 44  43 43 43  41 41 41  40 40 40  39 39 39  38 38 38  36 36 36  35 35 35  34 34 34  33 33 33  32 32 32  31 31 31  29 29 29  28 28 28  27 27 27  26 26 26  25 25 25  25 25 25  24 24 24  23 23 23  22 22 22  21 21 21  20 20 20  19 19 19  19 19 19  18 18 18  17 17 17  16 16 16  16 16 16  15 15 15  14 14 14  14 14 14  13 13 13  13 13 13  12 12 12  11 11 11  11 11 11  10 10 10  10 10 10  9 9 9  9 9 9  8 8 8  8 8 8  7 7 7  7 7 7  7 7 7  6 6 6  6 6 6  5 5 5  5 5 5  5 5 5  4 4 4  4 4 4  4 4 4  3 3 3  3 3 3  3 3 3  3 3 3  2 2 2  2 2 2  2 2 2  2 2 2  1 1 1  1 1 1  1 1 1  1 1 1  
255 255 255  255 255 255  255 255 255  255 255 255  250 250 250  240 240 240  232 232 232  224 224 224  217 217 217  210 210 210  203 203 203  197 197 197  191 191 191  185 185 185  180 180 180  174 174 174  169 169 169  164 164 164  160 160 160  155 155 155  151 151 151  147 147 147  143 143 143  139 139 139  135 135 135  131 131 131  127 127 127  124 124 124  121 121 121  117 117 117  114 114 114  111 111 111  108 108 108  105 105 105  102 102 102  99 99 99  97 97 97  94 94 94  91 91 91  89 89 89  86 86 86  84 84 84  82 82 82  79 79 79  77 77 77  75 75 75  73 73 73  71 71 71  69 69 69  67 67 67  65 65 65  63 63 63  61 61 61  60 60 60  58 58 58  56 56 56  54 54 54  53 53 53  51 51 51  50 50 50  48 48 48  47 47 47  45 45 45  44 44 44  43 43 43  41 41 41  40 40 40  39 39 39  37 37 37  36 36 36  35 35 35  34 34 34  33 33 33  32 32 32  31 31 31  30 30 30  28 28 28  27 27 27  27 27 27  26 26 26  25 25 25  24 24 24  23 23 23  22 22 22  21 21 21  20 20 20  20 20 20  19 19 19  18 18 18  17 17 17  17 17 17  16 16 16  15 15 15  15 15 15  14 14 14  13 13 13  13 13 13  12 12 12  12 12 12  11 11 11  10 10 10  10 10 10  9 9 9  9 9 9  8 8 8  8 8 8  8 8 8  7 7 7  7 7 7  6 6 6  6 6 6  6 6 6  5 5 5  5 5 5  4 4 4  4 4 4  4 4 4  3 3 3  3 3 3  3 3 3  3 3 3  2 2 2  2 2 2  2 2 2  2 2 2  1 1 1  1 1 1  1 1 1  
255 255 255  255 255 255  255 255 255  255 255 255  246 246 246  237 237 237  229 229 229  221 221 221  214 214 214  207 207 207  201 201 201  195 195 195  189 189 189  183 183 183  178 178 178  173 173 173  168 168 168  163 163 163  159 159 159  154 154 154  150 150 150  146 146 146  142 142 142  138 138 138  134 134 134  131 131 131  127 127 127  124 124 124  121 121 121  117 117 117  114 114 114  111 111 111  108 108 108  105 105 105  103 103 103  100 100 100  97 97 97  95 95 95  92 92 92  90 90 90  87 87 87  85 85 85  82 82 82  80 80 80  78 78 78  76 76 76  74 74 74  72 72 72  70 70 70  68 68 68  66 66 66  64 64 64  62 62 62  61 61 61  59 59 59  57 57 57  55 55 55  54 54 54  52 52 52  51 51 51  49 49 49  48 48 48  46 46 46  45 45 45  44 44 44  42 42 42  41 41 41  40 40 40  39 39 39  37 37 37  36 36 36  35 35 35  34 34 34  33 33 33  32 32 32  31 31 31  30 30 30  29 29 29  28 28 28  27 27 27  26 26 26  25 25 25  24 24 24  23 23 23  22 22 22  21 21 21  21 21 21  20 20 20  19 19 19  18 18 18  18 18 18  17 17 17  16 16 16  15 15 15  15 15 15  14 14 14  14 14 14  13 13 13  12 12 12  12 12 12  11 11 11  11 11 11  10 10 10  10 10 10  9 9 9  9 9 9  8 8 8  8 8 8  7 7 7  7 7 7  6 6 6  6 6 6  6 6 6  5 5 5  5 5 5  5 5 5  4 4 4  4 4 4  4 4 4  3 3 3  3 3 3  3 3 3  2 2 2  2 2 2  2 2 2  2 2 2  1 1 1  1 1 1  
255 255 255  255 255 255  255 255 255  252 252 252  242 242 242  234 234 234  226 226 226  219 219 219  212 212 212  205 205 205  199 199 199  193 193 193  187 187 187  182 182 182  177 177 177  172 172 172  167 167 167  162 162 162  158 158 158  154 154 154  149 149 149  145 145 145  141 141 141  138 138 138  134 134 134  131 131 131  127 127 127  124 124 124  121 121 121  117 117 117  114 114 114  111 111 111  108 108 108  106 106 106  103 103 103  100 100 100  98 98 98  95 95 95  93 93 93  90 90 90  88 88 88  85 85 85  83 83 83  81 81 81  79 79 79  77 77 77  75 75 75  73 73 73  71 71 71  69 69 69  67 67 67  65 65 65  63 63 63  61 61 61  60 60 60  58 58 58  56 56 56  55 55 55  53 53 53  52 52 52  50 50 50  49 49 49  47 47 47  46 46 46  45 45 45  43 43 43  42 42 42  41 41 41  40 40 40  38 38 38  37 37 37  36 36 36  35 35 35  34 34 34  33 33 33  32 32 32  31 31 31  30 30 30  29 29 29  28 28 28  27 27 27  26 26 26  25 25 25  24 24 24  23 23 23  22 22 22  21 21 21  21 21 21  20 20 20  19 19 19  18 18 18  18 18 18  17 17 17  16 16 16  16 16 16  15 15 15  14 14 14  14 14 14  13 13 13  12 12 12  12 12 12  11 11 11  11 11 11  10 10 10  10 10 10  9 9 9  9 9 9  8 8 8  8 8 8  7 7 7  7 7 7  7 7 7  6 6 6  6 6 6  5 5 5  5 5 5  5 5 5  4 4 4  4 4 4  4 4 4  3 3 3  3 3 3  3 3 3  2 2 2  2 2 2  2 2 2  2 2 2  1 1 1  
255 255 255  255 255 255  255 255 255  248 248 248  239 239 239  231 231 231  223 223 223  216 216 216  209 209 209  203 203 203  197 197 197  191 191 191  185 185 185  180 180 180  175 175 175  170 170 170  166 166 166  161 161 161  157 157 157  153 153 153  149 149 149  145 145 145  141 141 141  137 137 137  134 134 134  130 130 130  127 127 127  124 124 124  121 121 121  117 117 117  114 114 114  111 111 111  109 109 109  106 106 106  103 103 103  100 100 100  98 98 98  95 95 95  93 93 93  91 91 91  88 88 88  86 86 86  84 84 84  82 82 82  79 79 79  77 77 77  75 75 75  73 73 73  71 71 71  70 70 70  68 68 68  66 66 66  64 64 64  62 62 62  61 61 61  59 59 59  57 57 57  56 56 56  54 54 54  53 53 53  51 51 51  50 50 50  48 48 48  47 47 47  46 46 46  44 44 44  43 43 43  42 42 42  41 41 41  39 39 39  38 38 38  37 37 37  36 36 36  35 35 35  34 34 34  33 33 33  32 32 32  31 31 31  30 30 30  29 29 29  28 28 28  27 27 27  26 26 26  25 25 25  24 24 24  23 23 23  22 22 22  22 22 22  21 21 21  20 20 20  19 19 19  19 19 19  18 18 18  17 17 17  16 16 16  16 16 16  15 15 15  14 14 14  14 14 14  13 13 13  13 13 13  12 12 12  12 12 12  11 11 11  10 10 10  10 10 10  9 9 9  9 9 9  8 8 8  8 8 8  8 8 8  7 7 7  7 7 7  6 6 6  6 6 6  6 6 6  5 5 5  5 5 5  4 4 4  4 4 4  4 4 4  3 3 3  3 3 3  3 3 3  3 3 3  2 2 2  2 2 2  2 2 2  
255 255 255  255 255 255  255 255 255  245 245 245  236 236 236  228 228 228  220 220 220  213 213 213  207 207 207  201 201 201  195 195 195  189 189 189  184 184 184  179 179 179  174 174 174  169 169 169  164 164 164  160 160 160  156 156 156  152 152 152  148 148 148  144 144 144  140 140 140  137 137 137  133 133 133  130 130 130  127 127 127  123 123 123  120 120 120  117 117 117  114 114 114  112 112 112  109 109 109  106 106 106  103 103 103  101 101 101  98 98 98  96 96 96  93 93 93  91 91 91  89 89 89  87 87 87  84 84 84  82 82 82  80 80 80  78 78 78  76 76 76  74 74 74  72 72 72  70 70 70  68 68 68  67 67 67  65 65 65  63 63 63  62 62 62  60 60 60  58 58 58  57 57 57  55 55 55  54 54 54  52 52 52  51 51 51  49 49 49  48 48 48  47 47 47  45 45 45  44 44 44  43 43 43  42 42 42  40 40 40  39 39 39  38 38 38  37 37 37  36 36 36  35 35 35  34 34 34  33 33 33  31 31 31  31 31 31  30 30 30  29 29 29  28 28 28  27 27 27  26 26 26  25 25 25  24 24 24  23 23 23  22 22 22  22 22 22  21 21 21  20 20 20  19 19 19  19 19 19  18 18 18  17 17 17  17 17 17  16 16 16  15 15 15  15 15 15  14 14 14  13 13 13  13 13 13  12 12 12  12 12 12  11 11 11  11 11 11  10 10 10  10 10 10  9 9 9  9 9 9  8 8 8  8 8 8  7 7 7  7 7 7  6 6 6  6 6 6  6 6 6  5 5 5  5 5 5  4 4 4  4 4 4  4 4 4  3 3 3  3 3 3  3 3 3  3 3 3  2 2 2  2 2 2  
255 255 255  255 255 255  251 251 251  241 241 241  233 233 233  225 225 225  218 218 218  211 211 211  204 204 204  198 198 198  193 193 193  187 187 187  182 182 182  177 177 177  172 172 172  168 168 168  163 163 163  159 159 159  155 155 155  151 151 151  147 147 147  143 143 143  140 140 140  136 136 136  133 133 133  130 130 130  126 126 126  123 123 123  120 120 120  117 117 117  114 114 114  112 112 112  109 109 109  106 106 106  104 104 104  101 101 101  99 99 99  96 96 96  94 94 94  91 91 91  89 89 89  87 87 87  85 85 85  83 83 83  81 81 81  79 79 79  77 77 77  75 75 75  73 73 73  71 71 71  69 69 69  67 67 67  66 66 66  64 64 64  62 62 62  61 61 61  59 59 59  58 58 58  56 56 56  55 55 55  53 53 53  52 52 52  50 50 50  49 49 49  48 48 48  46 46 46  45 45 45  44 44 44  42 42 42  41 41 41  40 40 40  39 39 39  38 38 38  37 37 37  36 36 36  35 35 35  33 33 33  32 32 32  31 31 31  30 30 30  30 30 30  29 29 29  28 28 28  27 27 27  26 26 26  25 25 25  24 24 24  23 23 23  23 23 23  22 22 22  21 21 21  20 20 20  19 19 19  19 19 19  18 18 18  17 17 17  17 17 17  16 16 16  15 15 15  15 15 15  14 14 14  14 14 14  13 13 13  12 12 12  12 12 12  11 11 11  11 11 11  10 10 10  10 10 10  9 9 9  9 9 9  8 8 8  8 8 8  7 7 7  7 7 7  6 6 6  6 6 6  6 6 6  5 5 5  5 5 5  5 5 5  4 4 4  4 4 4  4 4 4  3 3 3  3 3 3  3 3 3  2 2 2  
255 255 255  255 255 255  248 248 248  238 238 238  230 230 230  222 222 222  215 215 215  209 209 209  202 202 202  196 196 196  191 191 191  186 186 186  181 181 181  176 176 176  171 171 171  167 167 167  162 162 162  158 158 158  154 154 154  150 150 150  146 146 146  143 143 143  139 139 139  136 136 136  132 132 132  129 129 129  126 126 126  123 123 123  120 120 120  117 117 117  114 114 114  112 112 112  109 109 109  106 106 106  104 104 104  101 101 101  99 99 99  96 96 96  94 94 94  92 92 92  90 90 90  87 87 87  85 85 85  83 83 83  81 81 81  79 79 79  77 77 77  75 75 75  74 74 74  72 72 72  70 70 70  68 68 68  66 66 66  65 65 65  63 63 63  62 62 62  60 60 60  58 58 58  57 57 57  55 55 55  54 54 54  53 53 53  51 51 51  50 50 50  48 48 48  47 47 47  46 46 46  45 45 45  43 43 43  42 42 42  41 41 41  40 40 40  39 39 39  38 38 38  37 37 37  35 35 35  34 34 34  33 33 33  32 32 32  31 31 31  30 30 30  29 29 29  29 29 29  28 28 28  27 27 27  26 26 26  25 25 25  24 24 24  23 23 23  23 23 23  22 22 22  21 21 21  20 20 20  20 20 20  19 19 19  18 18 18  17 17 17  17 17 17  16 16 16  15 15 15  15 15 15  14 14 14  14 14 14  13 13 13  12 12 12  12 12 12  11 11 11  11 11 11  10 10 10  10 10 10  9 9 9  9 9 9  8 8 8  8 8 8  7 7 7  7 7 7  7 7 7  6 6 6  6 6 6  5 5 5  5 5 5  5 5 5  4 4 4  4 4 4  4 4 4  3 3 3  3 3 3  3 3 3  
255 255 255  255 255 255  244 244 244  235 235 235  227 227 227  220 220 220  213 213 213  206 206 206  200 200 200  194 194 194  189 189 189  184 184 184  179 179 179  174 174 174  170 170 170  165 165 165  161 161 161  157 157 157  153 153 153  149 149 149  146 146 146  142 142 142  139 139 139  135 135 135  132 132 132  129 129 129  126 126 126  123 123 123  120 120 120  117 117 117  114 114 114  112 112 112  109 109 109  106 106 106  104 104 104  101 101 101  99 99 99  97 97 97  95 95 95  92 92 92  90 90 90  88 88 88  86 86 86  84 84 84  82 82 82  80 80 80  78 78 78  76 76 76  74 74 74  72 72 72  71 71 71  69 69 69  67 67 67  66 66 66  64 64 64  62 62 62  61 61 61  59 59 59  58 58 58  56 56 56  55 55 55  53 53 53  52 52 52  51 51 51  49 49 49  48 48 48  47 47 47  46 46 46  44 44 44  43 43 43  42 42 42  41 41 41  40 40 40  39 39 39  37 37 37  36 36 36  35 35 35  34 34 34  33 33 33  32 32 32  31 31 31  30 30 30  29 29 29  29 29 29  28 28 28  27 27 27  26 26 26  25 25 25  24 24 24  23 23 23  23 23 23  22 22 22  21 21 21  20 20 20  20 20 20  19 19 19  18 18 18  18 18 18  17 17 17  16 16 16  16 16 16  15 15 15  14 14 14  14 14 14  13 13 13  13 13 13  12 12 12  11 11 11  11 11 11  10 10 10  10 10 10  9 9 9  9 9 9  8 8 8  8 8 8  8 8 8  7 7 7  7 7 7  6 6 6  6 6 6  5 5 5  5 5 5  5 5 5  4 4 4  4 4 4  4 4 4  3 3 3  3 3 3  
255 255 255  251 251 251  241 241 241  232 232 232  224 224 224  217 217 217  210 210 210  204 204 204  198 198 198  192 192 192  187 187 187  182 182 182  177 177 177  173 173 173  168 168 168  164 164 164  160 160 160  156 156 156  152 152 152  149 149 149  145 145 145  141 141 141  138 138 138  135 135 135  132 132 132  128 128 128  126 126 126  123 123 123  120 120 120  117 117 117  114 114 114  112 112 112  109 109 109  107 107 107  104 104 104  102 102 102  99 99 99  97 97 97  95 95 95  93 93 93  90 90 90  88 88 88  86 86 86  84 84 84  82 82 82  80 80 80  78 78 78  77 77 77  75 75 75  73 73 73  71 71 71  70 70 70  68 68 68  66 66 66  65 65 65  63 63 63  62 62 62  60 60 60  59 59 59  57 57 57  56 56 56  54 54 54  53 53 53  52 52 52  50 50 50  49 49 49  48 48 48  46 46 46  45 45 45  44 44 44  43 43 43  42 42 42  40 40 40  39 39 39  38 38 38  37 37 37  36 36 36  35 35 35  34 34 34  33 33 33  32 32 32  31 31 31  30 30 30  29 29 29  28 28 28  28 28 28  27 27 27  26 26 26  25 25 25  24 24 24  23 23 23  23 23 23  22 22 22  21 21 21  20 20 20  20 20 20  19 19 19  18 18 18  18 18 18  17 17 17  16 16 16  16 16 16  15 15 15  14 14 14  14 14 14  13 13 13  13 13 13  12 12 12  12 12 12  11 11 11  11 11 11  10 10 10  9 9 9  9 9 9  9 9 9  8 8 8  8 8 8  7 7 7  7 7 7  6 6 6  6 6 6  5 5 5  5 5 5  5 5 5  4 4 4  4 4 4  4 4 4  3 3 3  
255 255 255  248 248 248  238 238 238  229 229 229  222 222 222  214 214 214  208 208 208  202 202 202  196 196 196  191 191 191  186 186 186  181 181 181  176 176 176  171 171 171  167 167 167  163 163 163  159 159 159  155 155 155  151 151 151  148 148 148  144 144 144  141 141 141  137 137 137  134 134 134  131 131 131  128 128 128  125 125 125  122 122 122  120 120 120  117 117 117  114 114 114  112 112 112  109 109 109  107 107 107  104 104 104  102 102 102  99 99 99  97 97 97  95 95 95  93 93 93  91 91 91  89 89 89  87 87 87  85 85 85  83 83 83  81 81 81  79 79 79  77 77 77  75 75 75  74 74 74  72 72 72  70 70 70  69 69 69  67 67 67  65 65 65  64 64 64  62 62 62  61 61 61  59 59 59  58 58 58  56 56 56  55 55 55  54 54 54  52 52 52  51 51 51  50 50 50  48 48 48  47 47 47  46 46 46  45 45 45  44 44 44  42 42 42  41 41 41  40 40 40  39 39 39  38 38 38  37 37 37  36 36 36  35 35 35  34 34 34  33 33 33  32 32 32  31 31 31  30 30 30  29 29 29  28 28 28  28 28 28  27 27 27  26 26 26  25 25 25  24 24 24  23 23 23  23 23 23  22 22 22  21 21 21  20 20 20  20 20 20  19 19 19  18 18 18  18 18 18  17 17 17  16 16 16  16 16 16  15 15 15  15 15 15  14 14 14  13 13 13  13 13 13  12 12 12  12 12 12  11 11 11  11 11 11  10 10 10  10 10 10  9 9 9  9 9 9  8 8 8  8 8 8  7 7 7  7 7 7  6 6 6  6 6 6  6 6 6  5 5 5  5 5 5  4 4 4  4 4 4  4 4 4  
255 255 255  245 245 245  235 235 235  226 226 226  219 219 219  212 212 212  206 206 206  200 200 200  194 194 194  189 189 189  184 184 184  179 179 179  174 174 174  170 170 170  166 166 166  162 162 162  158 158 158  154 154 154  150 150 150  147 147 147  143 143 143  140 140 140  137 137 137  134 134 134  131 131 131  128 128 128  125 125 125  122 122 122  119 119 119  117 117 117  114 114 114  112 112 112  109 109 109  107 107 107  104 104 104  102 102 102  100 100 100  97 97 97  95 95 95  93 93 93  91 91 91  89 89 89  87 87 87  85 85 85  83 83 83  81 81 81  79 79 79  78 78 78  76 76 76  74 74 74  72 72 72  71 71 71  69 69 69  68 68 68  66 66 66  64 64 64  63 63 63  61 61 61  60 60 60  59 59 59  57 57 57  56 56 56  54 54 54  53 53 53  52 52 52  51 51 51  49 49 49  48 48 48  47 47 47  46 46 46  44 44 44  43 43 43  42 42 42  41 41 41  40 40 40  39 39 39  38 38 38  37 37 37  36 36 36  35 35 35  34 34 34  33 33 33  32 32 32  31 31 31  30 30 30  29 29 29  28 28 28  28 28 28  27 27 27  26 26 26  25 25 25  24 24 24  23 23 23  23 23 23  22 22 22  21 21 21  21 21 21  20 20 20  19 19 19  18 18 18  18 18 18  17 17 17  16 16 16  16 16 16  15 15 15  15 15 15  14 14 14  13 13 13  13 13 13  12 12 12  12 12 12  11 11 11  11 11 11  10 10 10  10 10 10  9 9 9  9 9 9  8 8 8  8 8 8  7 7 7  7 7 7  6 6 6  6 6 6  6 6 6  5 5 5  5 5 5  4 4 4  4 4 4  
253 253 253  241 241 241  232 232 232  224 224 224  217 217 217  210 210 210  204 204 204  198 198 198  192 192 192  187 187 187  182 182 182  178 178 178  173 173 173  169 169 169  165 165 165  161 161 161  157 157 157  153 153 153  150 150 150  146 146 146  143 143 143  139 139 139  136 136 136  133 133 133  130 130 130  127 127 127  125 125 125  122 122 122  119 119 119  117 117 117  114 114 114  111 111 111  109 109 109  107 107 107  104 104 104  102 102 102  100 100 100  98 98 98  95 95 95  93 93 93  91 91 91  89 89 89  87 87 87  85 85 85  84 84 84  82 82 82  80 80 80  78 78 78  76 76 76  75 75 75  73 73 73  71 71 71  70 70 70  68 68 68  67 67 67  65 65 65  64 64 64  62 62 62  61 61 61  59 59 59  58 58 58  57 57 57  55 55 55  54 54 54  53 53 53  51 51 51  50 50 50  49 49 49  48 48 48  46 46 46  45 45 45  44 44 44  43 43 43  42 42 42  41 41 41  40 40 40  39 39 39  38 38 38  37 37 37  36 36 36  35 35 35  34 34 34  33 33 33  32 32 32  31 31 31  30 30 30  29 29 29  28 28 28  27 27 27  27 27 27  26 26 26  25 25 25  24 24 24  23 23 23  23 23 23  22 22 22  21 21 21  21 21 21  20 20 20  19 19 19  18 18 18  18 18 18  17 17 17  16 16 16  16 16 16  15 15 15  15 15 15  14 14 14  13 13 13  13 13 13  12 12 12  12 12 12  11 11 11  11 11 11  10 10 10  10 10 10  9 9 9  9 9 9  8 8 8  8 8 8  7 7 7  7 7 7  6 6 6  6 6 6  6 6 6  5 5 5  5 5 5  4 4 4  
250 250 250  238 238 238  229 229 229  221 221 221  214 214 214  208 208 208  201 201 201  196 196 196  191 191 191  185 185 185  181 181 181  176 176 176  172 172 172  167 167 167  163 163 163  160 160 160  156 156 156  152 152 152  149 149 149  145 145 145  142 142 142  139 139 139  136 136 136  133 133 133  130 130 130  127 127 127  124 124 124  122 122 122  119 119 119  116 116 116  114 114 114  111 111 111  109 109 109  107 107 107  104 104 104  102 102 102  100 100 100  98 98 98  96 96 96  94 94 94  92 92 92  90 90 90  88 88 88  86 86 86  84 84 84  82 82 82  80 80 80  79 79 79  77 77 77  75 75 75  74 74 74  72 72 72  70 70 70  69 69 69  67 67 67  66 66 66  64 64 64  63 63 63  61 61 61  60 60 60  59 59 59  57 57 57  56 56 56  55 55 55  53 53 53  52 52 52  51 51 51  50 50 50  48 48 48  47 47 47  46 46 46  45 45 45  44 44 44  43 43 43  42 42 42  41 41 41  39 39 39  38 38 38  37 37 37  36 36 36  35 35 35  35 35 35  34 34 34  33 33 33  32 32 32  31 31 31  30 30 30  29 29 29  28 28 28  27 27 27  27 27 27  26 26 26  25 25 25  24 24 24  23 23 23  23 23 23  22 22 22  21 21 21  21 21 21  20 20 20  19 19 19  19 19 19  18 18 18  17 17 17  17 17 17  16 16 16  15 15 15  15 15 15  14 14 14  14 14 14  13 13 13  12 12 12  12 12 12  11 11 11  11 11 11  10 10 10  10 10 10  9 9 9  9 9 9  8 8 8  8 8 8  7 7 7  7 7 7  6 6 6  6 6 6  6 6 6  5 5 5  5 5 5  
247 247 247  236 236 236  227 227 227  219 219 219  212 212 212  205 205 205  199 199 199  194 194 194  189 189 189  184 184 184  179 179 179  175 175 175  170 170 170  166 166 166  162 162 162  159 159 159  155 155 155  151 151 151  148 148 148  145 145 145  141 141 141  138 138 138  135 135 135  132 132 132  129 129 129  127 127 127  124 124 124  121 121 121  119 119 119  116 116 116  114 114 114  111 111 111  109 109 109  107 107 107  104 104 104  102 102 102  100 100 100  98 98 98  96 96 96  94 94 94  92 92 92  90 90 90  88 88 88  86 86 86  84 84 84  82 82 82  81 81 81  79 79 79  77 77 77  76 76 76  74 74 74  72 72 72  71 71 71  69 69 69  68 68 68  66 66 66  65 65 65  63 63 63  62 62 62  61 61 61  59 59 59  58 58 58  57 57 57  55 55 55  54 54 54  53 53 53  52 52 52  50 50 50  49 49 49  48 48 48  47 47 47  46 46 46  45 45 45  43 43 43  42 42 42  41 41 41  40 40 40  39 39 39  38 38 38  37 37 37  36 36 36  35 35 35  34 34 34  33 33 33  33 33 33  32 32 32  31 31 31  30 30 30  29 29 29  28 28 28  27 27 27  27 27 27  26 26 26  25 25 25  24 24 24  23 23 23  23 23 23  22 22 22  21 21 21  21 21 21  20 20 20  19 19 19  19 19 19  18 18 18  17 17 17  17 17 17  16 16 16  15 15 15  15 15 15  14 14 14  14 14 14  13 13 13  12 12 12  12 12 12  11 11 11  11 11 11  10 10 10  10 10 10  9 9 9  9 9 9  8 8 8  8 8 8  7 7 7  7 7 7  7 7 7  6 6 6  6 6 6  5 5 5  
244 244 244  233 233 233  224 224 224  216 216 216  210 210 210  203 203 203  197 197 197  192 192 192  187 187 187  182 182 182  178 178 178  173 173 173  169 169 169  165 165 165  161 161 161  158 158 158  154 154 154  150 150 150  147 147 147  144 144 144  141 141 141  138 138 138  135 135 135  132 132 132  129 129 129  126 126 126  124 124 124  121 121 121  118 118 118  116 116 116  114 114 114  111 111 111  109 109 109  107 107 107  104 104 104  102 102 102  100 100 100  98 98 98  96 96 96  94 94 94  92 92 92  90 90 90  88 88 88  86 86 86  85 85 85  83 83 83  81 81 81  79 79 79  78 78 78  76 76 76  75 75 75  73 73 73  71 71 71  70 70 70  68 68 68  67 67 67  65 65 65  64 64 64  63 63 63  61 61 61  60 60 60  59 59 59  57 57 57  56 56 56  55 55 55  53 53 53  52 52 52  51 51 51  50 50 50  49 49 49  47 47 47  46 46 46  45 45 45  44 44 44  43 43 43  42 42 42  41 41 41  40 40 40  39 39 39  38 38 38  37 37 37  36 36 36  35 35 35  34 34 34  33 33 33  32 32 32  31 31 31  31 31 31  30 30 30  29 29 29  28 28 28  27 27 27  27 27 27  26 26 26  25 25 25  24 24 24  23 23 23  23 23 23  22 22 22  21 21 21  21 21 21  20 20 20  19 19 19  19 19 19  18 18 18  17 17 17  17 17 17  16 16 16  15 15 15  15 15 15  14 14 14  14 14 14  13 13 13  12 12 12  12 12 12  11 11 11  11 11 11  10 10 10  10 10 10  9 9 9  9 9 9  8 8 8  8 8 8  7 7 7  7 7 7  7 7 7  6 6 6  6 6 6  
241 241 241  230 230 230  222 222 222  214 214 214  207 207 207  201 201 201  196 196 196  190 190 190  185 185 185  181 181 181  176 176 176  172 172 172  168 168 168  164 164 164  160 160 160  157 157 157  153 153 153  150 150 150  146 146 146  143 143 143  140 140 140  137 137 137  134 134 134  131 131 131  128 128 128  126 126 126  123 123 123  121 121 121  118 118 118  116 116 116  113 113 113  111 111 111  109 109 109  107 107 107  104 104 104  102 102 102  100 100 100  98 98 98  96 96 96  94 94 94  92 92 92  90 90 90  89 89 89  87 87 87  85 85 85  83 83 83  81 81 81  80 80 80  78 78 78  77 77 77  75 75 75  73 73 73  72 72 72  70 70 70  69 69 69  67 67 67  66 66 66  65 65 65  63 63 63  62 62 62  60 60 60  59 59 59  58 58 58  57 57 57  55 55 55  54 54 54  53 53 53  52 52 52  51 51 51  49 49 49  48 48 48  47 47 47  46 46 46  45 45 45  44 44 44  43 43 43  42 42 42  41 41 41  40 40 40  39 39 39  38 38 38  37 37 37  36 36 36  35 35 35  34 34 34  33 33 33  32 32 32  31 31 31  31 31 31  30 30 30  29 29 29  28 28 28  27 27 27  26 26 26  26 26 26  25 25 25  24 24 24  23 23 23  23 23 23  22 22 22  21 21 21  21 21 21  20 20 20  19 19 19  19 19 19  18 18 18  17 17 17  17 17 17  16 16 16  15 15 15  15 15 15  14 14 14  14 14 14  13 13 13  13 13 13  12 12 12  11 11 11  11 11 11  10 10 10  10 10 10  9 9 9  9 9 9  8 8 8  8 8 8  7 7 7  7 7 7  7 7 7  6 6 6  
238 238 238  227 227 227  219 219 219  212 212 212  205 205 205  199 199 199  194 194 194  189 189 189  184 184 184  179 179 179  175 175 175  171 171 171  166 166 166  163 163 163  159 159 159  155 155 155  152 152 152  149 149 149  145 145 145  142 142 142  139 139 139  136 136 136  133 133 133  131 131 131  128 128 128  125 125 125  123 123 123  120 120 120  118 118 118  116 116 116  113 113 113  111 111 111  109 109 109  106 106 106  104 104 104  102 102 102  100 100 100  98 98 98  96 96 96  94 94 94  92 92 92  91 91 91  89 89 89  87 87 87  85 85 85  83 83 83  82 82 82  80 80 80  79 79 79  77 77 77  75 75 75  74 74 74  72 72 72  71 71 71  69 69 69  68 68 68  66 66 66  65 65 65  64 64 64  62 62 62  61 61 61  60 60 60  58 58 58  57 57 57  56 56 56  55 55 55  54 54 54  52 52 52  51 51 51  50 50 50  49 49 49  48 48 48  47 47 47  46 46 46  45 45 45  43 43 43  42 42 42  41 41 41  40 40 40  39 39 39  38 38 38  38 38 38  37 37 37  36 36 36  35 35 35  34 34 34  33 33 33  32 32 32  31 31 31  30 30 30  30 30 30  29 29 29  28 28 28  27 27 27  26 26 26  26 26 26  25 25 25  24 24 24  23 23 23  23 23 23  22 22 22  21 21 21  21 21 21  20 20 20  19 19 19  19 19 19  18 18 18  17 17 17  17 17 17  16 16 16  15 15 15  15 15 15  14 14 14  14 14 14  13 13 13  13 13 13  12 12 12  11 11 11  11 11 11  10 10 10  10 10 10  9 9 9  9 9 9  8 8 8  8 8 8  7 7 7  7 7 7  7 7 7  
235 235 235  225 225 225  217 217 217  210 210 210  203 203 203  197 197 197  192 192 192  187 187 187  182 182 182  178 178 178  173 173 173  169 169 169  165 165 165  162 162 162  158 158 158  155 155 155  151 151 151  148 148 148  145 145 145  142 142 142  139 139 139  136 136 136  133 133 133  130 130 130  128 128 128  125 125 125  123 123 123  120 120 120  118 118 118  115 115 115  113 113 113  111 111 111  109 109 109  106 106 106  104 104 104  102 102 102  100 100 100  98 98 98  96 96 96  94 94 94  93 93 93  91 91 91  89 89 89  87 87 87  85 85 85  84 84 84  82 82 82  80 80 80  79 79 79  77 77 77  76 76 76  74 74 74  73 73 73  71 71 71  70 70 70  68 68 68  67 67 67  66 66 66  64 64 64  63 63 63  62 62 62  60 60 60  59 59 59  58 58 58  57 57 57  55 55 55  54 54 54  53 53 53  52 52 52  51 51 51  50 50 50  48 48 48  47 47 47  46 46 46  45 45 45  44 44 44  43 43 43  42 42 42  41 41 41  40 40 40  39 39 39  38 38 38  37 37 37  36 36 36  35 35 35  35 35 35  34 34 34  33 33 33  32 32 32  31 31 31  30 30 30  29 29 29  29 29 29  28 28 28  27 27 27  26 26 26  26 26 26  25 25 25  24 24 24  23 23 23  23 23 23  22 22 22  21 21 21  21 21 21  20 20 20  19 19 19  19 19 19  18 18 18  17 17 17  17 17 17  16 16 16  15 15 15  15 15 15  14 14 14  14 14 14  13 13 13  13 13 13  12 12 12  11 11 11  11 11 11  10 10 10  10 10 10  9 9 9  9 9 9  8 8 8  8 8 8  7 7 7  7 7 7  
232 232 232  223 223 223  215 215 215  208 208 208  201 201 201  195 195 195  190 190 190  185 185 185  181 181 181  176 176 176  172 172 172  168 168 168  164 164 164  160 160 160  157 157 157  154 154 154  150 150 150  147 147 147  144 144 144  141 141 141  138 138 138  135 135 135  132 132 132  130 130 130  127 127 127  125 125 125  122 122 122  120 120 120  117 117 117  115 115 115  113 113 113  111 111 111  108 108 108  106 106 106  104 104 104  102 102 102  100 100 100  98 98 98  96 96 96  95 95 95  93 93 93  91 91 91  89 89 89  87 87 87  86 86 86  84 84 84  82 82 82  81 81 81  79 79 79  78 78 78  76 76 76  75 75 75  73 73 73  72 72 72  70 70 70  69 69 69  67 67 67  66 66 66  65 65 65  63 63 63  62 62 62  61 61 61  60 60 60  58 58 58  57 57 57  56 56 56  55 55 55  54 54 54  52 52 52  51 51 51  50 50 50  49 49 49  48 48 48  47 47 47  46 46 46  45 45 45  44 44 44  43 43 43  42 42 42  41 41 41  40 40 40  39 39 39  38 38 38  37 37 37  36 36 36  35 35 35  34 34 34  34 34 34  33 33 33  32 32 32  31 31 31  30 30 30  29 29 29  29 29 29  28 28 28  27 27 27  26 26 26  25 25 25  25 25 25  24 24 24  23 23 23  23 23 23  22 22 22  21 21 21  21 21 21  20 20 20  19 19 19  19 19 19  18 18 18  17 17 17  17 17 17  16 16 16  15 15 15  15 15 15  14 14 14  14 14 14  13 13 13  13 13 13  12 12 12  11 11 11  11 11 11  10 10 10  10 10 10  9 9 9  9 9 9  8 8 8  8 8 8  7 7 7  
230 230 230  220 220 220  212 212 212  206 206 206  199 199 199  194 194 194  189 189 189  184 184 184  179 179 179  175 175 175  171 171 171  167 167 167  163 163 163  159 159 159  156 156 156  153 153 153  149 149 149  146 146 146  143 143 143  140 140 140  137 137 137  135 135 135  132 132 132  129 129 129  127 127 127  124 124 124  122 122 122  119 119 119  117 117 117  115 115 115  113 113 113  111 111 111  108 108 108  106 106 106  104 104 104  102 102 102  100 100 100  98 98 98  96 96 96  95 95 95  93 93 93  91 91 91  89 89 89  88 88 88  86 86 86  84 84 84  83 83 83  81 81 81  80 80 80  78 78 78  77 77 77  75 75 75  74 74 74  72 72 72  71 71 71  69 69 69  68 68 68  67 67 67  65 65 65  64 64 64  63 63 63  61 61 61  60 60 60  59 59 59  58 58 58  56 56 56  55 55 55  54 54 54  53 53 53  52 52 52  51 51 51  50 50 50  49 49 49  48 48 48  47 47 47  46 46 46  44 44 44  43 43 43  42 42 42  42 42 42  41 41 41  40 40 40  39 39 39  38 38 38  37 37 37  36 36 36  35 35 35  34 34 34  33 33 33  32 32 32  32 32 32  31 31 31  30 30 30  29 29 29  28 28 28  28 28 28  27 27 27  26 26 26  25 25 25  25 25 25  24 24 24  23 23 23  23 23 23  22 22 22  21 21 21  21 21 21  20 20 20  19 19 19  19 19 19  18 18 18  17 17 17  17 17 17  16 16 16  15 15 15  15 15 15  14 14 14  14 14 14  13 13 13  13 13 13  12 12 12  11 11 11  11 11 11  10 10 10  10 10 10  9 9 9  9 9 9  8 8 8  8 8 8  
227 227 227  218 218 218  210 210 210  204 204 204  198 198 198  192 192 192  187 187 187  182 182 182  178 178 178  173 173 173  169 169 169  166 166 166  162 162 162  158 158 158  155 155 155  152 152 152  148 148 148  145 145 145  142 142 142  140 140 140  137 137 137  134 134 134  131 131 131  129 129 129  126 126 126  124 124 124  121 121 121  119 119 119  117 117 117  115 115 115  112 112 112  110 110 110  108 108 108  106 106 106  104 104 104  102 102 102  100 100 100  98 98 98  97 97 97  95 95 95  93 93 93  91 91 91  90 90 90  88 88 88  86 86 86  85 85 85  83 83 83  81 81 81  80 80 80  78 78 78  77 77 77  75 75 75  74 74 74  72 72 72  71 71 71  70 70 70  68 68 68  67 67 67  66 66 66  64 64 64  63 63 63  62 62 62  61 61 61  59 59 59  58 58 58  57 57 57  56 56 56  55 55 55  54 54 54  52 52 52  51 51 51  50 50 50  49 49 49  48 48 48  47 47 47  46 46 46  45 45 45  44 44 44  43 43 43  42 42 42  41 41 41  40 40 40  39 39 39  38 38 38  38 38 38  37 37 37  36 36 36  35 35 35  34 34 34  33 33 33  32 32 32  32 32 32  31 31 31  30 30 30  29 29 29  28 28 28  28 28 28  27 27 27  26 26 26  25 25 25  25 25 25  24 24 24  23 23 23  23 23 23  22 22 22  21 21 21  20 20 20  20 20 20  19 19 19  19 19 19  18 18 18  17 17 17  17 17 17  16 16 16  15 15 15  15 15 15  14 14 14  14 14 14  13 13 13  13 13 13  12 12 12  11 11 11  11 11 11  10 10 10  10 10 10  9 9 9  9 9 9  8 8 8  
225 225 225  216 216 216  208 208 208  202 202 202  196 196 196  190 190 190  185 185 185  181 181 181  176 176 176  172 172 172  168 168 168  164 164 164  161 161 161  157 157 157  154 154 154  151 151 151  148 148 148  145 145 145  142 142 142  139 139 139  136 136 136  133 133 133  131 131 131  128 128 128  126 126 126  123 123 123  121 121 121  119 119 119  117 117 117  114 114 114  112 112 112  110 110 110  108 108 108  106 106 106  104 104 104  102 102 102  100 100 100  98 98 98  97 97 97  95 95 95  93 93 93  91 91 91  90 90 90  88 88 88  86 86 86  85 85 85  83 83 83  82 82 82  80 80 80  79 79 79  77 77 77  76 76 76  74 74 74  73 73 73  71 71 71  70 70 70  69 69 69  67 67 67  66 66 66  65 65 65  64 64 64  62 62 62  61 61 61  60 60 60  59 59 59  58 58 58  56 56 56  55 55 55  54 54 54  53 53 53  52 52 52  51 51 51  50 50 50  49 49 49  48 48 48  47 47 47  46 46 46  45 45 45  44 44 44  43 43 43  42 42 42  41 41 41  40 40 40  39 39 39  38 38 38  37 37 37  36 36 36  36 36 36  35 35 35  34 34 34  33 33 33  32 32 32  31 31 31  31 31 31  30 30 30  29 29 29  28 28 28  27 27 27  27 27 27  26 26 26  25 25 25  25 25 25  24 24 24  23 23 23  22 22 22  22 22 22  21 21 21  20 20 20  20 20 20  19 19 19  19 19 19  18 18 18  17 17 17  17 17 17  16 16 16  15 15 15  15 15 15  14 14 14  14 14 14  13 13 13  13 13 13  12 12 12  11 11 11  11 11 11  10 10 10  10 10 10  9 9 9  9 9 9  
223 223 223  214 214 214  206 206 206  200 200 200  194 194 194  189 189 189  184 184 184  179 179 179  175 175 175  171 171 171  167 167 167  163 163 163  160 160 160  156 156 156  153 153 153  150 150 150  147 147 147  144 144 144  141 141 141  138 138 138  135 135 135  133 133 133  130 130 130  128 128 128  125 125 125  123 123 123  121 121 121  118 118 118  116 116 116  114 114 114  112 112 112  110 110 110  108 108 108  106 106 106  104 104 104  102 102 102  100 100 100  98 98 98  97 97 97  95 95 95  93 93 93  91 91 91  90 90 90  88 88 88  87 87 87  85 85 85  83 83 83  82 82 82  80 80 80  79 79 79  77 77 77  76 76 76  75 75 75  73 73 73  72 72 72  71 71 71  69 69 69  68 68 68  67 67 67  65 65 65  64 64 64  63 63 63  62 62 62  60 60 60  59 59 59  58 58 58  57 57 57  56 56 56  55 55 55  54 54 54  53 53 53  51 51 51  50 50 50  49 49 49  48 48 48  47 47 47  46 46 46  45 45 45  44 44 44  43 43 43  42 42 42  42 42 42  41 41 41  40 40 40  39 39 39  38 38 38  37 37 37  36 36 36  35 35 35  34 34 34  34 34 34  33 33 33  32 32 32  31 31 31  30 30 30  30 30 30  29 29 29  28 28 28  27 27 27  27 27 27  26 26 26  25 25 25  24 24 24  24 24 24  23 23 23  22 22 22  22 22 22  21 21 21  20 20 20  20 20 20  19 19 19  18 18 18  18 18 18  17 17 17  17 17 17  16 16 16  15 15 15  15 15 15  14 14 14  14 14 14  13 13 13  13 13 13  12 12 12  11 11 11  11 11 11  10 10 10  10 10 10  9 9 9  
221 221 221  212 212 212  204 204 204  198 198 198  192 192 192  187 187 187  182 182 182  178 178 178  174 174 174  170 170 170  166 166 166  162 162 162  159 159 159  155 155 155  152 152 152  149 149 149  146 146 146  143 143 143  140 140 140  138 138 138  135 135 135  132 132 132  130 130 130  127 127 127  125 125 125  123 123 123  120 120 120  118 118 118  116 116 116  114 114 114  112 112 112  110 110 110  108 108 108  106 106 106  104 104 104  102 102 102  100 100 100  98 98 98  97 97 97  95 95 95  93 93 93  92 92 92  90 90 90  88 88 88  87 87 87  85 85 85  84 84 84  82 82 82  81 81 81  79 79 79  78 78 78  76 76 76  75 75 75  74 74 74  72 72 72  71 71 71  70 70 70  68 68 68  67 67 67  66 66 66  64 64 64  63 63 63  62 62 62  61 61 61  60 60 60  59 59 59  57 57 57  56 56 56  55 55 55  54 54 54  53 53 53  52 52 52  51 51 51  50 50 50  49 49 49  48 48 48  47 47 47  46 46 46  45 45 45  44 44 44  43 43 43  42 42 42  41 41 41  40 40 40  39 39 39  39 39 39  38 38 38  37 37 37  36 36 36  35 35 35  34 34 34  33 33 33  33 33 33  32 32 32  31 31 31  30 30 30  30 30 30  29 29 29  28 28 28  27 27 27  27 27 27  26 26 26  25 25 25  24 24 24  24 24 24  23 23 23  22 22 22  22 22 22  21 21 21  20 20 20  20 20 20  19 19 19  18 18 18  18 18 18  17 17 17  17 17 17  16 16 16  15 15 15  15 15 15  14 14 14  14 14 14  13 13 13  13 13 13  12 12 12  11 11 11  11 11 11  10 10 10  10 10 10  
219 219 219  210 210 210  202 202 202  196 196 196  191 191 191  186 186 186  181 181 181  177 177 177  172 172 172  168 168 168  165 165 165  161 161 161  158 158 158  154 154 154  151 151 151  148 148 148  145 145 145  142 142 142  140 140 140  137 137 137  134 134 134  132 132 132  129 129 129  127 127 127  125 125 125  122 122 122  120 120 120  118 118 118  116 116 116  114 114 114  112 112 112  110 110 110  108 108 108  106 106 106  104 104 104  102 102 102  100 100 100  98 98 98  97 97 97  95 95 95  93 93 93  92 92 92  90 90 90  88 88 88  87 87 87  85 85 85  84 84 84  82 82 82  81 81 81  79 79 79  78 78 78  77 77 77  75 75 75  74 74 74  73 73 73  71 71 71  70 70 70  69 69 69  67 67 67  66 66 66  65 65 65  64 64 64  63 63 63  61 61 61  60 60 60  59 59 59  58 58 58  57 57 57  56 56 56  55 55 55  54 54 54  53 53 53  51 51 51  50 50 50  49 49 49  48 48 48  47 47 47  47 47 47  46 46 46  45 45 45  44 44 44  43 43 43  42 42 42  41 41 41  40 40 40  39 39 39  38 38 38  37 37 37  37 37 37  36 36 36  35 35 35  34 34 34  33 33 33  32 32 32  32 32 32  31 31 31  30 30 30  29 29 29  29 29 29  28 28 28  27 27 27  26 26 26  26 26 26  25 25 25  24 24 24  24 24 24  23 23 23  22 22 22  22 22 22  21 21 21  20 20 20  20 20 20  19 19 19  18 18 18  18 18 18  17 17 17  17 17 17  16 16 16  15 15 15  15 15 15  14 14 14  14 14 14  13 13 13  13 13 13  12 12 12  11 11 11  11 11 11  10 10 10  
216 216 216  208 208 208  201 201 201  195 195 195  189 189 189  184 184 184  180 180 180  175 175 175  171 171 171  167 167 167  164 164 164  160 160 160  157 157 157  154 154 154  150 150 150  147 147 147  144 144 144  142 142 142  139 139 139  136 136 136  134 134 134  131 131 131  129 129 129  126 126 126  124 124 124  122 122 122  120 120 120  118 118 118  115 115 115  113 113 113  111 111 111  109 109 109  108 108 108  106 106 106  104 104 104  102 102 102  100 100 100  98 98 98  97 97 97  95 95 95  93 93 93  92 92 92  90 90 90  89 89 89  87 87 87  85 85 85  84 84 84  83 83 83  81 81 81  80 80 80  78 78 78  77 77 77  76 76 76  74 74 74  73 73 73  72 72 72  70 70 70  69 69 69  68 68 68  67 67 67  65 65 65  64 64 64  63 63 63  62 62 62  61 61 61  60 60 60  58 58 58  57 57 57  56 56 56  55 55 55  54 54 54  53 53 53  52 52 52  51 51 51  50 50 50  49 49 49  48 48 48  47 47 47  46 46 46  45 45 45  44 44 44  43 43 43  42 42 42  41 41 41  41 41 41  40 40 40  39 39 39  38 38 38  37 37 37  36 36 36  36 36 36  35 35 35  34 34 34  33 33 33  32 32 32  32 32 32  31 31 31  30 30 30  29 29 29  29 29 29  28 28 28  27 27 27  26 26 26  26 26 26  25 25 25  24 24 24  24 24 24  23 23 23  22 22 22  22 22 22  21 21 21  20 20 20  20 20 20  19 19 19  18 18 18  18 18 18  17 17 17  17 17 17  16 16 16  15 15 15  15 15 15  14 14 14  14 14 14  13 13 13  13 13 13  12 12 12  11 11 11  11 11 11  
214 214 214  206 206 206  199 199 199  193 193 193  188 188 188  183 183 183  178 178 178  174 174 174  170 170 170  166 166 166  162 162 162  159 159 159  156 156 156  153 153 153  150 150 150  147 147 147  144 144 144  141 141 141  138 138 138  136 136 136  133 133 133  131 131 131  128 128 128  126 126 126  124 124 124  122 122 122  119 119 119  117 117 117  115 115 115  113 113 113  111 111 111  109 109 109  107 107 107  105 105 105  104 104 104  102 102 102  100 100 100  98 98 98  97 97 97  95 95 95  93 93 93  92 92 92  90 90 90  89 89 89  87 87 87  86 86 86  84 84 84  83 83 83  81 81 81  80 80 80  79 79 79  77 77 77  76 76 76  75 75 75  73 73 73  72 72 72  71 71 71  69 69 69  68 68 68  67 67 67  66 66 66  65 65 65  63 63 63  62 62 62  61 61 61  60 60 60  59 59 59  58 58 58  57 57 57  56 56 56  55 55 55  54 54 54  53 53 53  52 52 52  51 51 51  50 50 50  49 49 49  48 48 48  47 47 47  46 46 46  45 45 45  44 44 44  43 43 43  42 42 42  41 41 41  40 40 40  39 39 39  39 39 39  38 38 38  37 37 37  36 36 36  35 35 35  34 34 34  34 34 34  33 33 33  32 32 32  31 31 31  31 31 31  30 30 30  29 29 29  28 28 28  28 28 28  27 27 27  26 26 26  26 26 26  25 25 25  24 24 24  23 23 23  23 23 23  22 22 22  21 21 21  21 21 21  20 20 20  20 20 20  19 19 19  18 18 18  18 18 18  17 17 17  16 16 16  16 16 16  15 15 15  15 15 15  14 14 14  14 14 14  13 13 13  13 13 13  12 12 12  11 11 11  
212 212 212  204 204 204  197 197 197  191 191 191  186 186 186  181 181 181  177 177 177  173 173 173  169 169 169  165 165 165  161 161 161  158 158 158  155 155 155  152 152 152  149 149 149  146 146 146  143 143 143  140 140 140  138 138 138  135 135 135  133 133 133  130 130 130  128 128 128  126 126 126  123 123 123  121 121 121  119 119 119  117 117 117  115 115 115  113 113 113  111 111 111  109 109 109  107 107 107  105 105 105  104 104 104  102 102 102  100 100 100  98 98 98  97 97 97  95 95 95  93 93 93  92 92 92  90 90 90  89 89 89  87 87 87  86 86 86  84 84 84  83 83 83  82 82 82  80 80 80  79 79 79  77 77 77  76 76 76  75 75 75  73 73 73  72 72 72  71 71 71  70 70 70  68 68 68  67 67 67  66 66 66  65 65 65  64 64 64  63 63 63  62 62 62  60 60 60  59 59 59  58 58 58  57 57 57  56 56 56  55 55 55  54 54 54  53 53 53  52 52 52  51 51 51  50 50 50  49 49 49  48 48 48  47 47 47  46 46 46  45 45 45  44 44 44  44 44 44  43 43 43  42 42 42  41 41 41  40 40 40  39 39 39  38 38 38  38 38 38  37 37 37  36 36 36  35 35 35  34 34 34  33 33 33  33 33 33  32 32 32  31 31 31  30 30 30  30 30 30  29 29 29  28 28 28  28 28 28  27 27 27  26 26 26  25 25 25  25 25 25  24 24 24  23 23 23  23 23 23  22 22 22  21 21 21  21 21 21  20 20 20  20 20 20  19 19 19  18 18 18  18 18 18  17 17 17  16 16 16  16 16 16  15 15 15  15 15 15  14 14 14  14 14 14  13 13 13  12 12 12  12 12 12  
211 211 211  202 202 202  196 196 196  190 190 190  185 185 185  180 180 180  176 176 176  172 172 172  168 168 168  164 164 164  160 160 160  157 157 157  154 154 154  151 151 151  148 148 148  145 145 145  142 142 142  140 140 140  137 137 137  134 134 134  132 132 132  130 130 130  127 127 127  125 125 125  123 123 123  121 121 121  119 119 119  117 117 117  115 115 115  113 113 113  111 111 111  109 109 109  107 107 107  105 105 105  103 103 103  102 102 102  100 100 100  98 98 98  97 97 97  95 95 95  94 94 94  92 92 92  90 90 90  89 89 89  87 87 87  86 86 86  84 84 84  83 83 83  82 82 82  80 80 80  79 79 79  78 78 78  76 76 76  75 75 75  74 74 74  73 73 73  71 71 71  70 70 70  69 69 69  68 68 68  66 66 66  65 65 65  64 64 64  63 63 63  62 62 62  61 61 61  60 60 60  59 59 59  58 58 58  57 57 57  56 56 56  55 55 55  54 54 54  53 53 53  52 52 52  51 51 51  50 50 50  49 49 49  48 48 48  47 47 47  46 46 46  45 45 45  44 44 44  43 43 43  42 42 42  41 41 41  41 41 41  40 40 40  39 39 39  38 38 38  37 37 37  36 36 36  36 36 36  35 35 35  34 34 34  33 33 33  33 33 33  32 32 32  31 31 31  30 30 30  30 30 30  29 29 29  28 28 28  27 27 27  27 27 27  26 26 26  25 25 25  25 25 25  24 24 24  23 23 23  23 23 23  22 22 22  21 21 21  21 21 21  20 20 20  19 19 19  19 19 19  18 18 18  18 18 18  17 17 17  16 16 16  16 16 16  15 15 15  15 15 15  14 14 14  14 14 14  13 13 13  12 12 12  
209 209 209  201 201 201  194 194 194  188 188 188  183 183 183  179 179 179  174 174 174  170 170 170  166 166 166  163 163 163  159 159 159  156 156 156  153 153 153  150 150 150  147 147 147  144 144 144  142 142 142  139 139 139  136 136 136  134 134 134  131 131 131  129 129 129  127 127 127  125 125 125  123 123 123  120 120 120  118 118 118  116 116 116  114 114 114  112 112 112  111 111 111  109 109 109  107 107 107  105 105 105  103 103 103  102 102 102  100 100 100  98 98 98  97 97 97  95 95 95  94 94 94  92 92 92  90 90 90  89 89 89  88 88 88  86 86 86  85 85 85  83 83 83  82 82 82  81 81 81  79 79 79  78 78 78  77 77 77  75 75 75  74 74 74  73 73 73  72 72 72  70 70 70  69 69 69  68 68 68  67 67 67  66 66 66  65 65 65  63 63 63  62 62 62  61 61 61  60 60 60  59 59 59  58 58 58  57 57 57  56 56 56  55 55 55  54 54 54  53 53 53  52 52 52  51 51 51  50 50 50  49 49 49  48 48 48  47 47 47  46 46 46  46 46 46  45 45 45  44 44 44  43 43 43  42 42 42  41 41 41  40 40 40  39 39 39  39 39 39  38 38 38  37 37 37  36 36 36  35 35 35  35 35 35  34 34 34  33 33 33  32 32 32  32 32 32  31 31 31  30 30 30  29 29 29  29 29 29  28 28 28  27 27 27  27 27 27  26 26 26  25 25 25  25 25 25  24 24 24  23 23 23  23 23 23  22 22 22  21 21 21  21 21 21  20 20 20  19 19 19  19 19 19  18 18 18  18 18 18  17 17 17  16 16 16  16 16 16  15 15 15  15 15 15  14 14 14  14 14 14  13 13 13  
207 207 207  199 199 199  193 193 193  187 187 187  182 182 182  177 177 177  173 173 173  169 169 169  165 165 165  162 162 162  159 159 159  155 155 155  152 152 152  149 149 149  146 146 146  144 144 144  141 141 141  138 138 138  136 136 136  133 133 133  131 131 131  129 129 129  126 126 126  124 124 124  122 122 122  120 120 120  118 118 118  116 116 116  114 114 114  112 112 112  110 110 110  109 109 109  107 107 107  105 105 105  103 103 103  102 102 102  100 100 100  98 98 98  97 97 97  95 95 95  94 94 94  92 92 92  91 91 91  89 89 89  88 88 88  86 86 86  85 85 85  83 83 83  82 82 82  81 81 81  79 79 79  78 78 78  77 77 77  76 76 76  74 74 74  73 73 73  72 72 72  71 71 71  69 69 69  68 68 68  67 67 67  66 66 66  65 65 65  64 64 64  63 63 63  62 62 62  61 61 61  60 60 60  58 58 58  57 57 57  56 56 56  55 55 55  54 54 54  53 53 53  52 52 52  52 52 52  51 51 51  50 50 50  49 49 49  48 48 48  47 47 47  46 46 46  45 45 45  44 44 44  43 43 43  43 43 43  42 42 42  41 41 41  40 40 40  39 39 39  38 38 38  38 38 38  37 37 37  36 36 36  35 35 35  34 34 34  34 34 34  33 33 33  32 32 32  31 31 31  31 31 31  30 30 30  29 29 29  29 29 29  28 28 28  27 27 27  26 26 26  26 26 26  25 25 25  24 24 24  24 24 24  23 23 23  22 22 22  22 22 22  21 21 21  21 21 21  20 20 20  19 19 19  19 19 19  18 18 18  18 18 18  17 17 17  16 16 16  16 16 16  15 15 15  15 15 15  14 14 14  13 13 13  
205 205 205  197 197 197  191 191 191  186 186 186  181 181 181  176 176 176  172 172 172  168 168 168  164 164 164  161 161 161  158 158 158  154 154 154  151 151 151  148 148 148  146 146 146  143 143 143  140 140 140  138 138 138  135 135 135  133 133 133  130 130 130  128 128 128  126 126 126  124 124 124  122 122 122  120 120 120  118 118 118  116 116 116  114 114 114  112 112 112  110 110 110  108 108 108  107 107 107  105 105 105  103 103 103  101 101 101  100 100 100  98 98 98  97 97 97  95 95 95  94 94 94  92 92 92  91 91 91  89 89 89  88 88 88  86 86 86  85 85 85  84 84 84  82 82 82  81 81 81  80 80 80  78 78 78  77 77 77  76 76 76  75 75 75  73 73 73  72 72 72  71 71 71  70 70 70  69 69 69  67 67 67  66 66 66  65 65 65  64 64 64  63 63 63  62 62 62  61 61 61  60 60 60  59 59 59  58 58 58  57 57 57  56 56 56  55 55 55  54 54 54  53 53 53  52 52 52  51 51 51  50 50 50  49 49 49  48 48 48  47 47 47  47 47 47  46 46 46  45 45 45  44 44 44  43 43 43  42 42 42  41 41 41  41 41 41  40 40 40  39 39 39  38 38 38  37 37 37  37 37 37  36 36 36  35 35 35  34 34 34  33 33 33  33 33 33  32 32 32  31 31 31  31 31 31  30 30 30  29 29 29  28 28 28  28 28 28  27 27 27  26 26 26  26 26 26  25 25 25  24 24 24  24 24 24  23 23 23  22 22 22  22 22 22  21 21 21  20 20 20  20 20 20  19 19 19  19 19 19  18 18 18  17 17 17  17 17 17  16 16 16  16 16 16  15 15 15  15 15 15  14 14 14  
204 204 204  196 196 196  190 190 190  184 184 184  179 179 179  175 175 175  171 171 171  167 167 167  163 163 163  160 160 160  157 157 157  154 154 154  150 150 150  148 148 148  145 145 145  142 142 142  140 140 140  137 137 137  135 135 135  132 132 132  130 130 130  128 128 128  126 126 126  123 123 123  121 121 121  119 119 119  117 117 117  115 115 115  114 114 114  112 112 112  110 110 110  108 108 108  106 106 106  105 105 105  103 103 103  101 101 101  100 100 100  98 98 98  97 97 97  95 95 95  94 94 94  92 92 92  91 91 91  89 89 89  88 88 88  86 86 86  85 85 85  84 84 84  82 82 82  81 81 81  80 80 80  79 79 79  77 77 77  76 76 76  75 75 75  74 74 74  72 72 72  71 71 71  70 70 70  69 69 69  68 68 68  67 67 67  66 66 66  64 64 64  63 63 63  62 62 62  61 61 61  60 60 60  59 59 59  58 58 58  57 57 57  56 56 56  55 55 55  54 54 54  53 53 53  52 52 52  52 52 52  51 51 51  50 50 50  49 49 49  48 48 48  47 47 47  46 46 46  45 45 45  44 44 44  44 44 44  43 43 43  42 42 42  41 41 41  40 40 40  39 39 39  39 39 39  38 38 38  37 37 37  36 36 36  36 36 36  35 35 35  34 34 34  33 33 33  33 33 33  32 32 32  31 31 31  30 30 30  30 30 30  29 29 29  28 28 28  28 28 28  27 27 27  26 26 26  26 26 26  25 25 25  24 24 24  24 24 24  23 23 23  22 22 22  22 22 22  21 21 21  20 20 20  20 20 20  19 19 19  19 19 19  18 18 18  17 17 17  17 17 17  16 16 16  16 16 16  15 15 15  15 15 15  
202 202 202  194 194 194  188 188 188  183 183 183  178 178 178  174 174 174  170 170 170  166 166 166  162 162 162  159 159 159  156 156 156  153 153 153  150 150 150  147 147 147  144 144 144  141 141 141  139 139 139  136 136 136  134 134 134  132 132 132  129 129 129  127 127 127  125 125 125  123 123 123  121 121 121  119 119 119  117 117 117  115 115 115  113 113 113  111 111 111  110 110 110  108 108 108  106 106 106  105 105 105  103 103 103  101 101 101  100 100 100  98 98 98  97 97 97  95 95 95  94 94 94  92 92 92  91 91 91  89 89 89  88 88 88  86 86 86  85 85 85  84 84 84  82 82 82  81 81 81  80 80 80  79 79 79  77 77 77  76 76 76  75 75 75  74 74 74  73 73 73  71 71 71  70 70 70  69 69 69  68 68 68  67 67 67  66 66 66  65 65 65  64 64 64  63 63 63  62 62 62  61 61 61  60 60 60  59 59 59  58 58 58  57 57 57  56 56 56  55 55 55  54 54 54  53 53 53  52 52 52  51 51 51  50 50 50  49 49 49  48 48 48  47 47 47  47 47 47  46 46 46  45 45 45  44 44 44  43 43 43  42 42 42  42 42 42  41 41 41  40 40 40  39 39 39  38 38 38  38 38 38  37 37 37  36 36 36  35 35 35  35 35 35  34 34 34  33 33 33  32 32 32  32 32 32  31 31 31  30 30 30  30 30 30  29 29 29  28 28 28  27 27 27  27 27 27  26 26 26  25 25 25  25 25 25  24 24 24  23 23 23  23 23 23  22 22 22  22 22 22  21 21 21  20 20 20  20 20 20  19 19 19  19 19 19  18 18 18  17 17 17  17 17 17  16 16 16  16 16 16  15 15 15  
200 200 200  193 193 193  187 187 187  182 182 182  177 177 177  173 173 173  169 169 169  165 165 165  161 161 161  158 158 158  155 155 155  152 152 152  149 149 149  146 146 146  143 143 143  141 141 141  138 138 138  136 136 136  133 133 133  131 131 131  129 129 129  127 127 127  125 125 125  123 123 123  121 121 121  119 119 119  117 117 117  115 115 115  113 113 113  111 111 111  110 110 110  108 108 108  106 106 106  104 104 104  103 103 103  101 101 101  100 100 100  98 98 98  97 97 97  95 95 95  94 94 94  92 92 92  91 91 91  89 89 89  88 88 88  87 87 87  85 85 85  84 84 84  83 83 83  81 81 81  80 80 80  79 79 79  78 78 78  76 76 76  75 75 75  74 74 74  73 73 73  72 72 72  71 71 71  69 69 69  68 68 68  67 67 67  66 66 66  65 65 65  64 64 64  63 63 63  62 62 62  61 61 61  60 60 60  59 59 59  58 58 58  57 57 57  56 56 56  55 55 55  54 54 54  53 53 53  52 52 52  51 51 51  51 51 51  50 50 50  49 49 49  48 48 48  47 47 47  46 46 46  45 45 45  45 45 45  44 44 44  43 43 43  42 42 42  41 41 41  40 40 40  40 40 40  39 39 39  38 38 38  37 37 37  37 37 37  36 36 36  35 35 35  34 34 34  34 34 34  33 33 33  32 32 32  31 31 31  31 31 31  30 30 30  29 29 29  29 29 29  28 28 28  27 27 27  27 27 27  26 26 26  25 25 25  25 25 25  24 24 24  23 23 23  23 23 23  22 22 22  21 21 21  21 21 21  20 20 20  20 20 20  19 19 19  18 18 18  18 18 18  17 17 17  17 17 17  16 16 16  16 16 16  
199 199 199  191 191 191  186 186 186  180 180 180  176 176 176  171 171 171  168 168 168  164 164 164  160 160 160  157 157 157  154 154 154  151 151 151  148 148 148  145 145 145  143 143 143  140 140 140  138 138 138  135 135 135  133 133 133  131 131 131  128 128 128  126 126 126  124 124 124  122 122 122  120 120 120  118 118 118  116 116 116  115 115 115  113 113 113  111 111 111  109 109 109  108 108 108  106 106 106  104 104 104  103 103 103  101 101 101  99 99 99  98 98 98  96 96 96  95 95 95  94 94 94  92 92 92  91 91 91  89 89 89  88 88 88  87 87 87  85 85 85  84 84 84  83 83 83  81 81 81  80 80 80  79 79 79  78 78 78  77 77 77  75 75 75  74 74 74  73 73 73  72 72 72  71 71 71  70 70 70  69 69 69  68 68 68  67 67 67  65 65 65  64 64 64  63 63 63  62 62 62  61 61 61  60 60 60  59 59 59  58 58 58  57 57 57  56 56 56  56 56 56  55 55 55  54 54 54  53 53 53  52 52 52  51 51 51  50 50 50  49 49 49  48 48 48  48 48 48  47 47 47  46 46 46  45 45 45  44 44 44  43 43 43  43 43 43  42 42 42  41 41 41  40 40 40  39 39 39  39 39 39  38 38 38  37 37 37  36 36 36  36 36 36  35 35 35  34 34 34  33 33 33  33 33 33  32 32 32  31 31 31  31 31 31  30 30 30  29 29 29  29 29 29  28 28 28  27 27 27  27 27 27  26 26 26  25 25 25  25 25 25  24 24 24  23 23 23  23 23 23  22 22 22  21 21 21  21 21 21  20 20 20  20 20 20  19 19 19  18 18 18  18 18 18  17 17 17  17 17 17  16 16 16  
197 197 197  190 190 190  184 184 184  179 179 179  175 175 175  170 170 170  167 167 167  163 163 163  159 159 159  156 156 156  153 153 153  150 150 150  147 147 147  145 145 145  142 142 142  140 140 140  137 137 137  135 135 135  132 132 132  130 130 130  128 128 128  126 126 126  124 124 124  122 122 122  120 120 120  118 118 118  116 116 116  114 114 114  112 112 112  111 111 111  109 109 109  107 107 107  106 106 106  104 104 104  103 103 103  101 101 101  99 99 99  98 98 98  96 96 96  95 95 95  94 94 94  92 92 92  91 91 91  89 89 89  88 88 88  87 87 87  85 85 85  84 84 84  83 83 83  82 82 82  80 80 80  79 79 79  78 78 78  77 77 77  76 76 76  74 74 74  73 73 73  72 72 72  71 71 71  70 70 70  69 69 69  68 68 68  67 67 67  66 66 66  65 65 65  64 64 64  63 63 63  62 62 62  61 61 61  60 60 60  59 59 59  58 58 58  57 57 57  56 56 56  55 55 55  54 54 54  53 53 53  52 52 52  51 51 51  51 51 51  50 50 50  49 49 49  48 48 48  47 47 47  46 46 46  45 45 45  45 45 45  44 44 44  43 43 43  42 42 42  41 41 41  41 41 41  40 40 40  39 39 39  38 38 38  38 38 38  37 37 37  36 36 36  35 35 35  35 35 35  34 34 34  33 33 33  32 32 32  32 32 32  31 31 31  30 30 30  30 30 30  29 29 29  28 28 28  28 28 28  27 27 27  26 26 26  26 26 26  25 25 25  24 24 24  24 24 24  23 23 23  23 23 23  22 22 22  21 21 21  21 21 21  20 20 20  19 19 19  19 19 19  18 18 18  18 18 18  17 17 17  17 17 17  
196 196 196  189 189 189  183 183 183  178 178 178  174 174 174  169 169 169  166 166 166  162 162 162  159 159 159  155 155 155  152 152 152  149 149 149  147 147 147  144 144 144  141 141 141  139 139 139  136 136 136  134 134 134  132 132 132  130 130 130  127 127 127  125 125 125  123 123 123  121 121 121  120 120 120  118 118 118  116 116 116  114 114 114  112 112 112  111 111 111  109 109 109  107 107 107  106 106 106  104 104 104  102 102 102  101 101 101  99 99 99  98 98 98  96 96 96  95 95 95  94 94 94  92 92 92  91 91 91  89 89 89  88 88 88  87 87 87  85 85 85  84 84 84  83 83 83  82 82 82  81 81 81  79 79 79  78 78 78  77 77 77  76 76 76  75 75 75  74 74 74  72 72 72  71 71 71  70 70 70  69 69 69  68 68 68  67 67 67  66 66 66  65 65 65  64 64 64  63 63 63  62 62 62  61 61 61  60 60 60  59 59 59  58 58 58  57 57 57  56 56 56  55 55 55  55 55 55  54 54 54  53 53 53  52 52 52  51 51 51  50 50 50  49 49 49  48 48 48  48 48 48  47 47 47  46 46 46  45 45 45  44 44 44  43 43 43  43 43 43  42 42 42  41 41 41  40 40 40  40 40 40  39 39 39  38 38 38  37 37 37  37 37 37  36 36 36  35 35 35  34 34 34  34 34 34  33 33 33  32 32 32  32 32 32  31 31 31  30 30 30  30 30 30  29 29 29  28 28 28  28 28 28  27 27 27  26 26 26  26 26 26  25 25 25  24 24 24  24 24 24  23 23 23  22 22 22  22 22 22  21 21 21  21 21 21  20 20 20  19 19 19  19 19 19  18 18 18  18 18 18  17 17 17  
195 195 195  188 188 188  182 182 182  177 177 177  172 172 172  168 168 168  165 165 165  161 161 161  158 158 158  155 155 155  152 152 152  149 149 149  146 146 146  143 143 143  141 141 141  138 138 138  136 136 136  134 134 134  131 131 131  129 129 129  127 127 127  125 125 125  123 123 123  121 121 121  119 119 119  117 117 117  116 116 116  114 114 114  112 112 112  110 110 110  109 109 109  107 107 107  105 105 105  104 104 104  102 102 102  101 101 101  99 99 99  98 98 98  96 96 96  95 95 95  94 94 94  92 92 92  91 91 91  89 89 89  88 88 88  87 87 87  86 86 86  84 84 84  83 83 83  82 82 82  81 81 81  79 79 79  78 78 78  77 77 77  76 76 76  75 75 75  74 74 74  73 73 73  72 72 72  70 70 70  69 69 69  68 68 68  67 67 67  66 66 66  65 65 65  64 64 64  63 63 63  62 62 62  61 61 61  60 60 60  59 59 59  59 59 59  58 58 58  57 57 57  56 56 56  55 55 55  54 54 54  53 53 53  52 52 52  51 51 51  51 51 51  50 50 50  49 49 49  48 48 48  47 47 47  46 46 46  46 46 46  45 45 45  44 44 44  43 43 43  42 42 42  42 42 42  41 41 41  40 40 40  39 39 39  39 39 39  38 38 38  37 37 37  36 36 36  36 36 36  35 35 35  34 34 34  33 33 33  33 33 33  32 32 32  31 31 31  31 31 31  30 30 30  29 29 29  29 29 29  28 28 28  27 27 27  27 27 27  26 26 26  25 25 25  25 25 25  24 24 24  24 24 24  23 23 23  22 22 22  22 22 22  21 21 21  21 21 21  20 20 20  19 19 19  19 19 19  18 18 18  18 18 18  
193 193 193  186 186 186  181 181 181  176 176 176  171 171 171  167 167 167  164 164 164  160 160 160  157 157 157  154 154 154  151 151 151  148 148 148  145 145 145  143 143 143  140 140 140  138 138 138  135 135 135  133 133 133  131 131 131  129 129 129  127 127 127  125 125 125  123 123 123  121 121 121  119 119 119  117 117 117  115 115 115  113 113 113  112 112 112  110 110 110  108 108 108  107 107 107  105 105 105  104 104 104  102 102 102  101 101 101  99 99 99  98 98 98  96 96 96  95 95 95  94 94 94  92 92 92  91 91 91  90 90 90  88 88 88  87 87 87  86 86 86  84 84 84  83 83 83  82 82 82  81 81 81  80 80 80  78 78 78  77 77 77  76 76 76  75 75 75  74 74 74  73 73 73  72 72 72  71 71 71  70 70 70  69 69 69  68 68 68  67 67 67  66 66 66  65 65 65  64 64 64  63 63 63  62 62 62  61 61 61  60 60 60  59 59 59  58 58 58  57 57 57  56 56 56  55 55 55  54 54 54  54 54 54  53 53 53  52 52 52  51 51 51  50 50 50  49 49 49  48 48 48  48 48 48  47 47 47  46 46 46  45 45 45  44 44 44  44 44 44  43 43 43  42 42 42  41 41 41  41 41 41  40 40 40  39 39 39  38 38 38  38 38 38  37 37 37  36 36 36  35 35 35  35 35 35  34 34 34  33 33 33  33 33 33  32 32 32  31 31 31  31 31 31  30 30 30  29 29 29  29 29 29  28 28 28  27 27 27  27 27 27  26 26 26  25 25 25  25 25 25  24 24 24  23 23 23  23 23 23  22 22 22  22 22 22  21 21 21  20 20 20  20 20 20  19 19 19  19 19 19  18 18 18  
192 192 192  185 185 185  180 180 180  175 175 175  170 170 170  166 166 166  163 163 163  159 159 159  156 156 156  153 153 153  150 150 150  147 147 147  145 145 145  142 142 142  139 139 139  137 137 137  135 135 135  132 132 132  130 130 130  128 128 128  126 126 126  124 124 124  122 122 122  120 120 120  119 119 119  117 117 117  115 115 115  113 113 113  111 111 111  110 110 110  108 108 108  107 107 107  105 105 105  104 104 104  102 102 102  101 101 101  99 99 99  98 98 98  96 96 96  95 95 95  94 94 94  92 92 92  91 91 91  90 90 90  88 88 88  87 87 87  86 86 86  84 84 84  83 83 83  82 82 82  81 81 81  80 80 80  79 79 79  77 77 77  76 76 76  75 75 75  74 74 74  73 73 73  72 72 72  71 71 71  70 70 70  69 69 69  68 68 68  67 67 67  66 66 66  65 65 65  64 64 64  63 63 63  62 62 62  61 61 61  60 60 60  59 59 59  58 58 58  57 57 57  56 56 56  56 56 56  55 55 55  54 54 54  53 53 53  52 52 52  51 51 51  50 50 50  50 50 50  49 49 49  48 48 48  47 47 47  46 46 46  46 46 46  45 45 45  44 44 44  43 43 43  42 42 42  42 42 42  41 41 41  40 40 40  39 39 39  39 39 39  38 38 38  37 37 37  37 37 37  36 36 36  35 35 35  34 34 34  34 34 34  33 33 33  32 32 32  32 32 32  31 31 31  30 30 30  30 30 30  29 29 29  28 28 28  28 28 28  27 27 27  26 26 26  26 26 26  25 25 25  25 25 25  24 24 24  23 23 23  23 23 23  22 22 22  22 22 22  21 21 21  20 20 20  20 20 20  19 19 19  19 19 19  
191 191 191  184 184 184  178 178 178  174 174 174  169 169 169  165 165 165  162 162 162  158 158 158  155 155 155  152 152 152  149 149 149  147 147 147  144 144 144  141 141 141  139 139 139  137 137 137  134 134 134  132 132 132  130 130 130  128 128 128  126 126 126  124 124 124  122 122 122  120 120 120  118 118 118  116 116 116  115 115 115  113 113 113  111 111 111  110 110 110  108 108 108  106 106 106  105 105 105  103 103 103  102 102 102  100 100 100  99 99 99  98 98 98  96 96 96  95 95 95  93 93 93  92 92 92  91 91 91  90 90 90  88 88 88  87 87 87  86 86 86  85 85 85  83 83 83  82 82 82  81 81 81  80 80 80  79 79 79  78 78 78  77 77 77  75 75 75  74 74 74  73 73 73  72 72 72  71 71 71  70 70 70  69 69 69  68 68 68  67 67 67  66 66 66  65 65 65  64 64 64  63 63 63  62 62 62  61 61 61  60 60 60  60 60 60  59 59 59  58 58 58  57 57 57  56 56 56  55 55 55  54 54 54  53 53 53  53 53 53  52 52 52  51 51 51  50 50 50  49 49 49  48 48 48  48 48 48  47 47 47  46 46 46  45 45 45  44 44 44  44 44 44  43 43 43  42 42 42  41 41 41  41 41 41  40 40 40  39 39 39  38 38 38  38 38 38  37 37 37  36 36 36  36 36 36  35 35 35  34 34 34  34 34 34  33 33 33  32 32 32  32 32 32  31 31 31  30 30 30  30 30 30  29 29 29  28 28 28  28 28 28  27 27 27  26 26 26  26 26 26  25 25 25  24 24 24  24 24 24  23 23 23  23 23 23  22 22 22  21 21 21  21 21 21  20 20 20  20 20 20  19 19 19  
189 189 189  183 183 183  177 177 177  173 173 173  168 168 168  164 164 164  161 161 161  158 158 158  154 154 154  151 151 151  149 149 149  146 146 146  143 143 143  141 141 141  138 138 138  136 136 136  134 134 134  131 131 131  129 129 129  127 127 127  125 125 125  123 123 123  122 122 122  120 120 120  118 118 118  116 116 116  114 114 114  113 113 113  111 111 111  109 109 109  108 108 108  106 106 106  105 105 105  103 103 103  102 102 102  100 100 100  99 99 99  97 97 97  96 96 96  95 95 95  93 93 93  92 92 92  91 91 91  90 90 90  88 88 88  87 87 87  86 86 86  85 85 85  83 83 83  82 82 82  81 81 81  80 80 80  79 79 79  78 78 78  77 77 77  76 76 76  75 75 75  73 73 73  72 72 72  71 71 71  70 70 70  69 69 69  68 68 68  67 67 67  66 66 66  65 65 65  64 64 64  63 63 63  63 63 63  62 62 62  61 61 61  60 60 60  59 59 59  58 58 58  57 57 57  56 56 56  55 55 55  55 55 55  54 54 54  53 53 53  52 52 52  51 51 51  50 50 50  50 50 50  49 49 49  48 48 48  47 47 47  46 46 46  46 46 46  45 45 45  44 44 44  43 43 43  43 43 43  42 42 42  41 41 41  40 40 40  40 40 40  39 39 39  38 38 38  38 38 38  37 37 37  36 36 36  35 35 35  35 35 35  34 34 34  33 33 33  33 33 33  32 32 32  31 31 31  31 31 31  30 30 30  29 29 29  29 29 29  28 28 28  27 27 27  27 27 27  26 26 26  26 26 26  25 25 25  24 24 24  24 24 24  23 23 23  23 23 23  22 22 22  21 21 21  21 21 21  20 20 20  20 20 20  
188 188 188  182 182 182  176 176 176  172 172 172  167 167 167  164 164 164  160 160 160  157 157 157  154 154 154  151 151 151  148 148 148  145 145 145  143 143 143  140 140 140  138 138 138  135 135 135  133 133 133  131 131 131  129 129 129  127 127 127  125 125 125  123 123 123  121 121 121  119 119 119  118 118 118  116 116 116  114 114 114  112 112 112  111 111 111  109 109 109  108 108 108  106 106 106  105 105 105  103 103 103  102 102 102  100 100 100  99 99 99  97 97 97  96 96 96  95 95 95  93 93 93  92 92 92  91 91 91  90 90 90  88 88 88  87 87 87  86 86 86  85 85 85  84 84 84  82 82 82  81 81 81  80 80 80  79 79 79  78 78 78  77 77 77  76 76 76  75 75 75  74 74 74  73 73 73  72 72 72  71 71 71  70 70 70  69 69 69  68 68 68  67 67 67  66 66 66  65 65 65  64 64 64  63 63 63  62 62 62  61 61 61  60 60 60  59 59 59  58 58 58  58 58 58  57 57 57  56 56 56  55 55 55  54 54 54  53 53 53  52 52 52  52 52 52  51 51 51  50 50 50  49 49 49  48 48 48  48 48 48  47 47 47  46 46 46  45 45 45  45 45 45  44 44 44  43 43 43  42 42 42  42 42 42  41 41 41  40 40 40  39 39 39  39 39 39  38 38 38  37 37 37  37 37 37  36 36 36  35 35 35  35 35 35  34 34 34  33 33 33  32 32 32  32 32 32  31 31 31  31 31 31  30 30 30  29 29 29  29 29 29  28 28 28  27 27 27  27 27 27  26 26 26  25 25 25  25 25 25  24 24 24  24 24 24  23 23 23  22 22 22  22 22 22  21 21 21  21 21 21  20 20 20  
187 187 187  180 180 180  175 175 175  171 171 171  166 166 166  163 163 163  159 159 159  156 156 156  153 153 153  150 150 150  147 147 147  145 145 145  142 142 142  140 140 140  137 137 137  135 135 135  133 133 133  131 131 131  128 128 128  127 127 127  125 125 125  123 123 123  121 121 121  119 119 119  117 117 117  115 115 115  114 114 114  112 112 112  111 111 111  109 109 109  107 107 107  106 106 106  104 104 104  103 103 103  101 101 101  100 100 100  99 99 99  97 97 97  96 96 96  95 95 95  93 93 93  92 92 92  91 91 91  90 90 90  88 88 88  87 87 87  86 86 86  85 85 85  84 84 84  82 82 82  81 81 81  80 80 80  79 79 79  78 78 78  77 77 77  76 76 76  75 75 75  74 74 74  73 73 73  72 72 72  71 71 71  70 70 70  69 69 69  68 68 68  67 67 67  66 66 66  65 65 65  64 64 64  63 63 63  62 62 62  61 61 61  60 60 60  60 60 60  59 59 59  58 58 58  57 57 57  56 56 56  55 55 55  54 54 54  54 54 54  53 53 53  52 52 52  51 51 51  50 50 50  50 50 50  49 49 49  48 48 48  47 47 47  46 46 46  46 46 46  45 45 45  44 44 44  43 43 43  43 43 43  42 42 42  41 41 41  41 41 41  40 40 40  39 39 39  38 38 38  38 38 38  37 37 37  36 36 36  36 36 36  35 35 35  34 34 34  34 34 34  33 33 33  32 32 32  32 32 32  31 31 31  30 30 30  30 30 30  29 29 29  28 28 28  28 28 28  27 27 27  27 27 27  26 26 26  25 25 25  25 25 25  24 24 24  23 23 23  23 23 23  22 22 22  22 22 22  21 21 21  21 21 21  
186 186 186  179 179 179  174 174 174  170 170 170  166 166 166  162 162 162  158 158 158  155 155 155  152 152 152  149 149 149  147 147 147  144 144 144  141 141 141  139 139 139  137 137 137  134 134 134  132 132 132  130 130 130  128 128 128  126 126 126  124 124 124  122 122 122  120 120 120  119 119 119  117 117 117  115 115 115  114 114 114  112 112 112  110 110 110  109 109 109  107 107 107  106 106 106  104 104 104  103 103 103  101 101 101  100 100 100  99 99 99  97 97 97  96 96 96  95 95 95  93 93 93  92 92 92  91 91 91  90 90 90  88 88 88  87 87 87  86 86 86  85 85 85  84 84 84  83 83 83  81 81 81  80 80 80  79 79 79  78 78 78  77 77 77  76 76 76  75 75 75  74 74 74  73 73 73  72 72 72  71 71 71  70 70 70  69 69 69  68 68 68  67 67 67  66 66 66  65 65 65  64 64 64  63 63 63  63 63 63  62 62 62  61 61 61  60 60 60  59 59 59  58 58 58  57 57 57  56 56 56  56 56 56  55 55 55  54 54 54  53 53 53  52 52 52  52 52 52  51 51 51  50 50 50  49 49 49  48 48 48  48 48 48  47 47 47  46 46 46  45 45 45  45 45 45  44 44 44  43 43 43  42 42 42  42 42 42  41 41 41  40 40 40  40 40 40  39 39 39  38 38 38  37 37 37  37 37 37  36 36 36  35 35 35  35 35 35  34 34 34  33 33 33  33 33 33  32 32 32  31 31 31  31 31 31  30 30 30  30 30 30  29 29 29  28 28 28  28 28 28  27 27 27  26 26 26  26 26 26  25 25 25  25 25 25  24 24 24  23 23 23  23 23 23  22 22 22  22 22 22  21 21 21  
185 185 185  178 178 178  173 173 173  169 169 169  165 165 165  161 161 161  158 158 158  154 154 154  151 151 151  149 149 149  146 146 146  143 143 143  141 141 141  138 138 138  136 136 136  134 134 134  132 132 132  130 130 130  128 128 128  126 126 126  124 124 124  122 122 122  120 120 120  118 118 118  117 117 117  115 115 115  113 113 113  112 112 112  110 110 110  109 109 109  107 107 107  106 106 106  104 104 104  103 103 103  101 101 101  100 100 100  98 98 98  97 97 97  96 96 96  95 95 95  93 93 93  92 92 92  91 91 91  90 90 90  88 88 88  87 87 87  86 86 86  85 85 85  84 84 84  83 83 83  82 82 82  80 80 80  79 79 79  78 78 78  77 77 77  76 76 76  75 75 75  74 74 74  73 73 73  72 72 72  71 71 71  70 70 70  69 69 69  68 68 68  67 67 67  66 66 66  65 65 65  65 65 65  64 64 64  63 63 63  62 62 62  61 61 61  60 60 60  59 59 59  58 58 58  58 58 58  57 57 57  56 56 56  55 55 55  54 54 54  53 53 53  53 53 53  52 52 52  51 51 51  50 50 50  50 50 50  49 49 49  48 48 48  47 47 47  47 47 47  46 46 46  45 45 45  44 44 44  44 44 44  43 43 43  42 42 42  41 41 41  41 41 41  40 40 40  39 39 39  39 39 39  38 38 38  37 37 37  37 37 37  36 36 36  35 35 35  35 35 35  34 34 34  33 33 33  33 33 33  32 32 32  31 31 31  31 31 31  30 30 30  29 29 29  29 29 29  28 28 28  27 27 27  27 27 27  26 26 26  26 26 26  25 25 25  24 24 24  24 24 24  23 23 23  23 23 23  22 22 22  22 22 22  
184 184 184  177 177 177  172 172 172  168 168 168  164 164 164  160 160 160  157 157 157  154 154 154  151 151 151  148 148 148  145 145 145  143 143 143  140 140 140  138 138 138  136 136 136  133 133 133  131 131 131  129 129 129  127 127 127  125 125 125  123 123 123  122 122 122  120 120 120  118 118 118  116 116 116  115 115 115  113 113 113  111 111 111  110 110 110  108 108 108  107 107 107  105 105 105  104 104 104  102 102 102  101 101 101  100 100 100  98 98 98  97 97 97  96 96 96  95 95 95  93 93 93  92 92 92  91 91 91  90 90 90  88 88 88  87 87 87  86 86 86  85 85 85  84 84 84  83 83 83  82 82 82  80 80 80  79 79 79  78 78 78  77 77 77  76 76 76  75 75 75  74 74 74  73 73 73  72 72 72  71 71 71  70 70 70  69 69 69  68 68 68  68 68 68  67 67 67  66 66 66  65 65 65  64 64 64  63 63 63  62 62 62  61 61 61  60 60 60  60 60 60  59 59 59  58 58 58  57 57 57  56 56 56  55 55 55  55 55 55  54 54 54  53 53 53  52 52 52  51 51 51  51 51 51  50 50 50  49 49 49  48 48 48  48 48 48  47 47 47  46 46 46  45 45 45  45 45 45  44 44 44  43 43 43  43 43 43  42 42 42  41 41 41  40 40 40  40 40 40  39 39 39  38 38 38  38 38 38  37 37 37  36 36 36  36 36 36  35 35 35  34 34 34  34 34 34  33 33 33  32 32 32  32 32 32  31 31 31  30 30 30  30 30 30  29 29 29  29 29 29  28 28 28  27 27 27  27 27 27  26 26 26  26 26 26  25 25 25  24 24 24  24 24 24  23 23 23  23 23 23  22 22 22  
183 183 183  176 176 176  171 171 171  167 167 167  163 163 163  159 159 159  156 156 156  153 153 153  150 150 150  147 147 147  145 145 145  142 142 142  140 140 140  137 137 137  135 135 135  133 133 133  131 131 131  129 129 129  127 127 127  125 125 125  123 123 123  121 121 121  119 119 119  118 118 118  116 116 116  114 114 114  113 113 113  111 111 111  110 110 110  108 108 108  107 107 107  105 105 105  104 104 104  102 102 102  101 101 101  100 100 100  98 98 98  97 97 97  96 96 96  94 94 94  93 93 93  92 92 92  91 91 91  90 90 90  88 88 88  87 87 87  86 86 86  85 85 85  84 84 84  83 83 83  82 82 82  81 81 81  80 80 80  79 79 79  77 77 77  76 76 76  75 75 75  74 74 74  73 73 73  72 72 72  72 72 72  71 71 71  70 70 70  69 69 69  68 68 68  67 67 67  66 66 66  65 65 65  64 64 64  63 63 63  62 62 62  62 62 62  61 61 61  60 60 60  59 59 59  58 58 58  57 57 57  57 57 57  56 56 56  55 55 55  54 54 54  53 53 53  53 53 53  52 52 52  51 51 51  50 50 50  49 49 49  49 49 49  48 48 48  47 47 47  47 47 47  46 46 46  45 45 45  44 44 44  44 44 44  43 43 43  42 42 42  41 41 41  41 41 41  40 40 40  39 39 39  39 39 39  38 38 38  37 37 37  37 37 37  36 36 36  35 35 35  35 35 35  34 34 34  33 33 33  33 33 33  32 32 32  32 32 32  31 31 31  30 30 30  30 30 30  29 29 29  28 28 28  28 28 28  27 27 27  27 27 27  26 26 26  25 25 25  25 25 25  24 24 24  24 24 24  23 23 23  22 22 22  
182 182 182  175 175 175  170 170 170  166 166 166  162 162 162  159 159 159  155 155 155  152 152 152  149 149 149  147 147 147  144 144 144  141 141 141  139 139 139  137 137 137  135 135 135  132 132 132  130 130 130  128 128 128  126 126 126  125 125 125  123 123 123  121 121 121  119 119 119  117 117 117  116 116 116  114 114 114  112 112 112  111 111 111  109 109 109  108 108 108  106 106 106  105 105 105  104 104 104  102 102 102  101 101 101  100 100 100  98 98 98  97 97 97  96 96 96  94 94 94  93 93 93  92 92 92  91 91 91  90 90 90  88 88 88  87 87 87  86 86 86  85 85 85  84 84 84  83 83 83  82 82 82  81 81 81  80 80 80  79 79 79  78 78 78  77 77 77  76 76 76  75 75 75  74 74 74  73 73 73  72 72 72  71 71 71  70 70 70  69 69 69  68 68 68  67 67 67  66 66 66  65 65 65  64 64 64  63 63 63  63 63 63  62 62 62  61 61 61  60 60 60  59 59 59  58 58 58  58 58 58  57 57 57  56 56 56  55 55 55  54 54 54  54 54 54  53 53 53  52 52 52  51 51 51  51 51 51  50 50 50  49 49 49  48 48 48  48 48 48  47 47 47  46 46 46  45 45 45  45 45 45  44 44 44  43 43 43  43 43 43  42 42 42  41 41 41  41 41 41  40 40 40  39 39 39  39 39 39  38 38 38  37 37 37  37 37 37  36 36 36  35 35 35  35 35 35  34 34 34  33 33 33  33 33 33  32 32 32  31 31 31  31 31 31  30 30 30  30 30 30  29 29 29  28 28 28  28 28 28  27 27 27  26 26 26  26 26 26  25 25 25  25 25 25  24 24 24  23 23 23  23 23 23  
181 181 181  174 174 174  169 169 169  165 165 165  161 161 161  158 158 158  155 155 155  152 152 152  149 149 149  146 146 146  143 143 143  141 141 141  139 139 139  136 136 136  134 134 134  132 132 132  130 130 130  128 128 128  126 126 126  124 124 124  122 122 122  121 121 121  119 119 119  117 117 117  115 115 115  114 114 114  112 112 112  111 111 111  109 109 109  108 108 108  106 106 106  105 105 105  103 103 103  102 102 102  101 101 101  99 99 99  98 98 98  97 97 97  96 96 96  94 94 94  93 93 93  92 92 92  91 91 91  90 90 90  88 88 88  87 87 87  86 86 86  85 85 85  84 84 84  83 83 83  82 82 82  81 81 81  80 80 80  79 79 79  78 78 78  77 77 77  76 76 76  75 75 75  74 74 74  73 73 73  72 72 72  71 71 71  70 70 70  69 69 69  68 68 68  67 67 67  66 66 66  65 65 65  65 65 65  64 64 64  63 63 63  62 62 62  61 61 61  60 60 60  60 60 60  59 59 59  58 58 58  57 57 57  56 56 56  56 56 56  55 55 55  54 54 54  53 53 53  52 52 52  52 52 52  51 51 51  50 50 50  49 49 49  49 49 49  48 48 48  47 47 47  47 47 47  46 46 46  45 45 45  44 44 44  44 44 44  43 43 43  42 42 42  42 42 42  41 41 41  40 40 40  40 40 40  39 39 39  38 38 38  38 38 38  37 37 37  36 36 36  36 36 36  35 35 35  34 34 34  34 34 34  33 33 33  32 32 32  32 32 32  31 31 31  31 31 31  30 30 30  29 29 29  29 29 29  28 28 28  28 28 28  27 27 27  26 26 26  26 26 26  25 25 25  25 25 25  24 24 24  23 23 23  
180 180 180  174 174 174  169 169 169  164 164 164  161 161 161  157 157 157  154 154 154  151 151 151  148 148 148  145 145 145  143 143 143  140 140 140  138 138 138  136 136 136  134 134 134  131 131 131  129 129 129  127 127 127  126 126 126  124 124 124  122 122 122  120 120 120  118 118 118  117 117 117  115 115 115  114 114 114  112 112 112  111 111 111  109 109 109  108 108 108  106 106 106  105 105 105  103 103 103  102 102 102  101 101 101  99 99 99  98 98 98  97 97 97  95 95 95  94 94 94  93 93 93  92 92 92  91 91 91  90 90 90  88 88 88  87 87 87  86 86 86  85 85 85  84 84 84  83 83 83  82 82 82  81 81 81  80 80 80  79 79 79  78 78 78  77 77 77  76 76 76  75 75 75  74 74 74  73 73 73  72 72 72  71 71 71  70 70 70  69 69 69  68 68 68  67 67 67  67 67 67  66 66 66  65 65 65  64 64 64  63 63 63  62 62 62  61 61 61  61 61 61  60 60 60  59 59 59  58 58 58  57 57 57  57 57 57  56 56 56  55 55 55  54 54 54  54 54 54  53 53 53  52 52 52  51 51 51  51 51 51  50 50 50  49 49 49  48 48 48  48 48 48  47 47 47  46 46 46  45 45 45  45 45 45  44 44 44  43 43 43  43 43 43  42 42 42  41 41 41  41 41 41  40 40 40  39 39 39  39 39 39  38 38 38  37 37 37  37 37 37  36 36 36  35 35 35  35 35 35  34 34 34  33 33 33  33 33 33  32 32 32  32 32 32  31 31 31  30 30 30  30 30 30  29 29 29  29 29 29  28 28 28  27 27 27  27 27 27  26 26 26  26 26 26  25 25 25  24 24 24  24 24 24  
179 179 179  173 173 173  168 168 168  164 164 164  160 160 160  156 156 156  153 153 153  150 150 150  147 147 147  145 145 145  142 142 142  140 140 140  137 137 137  135 135 135  133 133 133  131 131 131  129 129 129  127 127 127  125 125 125  123 123 123  122 122 122  120 120 120  118 118 118  116 116 116  115 115 115  113 113 113  112 112 112  110 110 110  109 109 109  107 107 107  106 106 106  105 105 105  103 103 103  102 102 102  100 100 100  99 99 99  98 98 98  97 97 97  95 95 95  94 94 94  93 93 93  92 92 92  91 91 91  90 90 90  88 88 88  87 87 87  86 86 86  85 85 85  84 84 84  83 83 83  82 82 82  81 81 81  80 80 80  79 79 79  78 78 78  77 77 77  76 76 76  75 75 75  74 74 74  73 73 73  72 72 72  71 71 71  70 70 70  69 69 69  69 69 69  68 68 68  67 67 67  66 66 66  65 65 65  64 64 64  63 63 63  63 63 63  62 62 62  61 61 61  60 60 60  59 59 59  58 58 58  58 58 58  57 57 57  56 56 56  55 55 55  55 55 55  54 54 54  53 53 53  52 52 52  52 52 52  51 51 51  50 50 50  49 49 49  49 49 49  48 48 48  47 47 47  47 47 47  46 46 46  45 45 45  44 44 44  44 44 44  43 43 43  42 42 42  42 42 42  41 41 41  40 40 40  40 40 40  39 39 39  38 38 38  38 38 38  37 37 37  36 36 36  36 36 36  35 35 35  35 35 35  34 34 34  33 33 33  33 33 33  32 32 32  31 31 31  31 31 31  30 30 30  30 30 30  29 29 29  28 28 28  28 28 28  27 27 27  27 27 27  26 26 26  25 25 25  25 25 25  24 24 24  
178 178 178  172 172 172  167 167 167  163 163 163  159 159 159  156 156 156  153 153 153  150 150 150  147 147 147  144 144 144  142 142 142  139 139 139  137 137 137  135 135 135  133 133 133  131 131 131  129 129 129  127 127 127  125 125 125  123 123 123  121 121 121  120 120 120  118 118 118  116 116 116  115 115 115  113 113 113  112 112 112  110 110 110  109 109 109  107 107 107  106 106 106  104 104 104  103 103 103  102 102 102  100 100 100  99 99 99  98 98 98  97 97 97  95 95 95  94 94 94  93 93 93  92 92 92  91 91 91  90 90 90  88 88 88  87 87 87  86 86 86  85 85 85  84 84 84  83 83 83  82 82 82  81 81 81  80 80 80  79 79 79  78 78 78  77 77 77  76 76 76  75 75 75  74 74 74  73 73 73  72 72 72  71 71 71  71 71 71  70 70 70  69 69 69  68 68 68  67 67 67  66 66 66  65 65 65  64 64 64  64 64 64  63 63 63  62 62 62  61 61 61  60 60 60  60 60 60  59 59 59  58 58 58  57 57 57  56 56 56  56 56 56  55 55 55  54 54 54  53 53 53  53 53 53  52 52 52  51 51 51  50 50 50  50 50 50  49 49 49  48 48 48  48 48 48  47 47 47  46 46 46  45 45 45  45 45 45  44 44 44  43 43 43  43 43 43  42 42 42  41 41 41  41 41 41  40 40 40  39 39 39  39 39 39  38 38 38  37 37 37  37 37 37  36 36 36  36 36 36  35 35 35  34 34 34  34 34 34  33 33 33  32 32 32  32 32 32  31 31 31  31 31 31  30 30 30  29 29 29  29 29 29  28 28 28  28 28 28  27 27 27  26 26 26  26 26 26  25 25 25  25 25 25  
177 177 177  171 171 171  166 166 166  162 162 162  158 158 158  155 155 155  152 152 152  149 149 149  146 146 146  144 144 144  141 141 141  139 139 139  136 136 136  134 134 134  132 132 132  130 130 130  128 128 128  126 126 126  124 124 124  123 123 123  121 121 121  119 119 119  118 118 118  116 116 116  114 114 114  113 113 113  111 111 111  110 110 110  108 108 108  107 107 107  106 106 106  104 104 104  103 103 103  102 102 102  100 100 100  99 99 99  98 98 98  96 96 96  95 95 95  94 94 94  93 93 93  92 92 92  91 91 91  90 90 90  88 88 88  87 87 87  86 86 86  85 85 85  84 84 84  83 83 83  82 82 82  81 81 81  80 80 80  79 79 79  78 78 78  77 77 77  76 76 76  75 75 75  74 74 74  73 73 73  72 72 72  72 72 72  71 71 71  70 70 70  69 69 69  68 68 68  67 67 67  66 66 66  65 65 65  65 65 65  64 64 64  63 63 63  62 62 62  61 61 61  61 61 61  60 60 60  59 59 59  58 58 58  57 57 57  57 57 57  56 56 56  55 55 55  54 54 54  54 54 54  53 53 53  52 52 52  51 51 51  51 51 51  50 50 50  49 49 49  49 49 49  48 48 48  47 47 47  47 47 47  46 46 46  45 45 45  44 44 44  44 44 44  43 43 43  42 42 42  42 42 42  41 41 41  40 40 40  40 40 40  39 39 39  39 39 39  38 38 38  37 37 37  37 37 37  36 36 36  35 35 35  35 35 35  34 34 34  33 33 33  33 33 33  32 32 32  32 32 32  31 31 31  30 30 30  30 30 30  29 29 29  29 29 29  28 28 28  28 28 28  27 27 27  26 26 26  26 26 26  25 25 25  
176 176 176  170 170 170  165 165 165  161 161 161  158 158 158  154 154 154  151 151 151  148 148 148  146 146 146  143 143 143  141 141 141  138 138 138  136 136 136  134 134 134  132 132 132  130 130 130  128 128 128  126 126 126  124 124 124  122 122 122  121 121 121  119 119 119  117 117 117  116 116 116  114 114 114  113 113 113  111 111 111  110 110 110  108 108 108  107 107 107  105 105 105  104 104 104  103 103 103  101 101 101  100 100 100  99 99 99  98 98 98  96 96 96  95 95 95  94 94 94  93 93 93  92 92 92  91 91 91  90 90 90  88 88 88  87 87 87  86 86 86  85 85 85  84 84 84  83 83 83  82 82 82  81 81 81  80 80 80  79 79 79  78 78 78  77 77 77  76 76 76  75 75 75  74 74 74  74 74 74  73 73 73  72 72 72  71 71 71  70 70 70  69 69 69  68 68 68  67 67 67  67 67 67  66 66 66  65 65 65  64 64 64  63 63 63  62 62 62  62 62 62  61 61 61  60 60 60  59 59 59  58 58 58  58 58 58  57 57 57  56 56 56  55 55 55  55 55 55  54 54 54  53 53 53  53 53 53  52 52 52  51 51 51  50 50 50  50 50 50  49 49 49  48 48 48  48 48 48  47 47 47  46 46 46  46 46 46  45 45 45  44 44 44  43 43 43  43 43 43  42 42 42  41 41 41  41 41 41  40 40 40  40 40 40  39 39 39  38 38 38  38 38 38  37 37 37  36 36 36  36 36 36  35 35 35  35 35 35  34 34 34  33 33 33  33 33 33  32 32 32  31 31 31  31 31 31  30 30 30  30 30 30  29 29 29  29 29 29  28 28 28  27 27 27  27 27 27  26 26 26  26 26 26  
175 175 175  169 169 169  165 165 165  161 161 161  157 157 157  154 154 154  151 151 151  148 148 148  145 145 145  143 143 143  140 140 140  138 138 138  135 135 135  133 133 133  131 131 131  129 129 129  127 127 127  126 126 126  124 124 124  122 122 122  120 120 120  119 119 119  117 117 117  115 115 115  114 114 114  112 112 112  111 111 111  109 109 109  108 108 108  107 107 107  105 105 105  104 104 104  103 103 103  101 101 101  100 100 100  99 99 99  98 98 98  96 96 96  95 95 95  94 94 94  93 93 93  92 92 92  91 91 91  89 89 89  88 88 88  87 87 87  86 86 86  85 85 85  84 84 84  83 83 83  82 82 82  81 81 81  80 80 80  79 79 79  78 78 78  77 77 77  76 76 76  75 75 75  75 75 75  74 74 74  73 73 73  72 72 72  71 71 71  70 70 70  69 69 69  68 68 68  68 68 68  67 67 67  66 66 66  65 65 65  64 64 64  63 63 63  63 63 63  62 62 62  61 61 61  60 60 60  60 60 60  59 59 59  58 58 58  57 57 57  56 56 56  56 56 56  55 55 55  54 54 54  54 54 54  53 53 53  52 52 52  51 51 51  51 51 51  50 50 50  49 49 49  49 49 49  48 48 48  47 47 47  47 47 47  46 46 46  45 45 45  44 44 44  44 44 44  43 43 43  43 43 43  42 42 42  41 41 41  41 41 41  40 40 40  39 39 39  39 39 39  38 38 38  37 37 37  37 37 37  36 36 36  36 36 36  35 35 35  34 34 34  34 34 34  33 33 33  32 32 32  32 32 32  31 31 31  31 31 31  30 30 30  30 30 30  29 29 29  28 28 28  28 28 28  27 27 27  27 27 27  26 26 26  
174 174 174  168 168 168  164 164 164  160 160 160  156 156 156  153 153 153  150 150 150  147 147 147  145 145 145  142 142 142  140 140 140  137 137 137  135 135 135  133 133 133  131 131 131  129 129 129  127 127 127  125 125 125  123 123 123  122 122 122  120 120 120  118 118 118  117 117 117  115 115 115  114 114 114  112 112 112  111 111 111  109 109 109  108 108 108  106 106 106  105 105 105  104 104 104  102 102 102  101 101 101  100 100 100  99 99 99  97 97 97  96 96 96  95 95 95  94 94 94  93 93 93  92 92 92  91 91 91  89 89 89  88 88 88  87 87 87  86 86 86  85 85 85  84 84 84  83 83 83  82 82 82  81 81 81  80 80 80  79 79 79  78 78 78  77 77 77  77 77 77  76 76 76  75 75 75  74 74 74  73 73 73  72 72 72  71 71 71  70 70 70  69 69 69  69 69 69  68 68 68  67 67 67  66 66 66  65 65 65  64 64 64  64 64 64  63 63 63  62 62 62  61 61 61  61 61 61  60 60 60  59 59 59  58 58 58  57 57 57  57 57 57  56 56 56  55 55 55  55 55 55  54 54 54  53 53 53  52 52 52  52 52 52  51 51 51  50 50 50  50 50 50  49 49 49  48 48 48  48 48 48  47 47 47  46 46 46  46 46 46  45 45 45  44 44 44  44 44 44  43 43 43  42 42 42  42 42 42  41 41 41  40 40 40  40 40 40  39 39 39  38 38 38  38 38 38  37 37 37  37 37 37  36 36 36  35 35 35  35 35 35  34 34 34  34 34 34  33 33 33  32 32 32  32 32 32  31 31 31  31 31 31  30 30 30  29 29 29  29 29 29  28 28 28  28 28 28  27 27 27  26 26 26  
173 173 173  168 168 168  163 163 163  159 159 159  156 156 156  152 152 152  149 149 149  147 147 147  144 144 144  141 141 141  139 139 139  137 137 137  135 135 135  132 132 132  130 130 130  128 128 128  127 127 127  125 125 125  123 123 123  121 121 121  120 120 120  118 118 118  116 116 116  115 115 115  113 113 113  112 112 112  110 110 110  109 109 109  108 108 108  106 106 106  105 105 105  104 104 104  102 102 102  101 101 101  100 100 100  99 99 99  97 97 97  96 96 96  95 95 95  94 94 94  93 93 93  92 92 92  91 91 91  89 89 89  88 88 88  87 87 87  86 86 86  85 85 85  84 84 84  83 83 83  82 82 82  81 81 81  80 80 80  79 79 79  78 78 78  78 78 78  77 77 77  76 76 76  75 75 75  74 74 74  73 73 73  72 72 72  71 71 71  70 70 70  70 70 70  69 69 69  68 68 68  67 67 67  66 66 66  65 65 65  65 65 65  64 64 64  63 63 63  62 62 62  62 62 62  61 61 61  60 60 60  59 59 59  58 58 58  58 58 58  57 57 57  56 56 56  56 56 56  55 55 55  54 54 54  53 53 53  53 53 53  52 52 52  51 51 51  51 51 51  50 50 50  49 49 49  49 49 49  48 48 48  47 47 47  47 47 47  46 46 46  45 45 45  45 45 45  44 44 44  43 43 43  43 43 43  42 42 42  41 41 41  41 41 41  40 40 40  39 39 39  39 39 39  38 38 38  38 38 38  37 37 37  36 36 36  36 36 36  35 35 35  35 35 35  34 34 34  33 33 33  33 33 33  32 32 32  32 32 32  31 31 31  30 30 30  30 30 30  29 29 29  29 29 29  28 28 28  27 27 27  27 27 27  
173 173 173  167 167 167  162 162 162  159 159 159  155 155 155  152 152 152  149 149 149  146 146 146  143 143 143  141 141 141  139 139 139  136 136 136  134 134 134  132 132 132  130 130 130  128 128 128  126 126 126  124 124 124  123 123 123  121 121 121  119 119 119  118 118 118  116 116 116  115 115 115  113 113 113  112 112 112  110 110 110  109 109 109  107 107 107  106 106 106  105 105 105  103 103 103  102 102 102  101 101 101  100 100 100  98 98 98  97 97 97  96 96 96  95 95 95  94 94 94  93 93 93  92 92 92  91 91 91  89 89 89  88 88 88  87 87 87  86 86 86  85 85 85  84 84 84  83 83 83  82 82 82  81 81 81  80 80 80  79 79 79  79 79 79  78 78 78  77 77 77  76 76 76  75 75 75  74 74 74  73 73 73  72 72 72  71 71 71  71 71 71  70 70 70  69 69 69  68 68 68  67 67 67  66 66 66  66 66 66  65 65 65  64 64 64  63 63 63  63 63 63  62 62 62  61 61 61  60 60 60  59 59 59  59 59 59  58 58 58  57 57 57  57 57 57  56 56 56  55 55 55  54 54 54  54 54 54  53 53 53  52 52 52  52 52 52  51 51 51  50 50 50  49 49 49  49 49 49  48 48 48  47 47 47  47 47 47  46 46 46  46 46 46  45 45 45  44 44 44  44 44 44  43 43 43  42 42 42  42 42 42  41 41 41  40 40 40  40 40 40  39 39 39  39 39 39  38 38 38  37 37 37  37 37 37  36 36 36  35 35 35  35 35 35  34 34 34  34 34 34  33 33 33  33 33 33  32 32 32  31 31 31  31 31 31  30 30 30  30 30 30  29 29 29  28 28 28  28 28 28  27 27 27  
172 172 172  166 166 166  162 162 162  158 158 158  154 154 154  151 151 151  148 148 148  146 146 146  143 143 143  140 140 140  138 138 138  136 136 136  134 134 134  132 132 132  130 130 130  128 128 128  126 126 126  124 124 124  122 122 122  121 121 121  119 119 119  117 117 117  116 116 116  114 114 114  113 113 113  111 111 111  110 110 110  109 109 109  107 107 107  106 106 106  105 105 105  103 103 103  102 102 102  101 101 101  100 100 100  98 98 98  97 97 97  96 96 96  95 95 95  94 94 94  93 93 93  92 92 92  90 90 90  89 89 89  88 88 88  87 87 87  86 86 86  85 85 85  84 84 84  83 83 83  82 82 82  81 81 81  80 80 80  79 79 79  79 79 79  78 78 78  77 77 77  76 76 76  75 75 75  74 74 74  73 73 73  72 72 72  72 72 72  71 71 71  70 70 70  69 69 69  68 68 68  67 67 67  67 67 67  66 66 66  65 65 65  64 64 64  63 63 63  63 63 63  62 62 62  61 61 61  60 60 60  60 60 60  59 59 59  58 58 58  57 57 57  57 57 57  56 56 56  55 55 55  55 55 55  54 54 54  53 53 53  53 53 53  52 52 52  51 51 51  50 50 50  50 50 50  49 49 49  48 48 48  48 48 48  47 47 47  46 46 46  46 46 46  45 45 45  45 45 45  44 44 44  43 43 43  43 43 43  42 42 42  41 41 41  41 41 41  40 40 40  39 39 39  39 39 39  38 38 38  38 38 38  37 37 37  36 36 36  36 36 36  35 35 35  35 35 35  34 34 34  33 33 33  33 33 33  32 32 32  32 32 32  31 31 31  31 31 31  30 30 30  29 29 29  29 29 29  28 28 28  28 28 28  
171 171 171  165 165 165  161 161 161  157 157 157  154 154 154  151 151 151  148 148 148  145 145 145  142 142 142  140 140 140  138 138 138  135 135 135  133 133 133  131 131 131  129 129 129  127 127 127  126 126 126  124 124 124  122 122 122  120 120 120  119 119 119  117 117 117  116 116 116  114 114 114  113 113 113  111 111 111  110 110 110  108 108 108  107 107 107  106 106 106  104 104 104  103 103 103  102 102 102  101 101 101  99 99 99  98 98 98  97 97 97  96 96 96  95 95 95  94 94 94  93 93 93  92 92 92  90 90 90  89 89 89  88 88 88  87 87 87  86 86 86  85 85 85  84 84 84  83 83 83  82 82 82  81 81 81  80 80 80  80 80 80  79 79 79  78 78 78  77 77 77  76 76 76  75 75 75  74 74 74  73 73 73  73 73 73  72 72 72  71 71 71  70 70 70  69 69 69  68 68 68  68 68 68  67 67 67  66 66 66  65 65 65  64 64 64  64 64 64  63 63 63  62 62 62  61 61 61  61 61 61  60 60 60  59 59 59  58 58 58  58 58 58  57 57 57  56 56 56  56 56 56  55 55 55  54 54 54  54 54 54  53 53 53  52 52 52  51 51 51  51 51 51  50 50 50  49 49 49  49 49 49  48 48 48  47 47 47  47 47 47  46 46 46  46 46 46  45 45 45  44 44 44  44 44 44  43 43 43  42 42 42  42 42 42  41 41 41  40 40 40  40 40 40  39 39 39  39 39 39  38 38 38  37 37 37  37 37 37  36 36 36  36 36 36  35 35 35  34 34 34  34 34 34  33 33 33  33 33 33  32 32 32  32 32 32  31 31 31  30 30 30  30 30 30  29 29 29  29 29 29  28 28 28  
170 170 170  165 165 165  160 160 160  157 157 157  153 153 153  150 150 150  147 147 147  144 144 144  142 142 142  139 139 139  137 137 137  135 135 135  133 133 133  131 131 131  129 129 129  127 127 127  125 125 125  123 123 123  122 122 122  120 120 120  118 118 118  117 117 117  115 115 115  114 114 114  112 112 112  111 111 111  110 110 110  108 108 108  107 107 107  106 106 106  104 104 104  103 103 103  102 102 102  101 101 101  99 99 99  98 98 98  97 97 97  96 96 96  95 95 95  94 94 94  93 93 93  91 91 91  90 90 90  89 89 89  88 88 88  87 87 87  86 86 86  85 85 85  84 84 84  83 83 83  82 82 82  81 81 81  81 81 81  80 80 80  79 79 79  78 78 78  77 77 77  76 76 76  75 75 75  74 74 74  73 73 73  73 73 73  72 72 72  71 71 71  70 70 70  69 69 69  69 69 69  68 68 68  67 67 67  66 66 66  65 65 65  65 65 65  64 64 64  63 63 63  62 62 62  62 62 62  61 61 61  60 60 60  59 59 59  59 59 59  58 58 58  57 57 57  57 57 57  56 56 56  55 55 55  54 54 54  54 54 54  53 53 53  52 52 52  52 52 52  51 51 51  50 50 50  50 50 50  49 49 49  48 48 48  48 48 48  47 47 47  46 46 46  46 46 46  45 45 45  45 45 45  44 44 44  43 43 43  43 43 43  42 42 42  41 41 41  41 41 41  40 40 40  40 40 40  39 39 39  38 38 38  38 38 38  37 37 37  37 37 37  36 36 36  35 35 35  35 35 35  34 34 34  34 34 34  33 33 33  33 33 33  32 32 32  31 31 31  31 31 31  30 30 30  30 30 30  29 29 29  29 29 29  
170 170 170  164 164 164  160 160 160  156 156 156  153 153 153  150 150 150  147 147 147  144 144 144  141 141 141  139 139 139  137 137 137  135 135 135  132 132 132  130 130 130  128 128 128  127 127 127  125 125 125  123 123 123  121 121 121  120 120 120  118 118 118  117 117 117  115 115 115  114 114 114  112 112 112  111 111 111  109 109 109  108 108 108  107 107 107  105 105 105  104 104 104  103 103 103  102 102 102  100 100 100  99 99 99  98 98 98  97 97 97  96 96 96  95 95 95  94 94 94  93 93 93  91 91 91  90 90 90  89 89 89  88 88 88  87 87 87  86 86 86  85 85 85  84 84 84  83 83 83  82 82 82  82 82 82  81 81 81  80 80 80  79 79 79  78 78 78  77 77 77  76 76 76  75 75 75  74 74 74  74 74 74  73 73 73  72 72 72  71 71 71  70 70 70  69 69 69  69 69 69  68 68 68  67 67 67  66 66 66  66 66 66  65 65 65  64 64 64  63 63 63  63 63 63  62 62 62  61 61 61  60 60 60  60 60 60  59 59 59  58 58 58  57 57 57  57 57 57  56 56 56  55 55 55  55 55 55  54 54 54  53 53 53  53 53 53  52 52 52  51 51 51  51 51 51  50 50 50  49 49 49  49 49 49  48 48 48  47 47 47  47 47 47  46 46 46  46 46 46  45 45 45  44 44 44  44 44 44  43 43 43  42 42 42  42 42 42  41 41 41  41 41 41  40 40 40  39 39 39  39 39 39  38 38 38  38 38 38  37 37 37  36 36 36  36 36 36  35 35 35  35 35 35  34 34 34  33 33 33  33 33 33  32 32 32  32 32 32  31 31 31  31 31 31  30 30 30  30 30 30  29 29 29  
169 169 169  163 163 163  159 159 159  155 155 155  152 152 152  149 149 149  146 146 146  143 143 143  141 141 141  139 139 139  136 136 136  134 134 134  132 132 132  130 130 130  128 128 128  126 126 126  125 125 125  123 123 123  121 121 121  120 120 120  118 118 118  116 116 116  115 115 115  113 113 113  112 112 112  111 111 111  109 109 109  108 108 108  107 107 107  105 105 105  104 104 104  103 103 103  101 101 101  100 100 100  99 99 99  98 98 98  97 97 97  96 96 96  95 95 95  94 94 94  92 92 92  91 91 91  90 90 90  89 89 89  88 88 88  87 87 87  86 86 86  85 85 85  84 84 84  83 83 83  83 83 83  82 82 82  81 81 81  80 80 80  79 79 79  78 78 78  77 77 77  76 76 76  75 75 75  75 75 75  74 74 74  73 73 73  72 72 72  71 71 71  70 70 70  70 70 70  69 69 69  68 68 68  67 67 67  66 66 66  66 66 66  65 65 65  64 64 64  63 63 63  63 63 63  62 62 62  61 61 61  61 61 61  60 60 60  59 59 59  58 58 58  58 58 58  57 57 57  56 56 56  56 56 56  55 55 55  54 54 54  54 54 54  53 53 53  52 52 52  52 52 52  51 51 51  50 50 50  50 50 50  49 49 49  48 48 48  48 48 48  47 47 47  46 46 46  46 46 46  45 45 45  45 45 45  44 44 44  43 43 43  43 43 43  42 42 42  41 41 41  41 41 41  40 40 40  40 40 40  39 39 39  39 39 39  38 38 38  37 37 37  37 37 37  36 36 36  36 36 36  35 35 35  34 34 34  34 34 34  33 33 33  33 33 33  32 32 32  32 32 32  31 31 31  30 30 30  30 30 30  29 29 29  
168 168 168  163 163 163  159 159 159  155 155 155  152 152 152  148 148 148  146 146 146  143 143 143  140 140 140  138 138 138  136 136 136  134 134 134  132 132 132  130 130 130  128 128 128  126 126 126  124 124 124  123 123 123  121 121 121  119 119 119  118 118 118  116 116 116  115 115 115  113 113 113  112 112 112  110 110 110  109 109 109  108 108 108  106 106 106  105 105 105  104 104 104  103 103 103  101 101 101  100 100 100  99 99 99  98 98 98  97 97 97  96 96 96  95 95 95  93 93 93  92 92 92  91 91 91  90 90 90  89 89 89  88 88 88  87 87 87  86 86 86  85 85 85  84 84 84  83 83 83  83 83 83  82 82 82  81 81 81  80 80 80  79 79 79  78 78 78  77 77 77  76 76 76  75 75 75  75 75 75  74 74 74  73 73 73  72 72 72  71 71 71  71 71 71  70 70 70  69 69 69  68 68 68  67 67 67  67 67 67  66 66 66  65 65 65  64 64 64  64 64 64  63 63 63  62 62 62  62 62 62  61 61 61  60 60 60  59 59 59  59 59 59  58 58 58  57 57 57  57 57 57  56 56 56  55 55 55  55 55 55  54 54 54  53 53 53  53 53 53  52 52 52  51 51 51  51 51 51  50 50 50  49 49 49  49 49 49  48 48 48  47 47 47  47 47 47  46 46 46  46 46 46  45 45 45  44 44 44  44 44 44  43 43 43  42 42 42  42 42 42  41 41 41  41 41 41  40 40 40  39 39 39  39 39 39  38 38 38  38 38 38  37 37 37  37 37 37  36 36 36  35 35 35  35 35 35  34 34 34  34 34 34  33 33 33  33 33 33  32 32 32  31 31 31  31 31 31  30 30 30  30 30 30  
167 167 167  162 162 162  158 158 158  154 154 154  151 151 151  148 148 148  145 145 145  142 142 142  140 140 140  138 138 138  135 135 135  133 133 133  131 131 131  129 129 129  127 127 127  126 126 126  124 124 124  122 122 122  121 121 121  119 119 119  117 117 117  116 116 116  114 114 114  113 113 113  111 111 111  110 110 110  109 109 109  107 107 107  106 106 106  105 105 105  104 104 104  102 102 102  101 101 101  100 100 100  99 99 99  98 98 98  97 97 97  96 96 96  94 94 94  93 93 93  92 92 92  91 91 91  90 90 90  89 89 89  88 88 88  87 87 87  86 86 86  85 85 85  84 84 84  83 83 83  83 83 83  82 82 82  81 81 81  80 80 80  79 79 79  78 78 78  77 77 77  76 76 76  76 76 76  75 75 75  74 74 74  73 73 73  72 72 72  71 71 71  71 71 71  70 70 70  69 69 69  68 68 68  68 68 68  67 67 67  66 66 66  65 65 65  65 65 65  64 64 64  63 63 63  62 62 62  62 62 62  61 61 61  60 60 60  60 60 60  59 59 59  58 58 58  57 57 57  57 57 57  56 56 56  55 55 55  55 55 55  54 54 54  53 53 53  53 53 53  52 52 52  51 51 51  51 51 51  50 50 50  50 50 50  49 49 49  48 48 48  48 48 48  47 47 47  46 46 46  46 46 46  45 45 45  45 45 45  44 44 44  43 43 43  43 43 43  42 42 42  42 42 42  41 41 41  40 40 40  40 40 40  39 39 39  39 39 39  38 38 38  37 37 37  37 37 37  36 36 36  36 36 36  35 35 35  35 35 35  34 34 34  33 33 33  33 33 33  32 32 32  32 32 32  31 31 31  31 31 31  30 30 30  
167 167 167  162 162 162  157 157 157  154 154 154  150 150 150  147 147 147  145 145 145  142 142 142  140 140 140  137 137 137  135 135 135  133 133 133  131 131 131  129 129 129  127 127 127  125 125 125  124 124 124  122 122 122  120 120 120  119 119 119  117 117 117  116 116 116  114 114 114  113 113 113  111 111 111  110 110 110  109 109 109  107 107 107  106 106 106  105 105 105  104 104 104  102 102 102  101 101 101  100 100 100  99 99 99  98 98 98  97 97 97  95 95 95  94 94 94  93 93 93  92 92 92  91 91 91  90 90 90  89 89 89  88 88 88  87 87 87  86 86 86  85 85 85  84 84 84  84 84 84  83 83 83  82 82 82  81 81 81  80 80 80  79 79 79  78 78 78  77 77 77  77 77 77  76 76 76  75 75 75  74 74 74  73 73 73  72 72 72  72 72 72  71 71 71  70 70 70  69 69 69  68 68 68  68 68 68  67 67 67  66 66 66  65 65 65  65 65 65  64 64 64  63 63 63  63 63 63  62 62 62  61 61 61  60 60 60  60 60 60  59 59 59  58 58 58  58 58 58  57 57 57  56 56 56  56 56 56  55 55 55  54 54 54  54 54 54  53 53 53  52 52 52  52 52 52  51 51 51  50 50 50  50 50 50  49 49 49  49 49 49  48 48 48  47 47 47  47 47 47  46 46 46  46 46 46  45 45 45  44 44 44  44 44 44  43 43 43  42 42 42  42 42 42  41 41 41  41 41 41  40 40 40  40 40 40  39 39 39  38 38 38  38 38 38  37 37 37  37 37 37  36 36 36  36 36 36  35 35 35  34 34 34  34 34 34  33 33 33  33 33 33  32 32 32  32 32 32  31 31 31  31 31 31  
166 166 166  161 161 161  157 157 157  153 153 153  150 150 150  147 147 147  144 144 144  142 142 142  139 139 139  137 137 137  135 135 135  132 132 132  130 130 130  129 129 129  127 127 127  125 125 125  123 123 123  122 122 122  120 120 120  118 118 118  117 117 117  115 115 115  114 114 114  112 112 112  111 111 111  110 110 110  108 108 108  107 107 107  106 106 106  105 105 105  103 103 103  102 102 102  101 101 101  100 100 100  99 99 99  98 98 98  96 96 96  95 95 95  94 94 94  93 93 93  92 92 92  91 91 91  90 90 90  89 89 89  88 88 88  87 87 87  86 86 86  85 85 85  84 84 84  84 84 84  83 83 83  82 82 82  81 81 81  80 80 80  79 79 79  78 78 78  77 77 77  77 77 77  76 76 76  75 75 75  74 74 74  73 73 73  73 73 73  72 72 72  71 71 71  70 70 70  69 69 69  69 69 69  68 68 68  67 67 67  66 66 66  66 66 66  65 65 65  64 64 64  63 63 63  63 63 63  62 62 62  61 61 61  61 61 61  60 60 60  59 59 59  59 59 59  58 58 58  57 57 57  57 57 57  56 56 56  55 55 55  55 55 55  54 54 54  53 53 53  53 53 53  52 52 52  51 51 51  51 51 51  50 50 50  49 49 49  49 49 49  48 48 48  48 48 48  47 47 47  46 46 46  46 46 46  45 45 45  45 45 45  44 44 44  43 43 43  43 43 43  42 42 42  42 42 42  41 41 41  40 40 40  40 40 40  39 39 39  39 39 39  38 38 38  38 38 38  37 37 37  36 36 36  36 36 36  35 35 35  35 35 35  34 34 34  34 34 34  33 33 33  33 33 33  32 32 32  31 31 31  31 31 31  
166 166 166  160 160 160  156 156 156  153 153 153  149 149 149  146 146 146  144 144 144  141 141 141  139 139 139  136 136 136  134 134 134  132 132 132  130 130 130  128 128 128  126 126 126  125 125 125  123 123 123  121 121 121  120 120 120  118 118 118  117 117 117  115 115 115  114 114 114  112 112 112  111 111 111  110 110 110  108 108 108  107 107 107  106 106 106  104 104 104  103 103 103  102 102 102  101 101 101  100 100 100  99 99 99  97 97 97  96 96 96  95 95 95  94 94 94  93 93 93  92 92 92  91 91 91  90 90 90  89 89 89  88 88 88  87 87 87  86 86 86  85 85 85  84 84 84  84 84 84  83 83 83  82 82 82  81 81 81  80 80 80  79 79 79  78 78 78  78 78 78  77 77 77  76 76 76  75 75 75  74 74 74  73 73 73  73 73 73  72 72 72  71 71 71  70 70 70  70 70 70  69 69 69  68 68 68  67 67 67  67 67 67  66 66 66  65 65 65  64 64 64  64 64 64  63 63 63  62 62 62  62 62 62  61 61 61  60 60 60  59 59 59  59 59 59  58 58 58  57 57 57  57 57 57  56 56 56  55 55 55  55 55 55  54 54 54  54 54 54  53 53 53  52 52 52  52 52 52  51 51 51  50 50 50  50 50 50  49 49 49  48 48 48  48 48 48  47 47 47  47 47 47  46 46 46  45 45 45  45 45 45  44 44 44  44 44 44  43 43 43  43 43 43  42 42 42  41 41 41  41 41 41  40 40 40  40 40 40  39 39 39  38 38 38  38 38 38  37 37 37  37 37 37  36 36 36  36 36 36  35 35 35  35 35 35  34 34 34  33 33 33  33 33 33  32 32 32  32 32 32  31 31 31  
165 165 165  160 160 160  156 156 156  152 152 152  149 149 149  146 146 146  143 143 143  141 141 141  138 138 138  136 136 136  134 134 134  132 132 132  130 130 130  128 128 128  126 126 126  124 124 124  123 123 123  121 121 121  119 119 119  118 118 118  116 116 116  115 115 115  113 113 113  112 112 112  111 111 111  109 109 109  108 108 108  107 107 107  106 106 106  104 104 104  103 103 103  102 102 102  101 101 101  100 100 100  98 98 98  97 97 97  96 96 96  95 95 95  94 94 94  93 93 93  92 92 92  91 91 91  90 90 90  89 89 89  88 88 88  87 87 87  86 86 86  85 85 85  84 84 84  84 84 84  83 83 83  82 82 82  81 81 81  80 80 80  79 79 79  78 78 78  78 78 78  77 77 77  76 76 76  75 75 75  74 74 74  74 74 74  73 73 73  72 72 72  71 71 71  70 70 70  70 70 70  69 69 69  68 68 68  67 67 67  67 67 67  66 66 66  65 65 65  64 64 64  64 64 64  63 63 63  62 62 62  62 62 62  61 61 61  60 60 60  60 60 60  59 59 59  58 58 58  58 58 58  57 57 57  56 56 56  56 56 56  55 55 55  54 54 54  54 54 54  53 53 53  53 53 53  52 52 52  51 51 51  51 51 51  50 50 50  49 49 49  49 49 49  48 48 48  48 48 48  47 47 47  46 46 46  46 46 46  45 45 45  45 45 45  44 44 44  43 43 43  43 43 43  42 42 42  42 42 42  41 41 41  40 40 40  40 40 40  39 39 39  39 39 39  38 38 38  38 38 38  37 37 37  37 37 37  36 36 36  35 35 35  35 35 35  34 34 34  34 34 34  33 33 33  33 33 33  32 32 32  32 32 32  
164 164 164  159 159 159  155 155 155  152 152 152  148 148 148  145 145 145  143 143 143  140 140 140  138 138 138  136 136 136  133 133 133  131 131 131  129 129 129  128 128 128  126 126 126  124 124 124  122 122 122  121 121 121  119 119 119  118 118 118  116 116 116  115 115 115  113 113 113  112 112 112  111 111 111  109 109 109  108 108 108  107 107 107  105 105 105  104 104 104  103 103 103  102 102 102  101 101 101  99 99 99  98 98 98  97 97 97  96 96 96  95 95 95  94 94 94  93 93 93  92 92 92  91 91 91  90 90 90  89 89 89  88 88 88  87 87 87  86 86 86  85 85 85  84 84 84  84 84 84  83 83 83  82 82 82  81 81 81  80 80 80  79 79 79  78 78 78  78 78 78  77 77 77  76 76 76  75 75 75  74 74 74  74 74 74  73 73 73  72 72 72  71 71 71  71 71 71  70 70 70  69 69 69  68 68 68  68 68 68  67 67 67  66 66 66  65 65 65  65 65 65  64 64 64  63 63 63  63 63 63  62 62 62  61 61 61  61 61 61  60 60 60  59 59 59  59 59 59  58 58 58  57 57 57  57 57 57  56 56 56  55 55 55  55 55 55  54 54 54  53 53 53  53 53 53  52 52 52  51 51 51  51 51 51  50 50 50  50 50 50  49 49 49  48 48 48  48 48 48  47 47 47  47 47 47  46 46 46  45 45 45  45 45 45  44 44 44  44 44 44  43 43 43  43 43 43  42 42 42  41 41 41  41 41 41  40 40 40  40 40 40  39 39 39  39 39 39  38 38 38  37 37 37  37 37 37  36 36 36  36 36 36  35 35 35  35 35 35  34 34 34  34 34 34  33 33 33  33 33 33  32 32 32  
164 164 164  159 159 159  155 155 155  151 151 151  148 148 148  145 145 145  142 142 142  140 140 140  137 137 137  135 135 135  133 133 133  131 131 131  129 129 129  127 127 127  126 126 126  124 124 124  122 122 122  120 120 120  119 119 119  117 117 117  116 116 116  114 114 114  113 113 113  112 112 112  110 110 110  109 109 109  108 108 108  106 106 106  105 105 105  104 104 104  103 103 103  102 102 102  100 100 100  99 99 99  98 98 98  97 97 97  96 96 96  95 95 95  94 94 94  93 93 93  92 92 92  91 91 91  90 90 90  89 89 89  88 88 88  87 87 87  86 86 86  85 85 85  84 84 84  84 84 84  83 83 83  82 82 82  81 81 81  80 80 80  79 79 79  79 79 79  78 78 78  77 77 77  76 76 76  75 75 75  74 74 74  74 74 74  73 73 73  72 72 72  71 71 71  71 71 71  70 70 70  69 69 69  68 68 68  68 68 68  67 67 67  66 66 66  66 66 66  65 65 65  64 64 64  63 63 63  63 63 63  62 62 62  61 61 61  61 61 61  60 60 60  59 59 59  59 59 59  58 58 58  57 57 57  57 57 57  56 56 56  55 55 55  55 55 55  54 54 54  54 54 54  53 53 53  52 52 52  52 52 52  51 51 51  51 51 51  50 50 50  49 49 49  49 49 49  48 48 48  47 47 47  47 47 47  46 46 46  46 46 46  45 45 45  45 45 45  44 44 44  43 43 43  43 43 43  42 42 42  42 42 42  41 41 41  41 41 41  40 40 40  39 39 39  39 39 39  38 38 38  38 38 38  37 37 37  37 37 37  36 36 36  36 36 36  35 35 35  34 34 34  34 34 34  33 33 33  33 33 33  32 32 32  
163 163 163  158 158 158  154 154 154  151 151 151  147 147 147  145 145 145  142 142 142  139 139 139  137 137 137  135 135 135  133 133 133  131 131 131  129 129 129  127 127 127  125 125 125  124 124 124  122 122 122  120 120 120  119 119 119  117 117 117  116 116 116  114 114 114  113 113 113  111 111 111  110 110 110  109 109 109  108 108 108  106 106 106  105 105 105  104 104 104  103 103 103  102 102 102  100 100 100  99 99 99  98 98 98  97 97 97  96 96 96  95 95 95  94 94 94  93 93 93  92 92 92  91 91 91  90 90 90  89 89 89  88 88 88  87 87 87  86 86 86  85 85 85  85 85 85  84 84 84  83 83 83  82 82 82  81 81 81  80 80 80  79 79 79  79 79 79  78 78 78  77 77 77  76 76 76  75 75 75  75 75 75  74 74 74  73 73 73  72 72 72  71 71 71  71 71 71  70 70 70  69 69 69  69 69 69  68 68 68  67 67 67  66 66 66  66 66 66  65 65 65  64 64 64  64 64 64  63 63 63  62 62 62  62 62 62  61 61 61  60 60 60  60 60 60  59 59 59  58 58 58  58 58 58  57 57 57  56 56 56  56 56 56  55 55 55  54 54 54  54 54 54  53 53 53  53 53 53  52 52 52  51 51 51  51 51 51  50 50 50  50 50 50  49 49 49  48 48 48  48 48 48  47 47 47  47 47 47  46 46 46  45 45 45  45 45 45  44 44 44  44 44 44  43 43 43  43 43 43  42 42 42  41 41 41  41 41 41  40 40 40  40 40 40  39 39 39  39 39 39  38 38 38  38 38 38  37 37 37  36 36 36  36 36 36  35 35 35  35 35 35  34 34 34  34 34 34  33 33 33  33 33 33  
163 163 163  158 158 158  154 154 154  150 150 150  147 147 147  144 144 144  141 141 141  139 139 139  137 137 137  134 134 134  132 132 132  130 130 130  128 128 128  127 127 127  125 125 125  123 123 123  122 122 122  120 120 120  118 118 118  117 117 117  115 115 115  114 114 114  113 113 113  111 111 111  110 110 110  109 109 109  107 107 107  106 106 106  105 105 105  104 104 104  103 103 103  101 101 101  100 100 100  99 99 99  98 98 98  97 97 97  96 96 96  95 95 95  94 94 94  93 93 93  92 92 92  91 91 91  90 90 90  89 89 89  88 88 88  87 87 87  86 86 86  85 85 85  85 85 85  84 84 84  83 83 83  82 82 82  81 81 81  80 80 80  79 79 79  79 79 79  78 78 78  77 77 77  76 76 76  75 75 75  75 75 75  74 74 74  73 73 73  72 72 72  72 72 72  71 71 71  70 70 70  69 69 69  69 69 69  68 68 68  67 67 67  67 67 67  66 66 66  65 65 65  64 64 64  64 64 64  63 63 63  62 62 62  62 62 62  61 61 61  60 60 60  60 60 60  59 59 59  58 58 58  58 58 58  57 57 57  57 57 57  56 56 56  55 55 55  55 55 55  54 54 54  53 53 53  53 53 53  52 52 52  52 52 52  51 51 51  50 50 50  50 50 50  49 49 49  49 49 49  48 48 48  47 47 47  47 47 47  46 46 46  46 46 46  45 45 45  45 45 45  44 44 44  43 43 43  43 43 43  42 42 42  42 42 42  41 41 41  41 41 41  40 40 40  40 40 40  39 39 39  38 38 38  38 38 38  37 37 37  37 37 37  36 36 36  36 36 36  35 35 35  35 35 35  34 34 34  34 34 34  33 33 33  
162 162 162  157 157 157  153 153 153  150 150 150  147 147 147  144 144 144  141 141 141  139 139 139  136 136 136  134 134 134  132 132 132  130 130 130  128 128 128  126 126 126  125 125 125  123 123 123  121 121 121  120 120 120  118 118 118  117 117 117  115 115 115  114 114 114  112 112 112  111 111 111  110 110 110  108 108 108  107 107 107  106 106 106  105 105 105  104 104 104  102 102 102  101 101 101  100 100 100  99 99 99  98 98 98  97 97 97  96 96 96  95 95 95  94 94 94  93 93 93  92 92 92  91 91 91  90 90 90  89 89 89  88 88 88  87 87 87  86 86 86  85 85 85  85 85 85  84 84 84  83 83 83  82 82 82  81 81 81  80 80 80  79 79 79  79 79 79  78 78 78  77 77 77  76 76 76  75 75 75  75 75 75  74 74 74  73 73 73  72 72 72  72 72 72  71 71 71  70 70 70  70 70 70  69 69 69  68 68 68  67 67 67  67 67 67  66 66 66  65 65 65  65 65 65  64 64 64  63 63 63  63 63 63  62 62 62  61 61 61  61 61 61  60 60 60  59 59 59  59 59 59  58 58 58  57 57 57  57 57 57  56 56 56  56 56 56  55 55 55  54 54 54  54 54 54  53 53 53  52 52 52  52 52 52  51 51 51  51 51 51  50 50 50  49 49 49  49 49 49  48 48 48  48 48 48  47 47 47  47 47 47  46 46 46  45 45 45  45 45 45  44 44 44  44 44 44  43 43 43  43 43 43  42 42 42  41 41 41  41 41 41  40 40 40  40 40 40  39 39 39  39 39 39  38 38 38  38 38 38  37 37 37  37 37 37  36 36 36  36 36 36  35 35 35  34 34 34  34 34 34  33 33 33  
161 161 161  157 157 157  153 153 153  149 149 149  146 146 146  143 143 143  141 141 141  138 138 138  136 136 136  134 134 134  132 132 132  130 130 130  128 128 128  126 126 126  124 124 124  123 123 123  121 121 121  119 119 119  118 118 118  116 116 116  115 115 115  114 114 114  112 112 112  111 111 111  110 110 110  108 108 108  107 107 107  106 106 106  105 105 105  103 103 103  102 102 102  101 101 101  100 100 100  99 99 99  98 98 98  97 97 97  96 96 96  95 95 95  94 94 94  93 93 93  92 92 92  91 91 91  90 90 90  89 89 89  88 88 88  87 87 87  86 86 86  85 85 85  85 85 85  84 84 84  83 83 83  82 82 82  81 81 81  80 80 80  79 79 79  79 79 79  78 78 78  77 77 77  76 76 76  76 76 76  75 75 75  74 74 74  73 73 73  73 73 73  72 72 72  71 71 71  70 70 70  70 70 70  69 69 69  68 68 68  67 67 67  67 67 67  66 66 66  65 65 65  65 65 65  64 64 64  63 63 63  63 63 63  62 62 62  61 61 61  61 61 61  60 60 60  60 60 60  59 59 59  58 58 58  58 58 58  57 57 57  56 56 56  56 56 56  55 55 55  55 55 55  54 54 54  53 53 53  53 53 53  52 52 52  51 51 51  51 51 51  50 50 50  50 50 50  49 49 49  49 49 49  48 48 48  47 47 47  47 47 47  46 46 46  46 46 46  45 45 45  45 45 45  44 44 44  43 43 43  43 43 43  42 42 42  42 42 42  41 41 41  41 41 41  40 40 40  40 40 40  39 39 39  39 39 39  38 38 38  37 37 37  37 37 37  36 36 36  36 36 36  35 35 35  35 35 35  34 34 34  34 34 34  
161 161 161  156 156 156  152 152 152  149 149 149  146 146 146  143 143 143  140 140 140  138 138 138  136 136 136  133 133 133  131 131 131  129 129 129  127 127 127  126 126 126  124 124 124  122 122 122  121 121 121  119 119 119  118 118 118  116 116 116  115 115 115  113 113 113  112 112 112  111 111 111  109 109 109  108 108 108  107 107 107  106 106 106  104 104 104  103 103 103  102 102 102  101 101 101  100 100 100  99 99 99  98 98 98  97 97 97  96 96 96  95 95 95  94 94 94  93 93 93  92 92 92  91 91 91  90 90 90  89 89 89  88 88 88  87 87 87  86 86 86  85 85 85  85 85 85  84 84 84  83 83 83  82 82 82  81 81 81  80 80 80  80 80 80  79 79 79  78 78 78  77 77 77  76 76 76  76 76 76  75 75 75  74 74 74  73 73 73  73 73 73  72 72 72  71 71 71  70 70 70  70 70 70  69 69 69  68 68 68  68 68 68  67 67 67  66 66 66  66 66 66  65 65 65  64 64 64  64 64 64  63 63 63  62 62 62  62 62 62  61 61 61  60 60 60  60 60 60  59 59 59  58 58 58  58 58 58  57 57 57  57 57 57  56 56 56  55 55 55  55 55 55  54 54 54  54 54 54  53 53 53  52 52 52  52 52 52  51 51 51  51 51 51  50 50 50  49 49 49  49 49 49  48 48 48  48 48 48  47 47 47  47 47 47  46 46 46  45 45 45  45 45 45  44 44 44  44 44 44  43 43 43  43 43 43  42 42 42  42 42 42  41 41 41  40 40 40  40 40 40  39 39 39  39 39 39  38 38 38  38 38 38  37 37 37  37 37 37  36 36 36  36 36 36  35 35 35  35 35 35  34 34 34  
160 160 160  156 156 156  152 152 152  148 148 148  145 145 145  142 142 142  140 140 140  137 137 137  135 135 135  133 133 133  131 131 131  129 129 129  127 127 127  126 126 126  124 124 124  122 122 122  121 121 121  119 119 119  117 117 117  116 116 116  115 115 115  113 113 113  112 112 112  111 111 111  109 109 109  108 108 108  107 107 107  106 106 106  104 104 104  103 103 103  102 102 102  101 101 101  100 100 100  99 99 99  98 98 98  97 97 97  96 96 96  95 95 95  94 94 94  93 93 93  92 92 92  91 91 91  90 90 90  89 89 89  88 88 88  87 87 87  86 86 86  85 85 85  85 85 85  84 84 84  83 83 83  82 82 82  81 81 81  80 80 80  80 80 80  79 79 79  78 78 78  77 77 77  76 76 76  76 76 76  75 75 75  74 74 74  73 73 73  73 73 73  72 72 72  71 71 71  71 71 71  70 70 70  69 69 69  68 68 68  68 68 68  67 67 67  66 66 66  66 66 66  65 65 65  64 64 64  64 64 64  63 63 63  62 62 62  62 62 62  61 61 61  61 61 61  60 60 60  59 59 59  59 59 59  58 58 58  57 57 57  57 57 57  56 56 56  56 56 56  55 55 55  54 54 54  54 54 54  53 53 53  53 53 53  52 52 52  51 51 51  51 51 51  50 50 50  50 50 50  49 49 49  48 48 48  48 48 48  47 47 47  47 47 47  46 46 46  46 46 46  45 45 45  45 45 45  44 44 44  43 43 43  43 43 43  42 42 42  42 42 42  41 41 41  41 41 41  40 40 40  40 40 40  39 39 39  39 39 39  38 38 38  38 38 38  37 37 37  36 36 36  36 36 36  35 35 35  35 35 35  34 34 34  
160 160 160  155 155 155  151 151 151  148 148 148  145 145 145  142 142 142  139 139 139  137 137 137  135 135 135  133 133 133  131 131 131  129 129 129  127 127 127  125 125 125  123 123 123  122 122 122  120 120 120  119 119 119  117 117 117  116 116 116  114 114 114  113 113 113  112 112 112  110 110 110  109 109 109  108 108 108  107 107 107  105 105 105  104 104 104  103 103 103  102 102 102  101 101 101  100 100 100  99 99 99  98 98 98  97 97 97  96 96 96  95 95 95  94 94 94  93 93 93  92 92 92  91 91 91  90 90 90  89 89 89  88 88 88  87 87 87  86 86 86  85 85 85  85 85 85  84 84 84  83 83 83  82 82 82  81 81 81  80 80 80  80 80 80  79 79 79  78 78 78  77 77 77  77 77 77  76 76 76  75 75 75  74 74 74  74 74 74  73 73 73  72 72 72  71 71 71  71 71 71  70 70 70  69 69 69  69 69 69  68 68 68  67 67 67  66 66 66  66 66 66  65 65 65  64 64 64  64 64 64  63 63 63  63 63 63  62 62 62  61 61 61  61 61 61  60 60 60  59 59 59  59 59 59  58 58 58  58 58 58  57 57 57  56 56 56  56 56 56  55 55 55  55 55 55  54 54 54  53 53 53  53 53 53  52 52 52  52 52 52  51 51 51  50 50 50  50 50 50  49 49 49  49 49 49  48 48 48  48 48 48  47 47 47  46 46 46  46 46 46  45 45 45  45 45 45  44 44 44  44 44 44  43 43 43  43 43 43  42 42 42  42 42 42  41 41 41  40 40 40  40 40 40  39 39 39  39 39 39  38 38 38  38 38 38  37 37 37  37 37 37  36 36 36  36 36 36  35 35 35  35 35 35  
159 159 159  155 155 155  151 151 151  147 147 147  144 144 144  142 142 142  139 139 139  137 137 137  134 134 134  132 132 132  130 130 130  128 128 128  127 127 127  125 125 125  123 123 123  122 122 122  120 120 120  118 118 118  117 117 117  116 116 116  114 114 114  113 113 113  111 111 111  110 110 110  109 109 109  108 108 108  106 106 106  105 105 105  104 104 104  103 103 103  102 102 102  101 101 101  100 100 100  99 99 99  98 98 98  96 96 96  95 95 95  95 95 95  94 94 94  93 93 93  92 92 92  91 91 91  90 90 90  89 89 89  88 88 88  87 87 87  86 86 86  85 85 85  85 85 85  84 84 84  83 83 83  82 82 82  81 81 81  80 80 80  80 80 80  79 79 79  78 78 78  77 77 77  77 77 77  76 76 76  75 75 75  74 74 74  74 74 74  73 73 73  72 72 72  71 71 71  71 71 71  70 70 70  69 69 69  69 69 69  68 68 68  67 67 67  67 67 67  66 66 66  65 65 65  65 65 65  64 64 64  63 63 63  63 63 63  62 62 62  61 61 61  61 61 61  60 60 60  60 60 60  59 59 59  58 58 58  58 58 58  57 57 57  57 57 57  56 56 56  55 55 55  55 55 55  54 54 54  54 54 54  53 53 53  52 52 52  52 52 52  51 51 51  51 51 51  50 50 50  50 50 50  49 49 49  48 48 48  48 48 48  47 47 47  47 47 47  46 46 46  46 46 46  45 45 45  45 45 45  44 44 44  43 43 43  43 43 43  42 42 42  42 42 42  41 41 41  41 41 41  40 40 40  40 40 40  39 39 39  39 39 39  38 38 38  38 38 38  37 37 37  37 37 37  36 36 36  36 36 36  35 35 35  
159 159 159  154 154 154  150 150 150  147 147 147  144 144 144  141 141 141  139 139 139  136 136 136  134 134 134  132 132 132  130 130 130  128 128 128  126 126 126  125 125 125  123 123 123  121 121 121  120 120 120  118 118 118  117 117 117  115 115 115  114 114 114  113 113 113  111 111 111  110 110 110  109 109 109  107 107 107  106 106 106  105 105 105  104 104 104  103 103 103  102 102 102  101 101 101  100 100 100  98 98 98  97 97 97  96 96 96  95 95 95  94 94 94  94 94 94  93 93 93  92 92 92  91 91 91  90 90 90  89 89 89  88 88 88  87 87 87  86 86 86  85 85 85  85 85 85  84 84 84  83 83 83  82 82 82  81 81 81  80 80 80  80 80 80  79 79 79  78 78 78  77 77 77  77 77 77  76 76 76  75 75 75  74 74 74  74 74 74  73 73 73  72 72 72  72 72 72  71 71 71  70 70 70  69 69 69  69 69 69  68 68 68  67 67 67  67 67 67  66 66 66  65 65 65  65 65 65  64 64 64  63 63 63  63 63 63  62 62 62  62 62 62  61 61 61  60 60 60  60 60 60  59 59 59  59 59 59  58 58 58  57 57 57  57 57 57  56 56 56  56 56 56  55 55 55  54 54 54  54 54 54  53 53 53  53 53 53  52 52 52  51 51 51  51 51 51  50 50 50  50 50 50  49 49 49  49 49 49  48 48 48  48 48 48  47 47 47  46 46 46  46 46 46  45 45 45  45 45 45  44 44 44  44 44 44  43 43 43  43 43 43  42 42 42  42 42 42  41 41 41  41 41 41  40 40 40  39 39 39  39 39 39  38 38 38  38 38 38  37 37 37  37 37 37  36 36 36  36 36 36  35 35 35  
159 159 159  154 154 154  150 150 150  147 147 147  144 144 144  141 141 141  138 138 138  136 136 136  134 134 134  132 132 132  130 130 130  128 128 128  126 126 126  124 124 124  123 123 123  121 121 121  120 120 120  118 118 118  117 117 117  115 115 115  114 114 114  112 112 112  111 111 111  110 110 110  109 109 109  107 107 107  106 106 106  105 105 105  104 104 104  103 103 103  102 102 102  100 100 100  99 99 99  98 98 98  97 97 97  96 96 96  95 95 95  94 94 94  93 93 93  92 92 92  92 92 92  91 91 91  90 90 90  89 89 89  88 88 88  87 87 87  86 86 86  85 85 85  85 85 85  84 84 84  83 83 83  82 82 82  81 81 81  80 80 80  80 80 80  79 79 79  78 78 78  77 77 77  77 77 77  76 76 76  75 75 75  74 74 74  74 74 74  73 73 73  72 72 72  72 72 72  71 71 71  70 70 70  70 70 70  69 69 69  68 68 68  68 68 68  67 67 67  66 66 66  66 66 66  65 65 65  64 64 64  64 64 64  63 63 63  62 62 62  62 62 62  61 61 61  61 61 61  60 60 60  59 59 59  59 59 59  58 58 58  57 57 57  57 57 57  56 56 56  56 56 56  55 55 55  55 55 55  54 54 54  53 53 53  53 53 53  52 52 52  52 52 52  51 51 51  51 51 51  50 50 50  49 49 49  49 49 49  48 48 48  48 48 48  47 47 47  47 47 47  46 46 46  46 46 46  45 45 45  45 45 45  44 44 44  43 43 43  43 43 43  42 42 42  42 42 42  41 41 41  41 41 41  40 40 40  40 40 40  39 39 39  39 39 39  38 38 38  38 38 38  37 37 37  37 37 37  36 36 36  36 36 36  
158 158 158  153 153 153  149 149 149  146 146 146  143 143 143  140 140 140  138 138 138  136 136 136  133 133 133  131 131 131  129 129 129  128 128 128  126 126 126  124 124 124  122 122 122  121 121 121  119 119 119  118 118 118  116 116 116  115 115 115  114 114 114  112 112 112  111 111 111  110 110 110  108 108 108  107 107 107  106 106 106  105 105 105  104 104 104  103 103 103  101 101 101  100 100 100  99 99 99  98 98 98  97 97 97  96 96 96  95 95 95  94 94 94  93 93 93  92 92 92  92 92 92  91 91 91  90 90 90  89 89 89  88 88 88  87 87 87  86 86 86  85 85 85  85 85 85  84 84 84  83 83 83  82 82 82  81 81 81  81 81 81  80 80 80  79 79 79  78 78 78  77 77 77  77 77 77  76 76 76  75 75 75  75 75 75  74 74 74  73 73 73  72 72 72  72 72 72  71 71 71  70 70 70  70 70 70  69 69 69  68 68 68  68 68 68  67 67 67  66 66 66  66 66 66  65 65 65  64 64 64  64 64 64  63 63 63  63 63 63  62 62 62  61 61 61  61 61 61  60 60 60  59 59 59  59 59 59  58 58 58  58 58 58  57 57 57  56 56 56  56 56 56  55 55 55  55 55 55  54 54 54  54 54 54  53 53 53  52 52 52  52 52 52  51 51 51  51 51 51  50 50 50  50 50 50  49 49 49  49 49 49  48 48 48  47 47 47  47 47 47  46 46 46  46 46 46  45 45 45  45 45 45  44 44 44  44 44 44  43 43 43  43 43 43  42 42 42  42 42 42  41 41 41  41 41 41  40 40 40  40 40 40  39 39 39  39 39 39  38 38 38  37 37 37  37 37 37  36 36 36  36 36 36  
